!!!!SEGMENT: pl-cz--iii-555--001-005_raszek-waclaw--requiem-domine-jesu-christe.krn
!!!cenid: 17xx:1084
!!!COM: Raszek, Wacław
!!!COM-rismID: pe30020314
!!!CDT: <1848->1848
!!!CNT:
!!!OPR: Requiem
!!!OTL: Domine Jesu Christe
!!!OMV: 005
!!!PDT:
!!!AGN: Sacred; Requiem
!!!SMS-siglum: PL-CZ
!!!SMS-shelfmark: III-555
!!!SMS-shelfwork: 001-005 M
!!!SMS-variant:
!!!SMS-altvar:
!!!NIFC-rismSourceID: 300001055
!!!NIFC-rismChildID: 300001055
!!!NIFC-islandoraID: pl-cz:38890
!!!URL-pdf-islandora: https://repozytorium.nifc.pl/islandora/object/pl-cz%3A38890/datastream/PDF/view
!!!URL-scan: https://polish.musicsources.pl/pl/lokalizacje/galeria/rekopisy/6945/1 @EN{Scan on Polish Music Sources Website} @PL{Skany w portalu Dziedzictwo Muzyki Polskiej w otwartym dostępie}
!!!ONB-nifc: UWAGA: części Requiem: Requiem, Kyrie, Dies irae, Qui Mariam, Domine Jesu Christe, Sanctus, Pleni sunt, Benedictus, Agnus Dei, Lux aeterna
!!!AIN: 1 alto 1 bass 2 clars 2 cor 1 fagot 1 soprn 1 tenor 1 viole
!!!key: E-
!!!OMD:
!!!OMD-mod: Offertorium \nAdagio
**kern	**dynam	**kern	**text	**mod-text	**dynam	**mod-dynam	**kern	**text	**mod-text	**dynam	**mod-dynam	**kern	**text	**mod-text	**dynam	**mod-dynam	**kern	**text	**mod-text	**dynam	**mod-dynam	**kern	**dynam	**kern	**dynam	**kern	**dynam	**kern	**dynam
*	*	*group3	*	*	*	*	*group3	*	*	*	*	*group3	*	*	*	*	*group3	*	*	*	*	*group2	*	*group2	*	*group1	*	*group1	*
*part9	*part9	*part8	*part8	*part8	*part8	*part8	*part7	*part7	*part7	*part7	*part7	*part6	*part6	*part6	*part6	*part6	*part5	*part5	*part5	*part5	*part5	*part4	*part4	*part3	*part3	*part2	*part2	*part1	*part1
*staff9	*	*staff8	*staff8	*staff8	*	*	*staff7	*staff7	*staff7	*	*	*staff6	*staff6	*staff6	*	*	*staff5	*staff5	*staff5	*	*	*staff4	*	*staff3	*	*staff2	*	*staff1	*
*Ifagot|Iviole	*	*Ibass	*	*	*	*	*Itenor	*	*	*	*	*Ialto	*	*	*	*	*Isoprn	*	*	*	*	*Icor	*	*Icor	*	*Iclars	*	*Iclars	*
*I"Fagoto vel Violone.	*	*I"Baſso.	*	*	*	*	*I"Tenore.	*	*	*	*	*I"Alto	*	*	*	*	*I"Canto	*	*	*	*	*I"Cornu IIdo in Dis.	*	*I"Corno Imo in dis	*	*I"Clarinetto 2do in B.	*	*I"Clarinetto Imo in B.	*
*mI"Fagoto vel Violone	*	*mI"Basso	*	*	*	*	*mI"Tenore	*	*	*	*	*	*	*	*	*	*mI"Soprano	*	*	*	*	*mI"Corno II in Eb	*	*mI"Corno I in Eb	*	*mI"Clarinetto II in Bb	*	*mI"Clarinetto I in Eb	*
*I'fag vel vlne	*	*I'B	*	*	*	*	*I'T	*	*	*	*	*I'A	*	*	*	*	*I'S	*	*	*	*	*I'cor 2 in E|b	*	*I'cor 1 in E|b	*	*I'cl 2	*	*I'cl 1	*
*ICww|ICstr	*	*ICvox	*	*	*	*	*ICvox	*	*	*	*	*ICvox	*	*	*	*	*ICvox	*	*	*	*	*ICbras	*	*ICbras	*	*ICww	*	*ICww	*
*IGcont	*	*IGcoro	*	*	*	*	*IGcoro	*	*	*	*	*IGcoro	*	*	*	*	*IGcoro	*	*	*	*	*	*	*	*	*	*	*	*
*clefF4	*	*clefF4	*	*	*	*	*clefC4	*	*	*	*	*clefC3	*	*	*	*	*clefC1	*	*	*	*	*clefG2	*	*clefG2	*	*clefG2	*	*clefG2	*
*	*	*	*	*	*	*	*mclefGv2	*	*	*	*	*mclefG2	*	*	*	*	*mclefG2	*	*	*	*	*	*	*	*	*	*	*	*
*	*	*	*	*	*	*	*	*	*	*	*	*	*	*	*	*	*	*	*	*	*	*ITrd5c9	*	*ITrd5c9	*	*ITrd1c2	*	*ITrd1c2	*
*k[e-a-b-]	*	*k[b-a-e-]	*	*	*	*	*k[b-e-a-]	*	*	*	*	*k[b-e-a-]	*	*	*	*	*k[a-b-e-]	*	*	*	*	*k[b-e-a-]	*	*k[b-e-a-]	*	*k[b-e-a-]	*	*k[b-e-a-]	*
*mk[b-e-a-]	*	*mk[b-e-a-]	*	*	*	*	*	*	*	*	*	*	*	*	*	*	*mk[b-e-a-]	*	*	*	*	*	*	*	*	*	*	*	*
*E-:	*	*E-:	*	*	*	*	*E-:	*	*	*	*	*E-:	*	*	*	*	*E-:	*	*	*	*	*E-:	*	*E-:	*	*E-:	*	*E-:	*
*M2/4	*	*M2/4	*	*	*	*	*M2/4	*	*	*	*	*M2/4	*	*	*	*	*M2/4	*	*	*	*	*M2/4	*	*M2/4	*	*M2/4	*	*M2/4	*
=1	=1	=1	=1	=1	=1	=1	=1	=1	=1	=1	=1	=1	=1	=1	=1	=1	=1	=1	=1	=1	=1	=1	=1	=1	=1	=1	=1	=1	=1
*	*	*	*	*	*	*	*	*	*	*	*	*	*	*	*	*	*	*	*	*	*	*	*	*	*	*all\right	*	*	*
!LO:TX:t=P:problem=znaki E- A- BB-	!	!LO:TX:t=P:problem=znaki BB- A- E-	!	!	!	!	!	!	!	!	!	!	!	!	!	!	!	!	!	!	!	!	!	!	!	!	!	!LO:TX:t=P:problem=Brak tt. 1-50	!
!LO:TX:t=P:problem=mixed beam	!	!LO:TX:a:B:rj:t=adagio:mod=	!	!	!	!	!LO:TX:a:i:t=adagio:mod=	!	!	!	!	!	!	!	!	!	!	!	!	!	!	!	!	!LO:TX:t=Adagio:mod=	!	!	!	!	!
!LO:TX:a:B:t=Domine adagio:mod=	!	!LO:TX:t=Offertorium:mod=	!	!	!	!	!LO:TX:a:i:t=Offertorium.:mod=	!	!	!	!	!LO:TX:a:B:rj:t=Offertorium:mod=	!	!	!	!	!LO:SIC:s=8.ee-	!	!	!	!	!LO:TX:i:rj:t=Adagio.:mod=	!	!LO:TX:a:B:t=Offertorium:mod=	!	!LO:TX:rj:t=Adagio:mod=	!	!	!
8.E-\L	.	8.e-\	Do-	Do-	.	.	8.e-\	Do-	Do-	.	.	8.g\	Do-	Do-	.	.	8.ee-\L	Do-	Do-	.	.	8.e-\L	.	8.g\L	.	8.g/L	.	8.ee-\L@	.
!	!	!	!	!	!	!	!	!	!	!	!	!	!	!	!	!	!LO:SIC:s=16b-	!	!	!	!	!	!	!	!	!LO:SIC:s=16gJ	!	!	!
16EE-/Jk	.	16E-\	-mi-	-mi-	.	.	16e-\	-mi-	-mi-	.	.	16g\	-mi-	-mi-	.	.	16b-\Jk	.	-mi-	.	.	16e-\Jk	.	16g\Jk	.	16g/K	.	16b-\Jk@	.
!	!	!	!	!	!	!	!	!	!	!	!	!	!	!	!	!	!	!	!	!	!	!	!	!	!	!LO:MO:mod=4g	!	!	!
4EE-/	.	4E-\	-ne	-ne	.	.	4e-\	-ne	-ne	.	.	4g\	-ne	-ne	.	.	4b-\	-mi-	-ne	.	.	4e-\	.	4g\	.	8g/	.	4b-\@	.
!	!	!	!	!	!	!	!	!	!	!	!	!	!	!	!	!	!	!	!	!	!	!	!	!	!	!LO:MO:mod=.	!	!	!
.	.	.	.	.	.	.	.	.	.	.	.	.	.	.	.	.	.	.	.	.	.	.	.	.	.	8g/J	.	.	.
=2	=2	=2	=2	=2	=2	=2	=2	=2	=2	=2	=2	=2	=2	=2	=2	=2	=2	=2	=2	=2	=2	=2	=2	=2	=2	=2	=2	=2	=2
4r	.	4r	.	.	.	.	4r	.	.	.	.	4g\	JE-	Je-	.	.	4b-\	-ne	Je-	.	.	4r	.	4r	.	4g/	.	4b-\@	.
8r	.	8E-\	JE-	Je-	.	.	8B-\	JE-	Je-	.	.	16a-\LL	-ſu	.	.	.	16cc\LL	Je-	.	.	.	8r	.	8r	.	16a-/LL	.	16cc\LL@	.
.	.	.	.	.	.	.	.	.	.	.	.	16g\JJ	.	.	.	.	16b-\JJ	.	.	.	.	.	.	.	.	16g/	.	16b-\@	.
8E-\	.	8E-\	-su	-su	.	.	8B-\	-su	-su	.	.	16f\LL	.	-su	.	.	16a-\LL	-su	-su	.	.	8e-\	.	8g\	.	16f/	.	16a-\@	.
.	.	.	.	.	.	.	.	.	.	.	.	16e-\JJ	.	.	.	.	16g\JJ	.	.	.	.	.	.	.	.	16e-/JJ	.	16g\JJ@	.
=3	=3	=3	=3	=3	=3	=3	=3	=3	=3	=3	=3	=3	=3	=3	=3	=3	=3	=3	=3	=3	=3	=3	=3	=3	=3	=3	=3	=3	=3
!	!	!	!	!	!	!	!	!	!	!	!	!	!	!	!	!	!	!	!	!	!	!	!	!	!	!LO:SIC:v:s=4e-/	!	!	!
4B-\	.	4B-\	Chriſ-	Chris-	.	.	4B-\	Chriſ-	Chris-	.	.	4e-\	chris-	Chris-	.	.	4g\	Chriſ-	Chris-	.	.	4e-\	.	4g\	.	4eX/	.	4g\\@	.
4BB-/	.	4BB-/	-te	-te	.	.	4B-\	-te	-te	.	.	4f\	-te	-te	.	.	4a-\	-te	-te	.	.	4f\	.	4a-\	.	4f/	.	4a-\@	.
=4	=4	=4	=4	=4	=4	=4	=4	=4	=4	=4	=4	=4	=4	=4	=4	=4	=4	=4	=4	=4	=4	=4	=4	=4	=4	=4	=4	=4	=4
!LO:TX:t=P:problem=mixed beam	!	!	!	!	!	!	!	!	!	!	!	!	!	!	!	!	!	!	!	!	!	!	!	!	!	!	!	!	!
8.B-\L	.	8.BB-/	Do-	Do-	.	.	8.d\	Do-	Do-	.	.	8.a-\	Do-	Do-	.	.	8.ff\	Do-	Do-	.	.	8.B-/L	.	8.f\L	.	8.a-/L	.	8.ffL\@	.
16BB-/Jk	.	16BB-/	-mi-	-mi-	.	.	16d\	-mi-	-mi-	.	.	16f\	-mi-	-mi-	.	.	16a-\	-mi-	-mi-	.	.	16B-/Jk	.	16f\Jk	.	16f/Jk	.	16a-Jk\@	.
4BB-/	.	4BB-/	-ne	-ne	.	.	4d\	-ne	-ne	.	.	4f\	-ne	-ne	.	.	4a-\	-ne	-ne	.	.	4B-/	.	4f\	.	4f/	.	4a-\@	.
=5	=5	=5	=5	=5	=5	=5	=5	=5	=5	=5	=5	=5	=5	=5	=5	=5	=5	=5	=5	=5	=5	=5	=5	=5	=5	=5	=5	=5	=5
*	*	*	*	*	*	*	*	*ij	*	*	*	*	*	*	*	*	*	*ij	*	*	*	*	*	*	*	*	*	*	*
4r	.	4r	.	.	.	.	4r	.	.	.	.	4f\	JE-	Je-	.	.	4a-\	Je-	Je-	.	.	4r	.	4r	.	4f/	.	4a-\@	.
8r	.	8BB-/	JE-	Je-	.	.	8B-\	Je-	Je-	.	.	16g\LL	-ſu	.	.	.	16b-\LL	-su	.	.	.	8r	.	8r	.	16g/LL	.	16b-LL/@	.
.	.	.	.	.	.	.	.	.	.	.	.	16f\JJ	.	.	.	.	16a-\JJ	.	.	.	.	.	.	.	.	16f/	.	16a-/@	.
8BB-/	.	8BB-/	-su	-su	.	.	8B-\	-su	-su	.	.	16e-\LL	.	-su	.	.	16g\LL	.	-su	.	.	8B-/	.	8f\	.	16e-/	.	16g/@	.
.	.	.	.	.	.	.	.	.	.	.	.	16d\JJ	.	.	.	.	16f\JJ	.	.	.	.	.	.	.	.	16d/JJ	.	16fJJ/@	.
=6	=6	=6	=6	=6	=6	=6	=6	=6	=6	=6	=6	=6	=6	=6	=6	=6	=6	=6	=6	=6	=6	=6	=6	=6	=6	=6	=6	=6	=6
8E-\L	.	4E-\	Chriſ-	Chris-	.	.	4B-\	Chris-	Chris-	.	.	4d\	chris-	Chris-	.	.	4f/	Chriſ-	Chris-	.	.	4B-/	.	4f\	.	4d/	.	4f/@	.
8BB-\J	.	.	.	.	.	.	.	.	.	.	.	.	.	.	.	.	.	.	.	.	.	.	.	.	.	.	.	.	.
4EE-/	.	4E-\	-te	-te	.	.	4B-\	-te	-te	.	.	4e-\	-te	-te	.	.	4g/	-te	-te	.	.	4e-\	.	4g\	.	4e-/	.	4g/@	.
*	*	*	*	*	*	*	*	*Xij	*	*	*	*	*	*	*	*	*	*Xij	*	*	*	*	*	*	*	*	*	*	*
=7	=7	=7	=7	=7	=7	=7	=7	=7	=7	=7	=7	=7	=7	=7	=7	=7	=7	=7	=7	=7	=7	=7	=7	=7	=7	=7	=7	=7	=7
*	*	*2\right	*	*	*	*	*2\right	*	*	*	*	*2\right	*	*	*	*	*2\right	*	*	*	*	*	*	*	*	*	*	*	*
8r	.	2E-\	Rex	Rex	.	.	2B-\	Rex	Rex	.	.	2g\	Rex	Rex	.	.	2ee-\	Rex	Rex	.	.	8r	.	8r	.	2g/	.	2ee-\@	.
8E-\L	.	.	.	.	.	.	.	.	.	.	.	.	.	.	.	.	.	.	.	.	.	8e-\L	.	8g\L	.	.	.	.	.
8G\	.	.	.	.	.	.	.	.	.	.	.	.	.	.	.	.	.	.	.	.	.	8e-\	.	8g\	.	.	.	.	.
8B-\J	.	.	.	.	.	.	.	.	.	.	.	.	.	.	.	.	.	.	.	.	.	8e-\J	.	8g\J	.	.	.	.	.
=8	=8	=8	=8	=8	=8	=8	=8	=8	=8	=8	=8	=8	=8	=8	=8	=8	=8	=8	=8	=8	=8	=8	=8	=8	=8	=8	=8	=8	=8
8e-\L	.	4.G\	Glo-	glo-	.	.	4.B-\	glo-	glo-	.	.	4.g\	Glo-	glo-	.	.	4.ee-\	glo-	glo-	.	.	8r	.	8r	.	4.g/	.	4.ee-\@	.
8B-\	.	.	.	.	.	.	.	.	.	.	.	.	.	.	.	.	.	.	.	.	.	8e-\	.	8g\	.	.	.	.	.
8G\	.	.	.	.	.	.	.	.	.	.	.	.	.	.	.	.	.	.	.	.	.	8e-\L	.	8g\L	.	.	.	.	.
8E-\J	.	8E-\	-ri-	-ri-	.	.	8B-\	-ri-	-ri-	.	.	8g\	-ri-	-ri-	.	.	8ee-\	-ri-	-ri-	.	.	16g\L	.	16b-\L	.	8g/	.	8ee-\@	.
.	.	.	.	.	.	.	.	.	.	.	.	.	.	.	.	.	.	.	.	.	.	16e-\JJ	.	16g\JJ	.	.	.	.	.
=9	=9	=9	=9	=9	=9	=9	=9	=9	=9	=9	=9	=9	=9	=9	=9	=9	=9	=9	=9	=9	=9	=9	=9	=9	=9	=9	=9	=9	=9
!LO:TX:t=P:problem=mixed beam	!	!	!	!	!	!	!	!	!	!	!	!	!	!	!	!	!	!	!	!	!	!	!	!	!	!	!	!	!
8BB-/L	.	4BB-/	-e	-ae	.	.	4B-\	-a	-ae	.	.	4f\	-e	-ae	.	.	4dd\	-ae	-ae	.	.	8B-/L	.	8f\L	.	4f/	.	4dd\@	.
8B-\J	.	.	.	.	.	.	.	.	.	.	.	.	.	.	.	.	.	.	.	.	.	8B-/J	.	8f\J	.	.	.	.	.
4BB-/	.	4r	.	.	.	.	4r	.	.	.	.	4r	.	.	.	.	4r	.	.	.	.	4B-/	.	4f\	.	4r	.	4r@	.
!	!	!	!	!	!	!	!	!	!	!	!	!	!	!	!	!	!LO:LB:g=original	!	!	!	!	!	!	!LO:LB:g=original	!	!	!	!	!
=10	=10	=10	=10	=10	=10	=10	=10	=10	=10	=10	=10	=10	=10	=10	=10	=10	=10	=10	=10	=10	=10	=10	=10	=10	=10	=10	=10	=10	=10
!LO:TX:t=P:problem=mixed beam	!	!	!	!	!	!	!	!	!	!	!	!LO:TX:a:t=1:mod=	!	!	!	!	!	!	!	!	!	!	!	!	!	!	!	!	!
8.B-\L	.	8.B-\	glo-	Do-	.	.	2r	.	.	.	.	2r	.	.	.	.	8.b-\	Do-	Do-	.	.	8.BB-/L	.	8.B-/L	.	8.d/L	.	8.ffL\@	.
16BB-/Jk	.	16BB-/	-ri-	-mi-	.	.	.	.	.	.	.	.	.	.	.	.	16b-\	-mi-	-mi-	.	.	16BB-/Jk	.	16B-/Jk	.	16d/Jk	.	16ffJk\@	.
4BB-/	.	4BB-/	-ae	-ne	.	.	.	.	.	.	.	.	.	.	.	.	4b-\	-ne	-ne	.	.	4BB-/	.	4B-/	.	4d/	.	4ff\@	.
!	!	!	!	!	!	!	!	!	!	!	!	!LO:LB:g=original	!	!	!	!	!	!	!	!	!	!	!	!	!	!	!	!	!
=11	=11	=11	=11	=11	=11	=11	=11	=11	=11	=11	=11	=11	=11	=11	=11	=11	=11	=11	=11	=11	=11	=11	=11	=11	=11	=11	=11	=11	=11
*	*	*	*	*	*	*	*	*	*	*	*	*	*	*color:grey	*	*	*	*	*	*	*	*	*	*	*	*	*	*	*
!	!	!LO:TX:a:t=2:mod=	!	!	!	!	!	!	!	!	!	!LO:TX:t=P:problem=brak tt. 11-16	!	!	!	!	!LO:TX:a:t=2:mod=	!	!	!	!	!	!	!	!	!	!	!	!
4r	.	1r	.	.	.	.	4d\	Do-	Je-	.	.	4f/@	.	[Je-	.	.	1r	.	.	.	.	4r	.	4r	.	4dd\	.	4ff\@	.
8r	.	.	.	.	.	.	16e-\LL	-mi-	.	.	.	16gLL/@	.	.	.	.	.	.	.	.	.	8r	.	8r	.	16ee-\LL	.	16ggLL\@	.
.	.	.	.	.	.	.	16d\JJ	.	.	.	.	16fJJ/@	.	.	.	.	.	.	.	.	.	.	.	.	.	16dd\	.	16ff\@	.
8BB-/	.	.	.	.	.	.	16c\LL	-ne	-su	.	.	16e-LL/@	.	-su	.	.	.	.	.	.	.	8B-/	.	8B-/	.	16cc\	.	16ee-\@	.
.	.	.	.	.	.	.	16B-\JJ	.	.	.	.	16dJJ/@	.	.	.	.	.	.	.	.	.	.	.	.	.	16b-\JJ	.	16ddJJ\@	.
!	!	!	!	!	!	!	!LO:LB:g=original	!	!	!	!	!	!	!	!	!	!	!	!	!	!	!LO:LB:g=original	!	!	!	!	!	!	!
=12	=12	=12	=12	=12	=12	=12	=12	=12	=12	=12	=12	=12	=12	=12	=12	=12	=12	=12	=12	=12	=12	=12	=12	=12	=12	=12	=12	=12	=12
!LO:TX:t=P:problem=mixed beam	!	!	!	!	!	!	!	!	!	!	!	!	!	!	!	!	!	!	!	!	!	!	!	!	!	!	!	!	!
8F\L	.	.	.	.	.	.	4B-\	libe-	Chris-	.	.	4d/@	.	Chris-	.	.	.	.	.	.	.	8.f\L	.	8.f\L	.	4b-\	.	4dd\@	.
8FF/J	.	.	.	.	.	.	.	.	.	.	.	.	.	.	.	.	.	.	.	.	.	.	.	.	.	.	.	.	.
.	.	.	.	.	.	.	.	.	.	.	.	.	.	.	.	.	.	.	.	.	.	16f\Jk	.	16f\Jk	.	.	.	.	.
16F\LL	.	.	.	.	.	.	4c\	-ra	-te	.	.	4e-/@	.	te	.	.	.	.	.	.	.	4f\	.	4f\	.	4cc\	.	4ee-\@	.
16C\	.	.	.	.	.	.	.	.	.	.	.	.	.	.	.	.	.	.	.	.	.	.	.	.	.	.	.	.	.
!LO:SIC:v:s=16AAn\	!	!	!	!	!	!	!	!	!	!	!	!	!	!	!	!	!	!	!	!	!	!	!	!	!	!	!	!	!
16AA-\	.	.	.	.	.	.	.	.	.	.	.	.	.	.	.	.	.	.	.	.	.	.	.	.	.	.	.	.	.
16C\JJ	.	.	.	.	.	.	.	.	.	.	.	.	.	.	.	.	.	.	.	.	.	.	.	.	.	.	.	.	.
=13	=13	=13	=13	=13	=13	=13	=13	=13	=13	=13	=13	=13	=13	=13	=13	=13	=13	=13	=13	=13	=13	=13	=13	=13	=13	=13	=13	=13	=13
*	*	*	*	*	*	*	*	*	*	*	*	*	*	*	*	*	*	*	*color:grey	*	*	*	*	*	*	*	*	*	*
!LO:TX:t=P:problem=mixed beam	!	!	!	!	!	!	!	!	!	!	!	!	!	!	!	!	!LO:TX:t=P:problem=brak tt. 13-15	!	!	!	!	!	!	!	!	!LO:TX:a:t=1:mod=	!	!	!
8.FF/L	.	8.F\	Li-	Do-	.	.	2r	.	.	.	.	2ryy	.	.	.	.	8.cc\@	.	[Do-	.	.	8.f\L	.	8.f\L	.	2r	.	8.ee-L\@	.
16F\Jk	.	16F\	-be-	-mi-	.	.	.	.	.	.	.	.	.	.	.	.	16cc/@	.	-mi-	.	.	16f\Jk	.	16f\Jk	.	.	.	16ee-Jk\@	.
4F\	.	4F\	-ra	-ne	.	.	.	.	.	.	.	.	.	.	.	.	4cc/@	.	-ne]	.	.	4f\	.	4f\	.	.	.	4ee-\@	.
!LO:LB:g=original	!	!LO:LB:g=original	!	!	!	!	!	!	!	!	!	!	!	!	!	!	!	!	!	!	!	!	!	!	!	!	!	!	!
=14	=14	=14	=14	=14	=14	=14	=14	=14	=14	=14	=14	=14	=14	=14	=14	=14	=14	=14	=14	=14	=14	=14	=14	=14	=14	=14	=14	=14	=14
!	!	!LO:TX:a:t=2:mod=	!	!	!	!	!	!	!	!	!	!	!	!	!	!	!	!	!	!	!	!	!	!	!	!	!	!	!
4r	.	1r	.	.	.	.	4c\	a-	Je-	.	.	4e-/@	.	Je-	.	.	2r@	.	.	.	.	4r	.	4r	.	4cc\	.	4ee-\@	.
8r	.	.	.	.	.	.	16d\LL	-ni-	.	.	.	16fLL/@	.	.	.	.	.	.	.	.	.	8r	.	8r	.	16dd\LL	.	16ffLL\@	.
.	.	.	.	.	.	.	16c\JJ	.	.	.	.	16e-JJ/@	.	.	.	.	.	.	.	.	.	.	.	.	.	16cc\	.	16ee-\@	.
8F\	.	.	.	.	.	.	16B-\LL	-mas	-su	.	.	16dLL/@	.	-su	.	.	.	.	.	.	.	8f\	.	8f\	.	16b-\	.	16dd\@	.
.	.	.	.	.	.	.	16An\JJ	.	.	.	.	16cJJ/@	.	.	.	.	.	.	.	.	.	.	.	.	.	16a\JJ	.	16ccJJ\@	.
=15	=15	=15	=15	=15	=15	=15	=15	=15	=15	=15	=15	=15	=15	=15	=15	=15	=15	=15	=15	=15	=15	=15	=15	=15	=15	=15	=15	=15	=15
!	!	!	!	!	!	!	!LO:SIC:v:s=4An\	!	!	!	!	!	!	!	!	!	!	!	!	!	!	!	!	!	!	!LO:SIC:v:s=4an\	!	!	!
8B-\L	.	.	.	.	.	.	4A-\	O-	Chris--	.	.	4c/@	.	Chris-	.	.	2r@	.	.	.	.	8B-/L	.	8f\L	.	4a-\	.	4cc\@	.
8F\J	.	.	.	.	.	.	.	.	.	.	.	.	.	.	.	.	.	.	.	.	.	8B-/J	.	8f\J	.	.	.	.	.
16B-\LL	.	.	.	.	.	.	4B-\	.	-te	.	.	4d/@	.	-te]	.	.	.	.	.	.	.	4B-/	.	4f\	.	4b-\	.	4dd\@	.
16F\	.	.	.	.	.	.	.	.	.	.	.	.	.	.	.	.	.	.	.	.	.	.	.	.	.	.	.	.	.
16D\	.	.	.	.	.	.	.	.	.	.	.	.	.	.	.	.	.	.	.	.	.	.	.	.	.	.	.	.	.
16F\JJ	.	.	.	.	.	.	.	.	.	.	.	.	.	.	.	.	.	.	.	.	.	.	.	.	.	.	.	.	.
!	!	!	!	!	!	!	!	!	!	!	!	!	!	!	!	!	!	!	!	!	!	!	!	!	!	!LO:LB:g=original	!	!	!
=16	=16	=16	=16	=16	=16	=16	=16	=16	=16	=16	=16	=16	=16	=16	=16	=16	=16	=16	=16	=16	=16	=16	=16	=16	=16	=16	=16	=16	=16
*	*	*	*	*	*	*	*	*	*	*	*	*	*	*color:auto	*	*	*	*	*color:auto	*	*	*	*	*	*	*	*	*	*
!	!LO:DY:a	!	!	!	!	!	!	!	!	!	!	!	!	!	!	!	!	!	!	!	!	!	!LO:DY:a	!	!LO:DY:a	!	!LO:DY:a	!	!
8BB-/L	f	4.D\	a-	Li-	.	.	4.B-\	-mni-	Li-	.	.	4.f/@	.	Li-	.	.	4.a-X\	Li-	Li-	.	.	8B-/L	f	8f\L	f	8a-X/L	f	2ryy	.
!	!	!	!	!	!	!	!	!	!	!	!	!	!	!	!	!	!	!	!	!	!	!	!LO:DY:a:t=p.	!	!LO:DY:a:t=p&colon;	!	!LO:DY:a:t=pi	!	!
8BB-/	p	.	.	.	.	.	.	.	.	.	.	.	.	.	.	.	.	.	.	.	.	8B-/	p	8f\	p	8f/	p	.	.
8BB-/	.	.	.	.	.	.	.	.	.	.	.	.	.	.	.	.	.	.	.	.	.	8B-/	.	8f\	.	8f/	.	.	.
8BB-/J	.	8D\	-ni-	-be-	.	.	8B-\	-um	-be-	.	.	8f/@	.	-be-	.	.	8a-\	-be-	-be-	.	.	8B-/J	.	8f\J	.	8f/J	.	.	.
=17	=17	=17	=17	=17	=17	=17	=17	=17	=17	=17	=17	=17	=17	=17	=17	=17	=17	=17	=17	=17	=17	=17	=17	=17	=17	=17	=17	=17	=17
!	!LO:DY:a	!	!	!	!	!	!	!	!	!	!	!	!	!	!	!	!	!	!	!	!	!	!LO:DY:a	!	!LO:DY:a	!	!LO:DY:a	!	!
8E-\L	f	2E-\	-maſ	-ra	.	.	2B-\	fi-	-ra	.	.	2e-\	Libera	-ra	.	.	2g\	-ra	-ra	.	.	8e-\L	f	8g\L	f	8g/L	f	2ryy	.
!	!	!	!	!	!	!	!	!	!	!	!	!	!	!	!	!	!	!	!	!	!	!	!LO:DY:a:t=p.	!	!LO:DY:a:t=p&colon;	!	!LO:DY:a	!	!
8E-\	p	.	.	.	.	.	.	.	.	.	.	.	.	.	.	.	.	.	.	.	.	8e-\	p	8g\	p	8e-/	p	.	.
8E-\	.	.	.	.	.	.	.	.	.	.	.	.	.	.	.	.	.	.	.	.	.	8e-\	.	8g\	.	8e-/	.	.	.
8E-\J	.	.	.	.	.	.	.	.	.	.	.	.	.	.	.	.	.	.	.	.	.	8e-\J	.	8g\J	.	8e-/J	.	.	.
=18	=18	=18	=18	=18	=18	=18	=18	=18	=18	=18	=18	=18	=18	=18	=18	=18	=18	=18	=18	=18	=18	=18	=18	=18	=18	=18	=18	=18	=18
!	!LO:DY:a	!	!	!	!	!	!	!	!	!	!	!	!	!	!	!	!	!	!	!	!	!	!LO:DY:a	!	!LO:DY:a	!	!LO:DY:a	!	!
8BB-/L	f	4.D\	Om-	a-	.	.	4.B-\	-de-	a-	.	.	4.f\	a-	a-	.	.	4.a-\	a-	a-	.	.	8B-/L	f	8f\L	f	8a-/L	f	2ryy	.
!	!	!	!	!	!	!	!	!	!	!	!	!	!	!	!	!	!	!	!	!	!	!	!LO:DY:a:t=p.	!	!LO:DY:a:t=p&colon;	!	!LO:DY:a:t=p.	!	!
8BB-/	p	.	.	.	.	.	.	.	.	.	.	.	.	.	.	.	.	.	.	.	.	8B-/	p	8f\	p	8f/	p	.	.
8BB-/	.	.	.	.	.	.	.	.	.	.	.	.	.	.	.	.	.	.	.	.	.	8B-/	.	8f\	.	8f/	.	.	.
8BB-/J	.	8D\	-ni-	-ni-	.	.	8B-\	-li-	-ni-	.	.	8f\	-ni-	-ni-	.	.	8a-\	-ni-	-ni-	.	.	8B-/J	.	8f\J	.	8f/J	.	.	.
=19	=19	=19	=19	=19	=19	=19	=19	=19	=19	=19	=19	=19	=19	=19	=19	=19	=19	=19	=19	=19	=19	=19	=19	=19	=19	=19	=19	=19	=19
!	!LO:DY:a	!	!	!	!	!	!	!	!	!	!	!	!	!	!	!	!	!	!	!	!	!	!LO:DY:a	!	!LO:DY:a	!	!LO:DY:a	!	!
8E-\L	f	2E-\	-um	-mas	.	.	2B-\	-um	-mas	.	.	2e-\	-mas	-mas	.	.	2g\	-mas	-mas	.	.	8e-\L	f	8g\L	f	8g/L	f	2ryy	.
!	!	!	!	!	!	!	!	!	!	!	!	!	!	!	!	!	!	!	!	!	!	!	!LO:DY:a:t=p.	!	!LO:DY:a:t=p&colon;	!	!LO:DY:a:t=pi	!	!
8E-\	p	.	.	.	.	.	.	.	.	.	.	.	.	.	.	.	.	.	.	.	.	8e-\	p	8g\	p	8e-/	p	.	.
8E-\	.	.	.	.	.	.	.	.	.	.	.	.	.	.	.	.	.	.	.	.	.	8e-\	.	8g\	.	8e-/	.	.	.
8E-\J	.	.	.	.	.	.	.	.	.	.	.	.	.	.	.	.	.	.	.	.	.	8e-\J	.	8g\J	.	8e-/J	.	.	.
=20	=20	=20	=20	=20	=20	=20	=20	=20	=20	=20	=20	=20	=20	=20	=20	=20	=20	=20	=20	=20	=20	=20	=20	=20	=20	=20	=20	=20	=20
!	!LO:DY:a	!	!	!	!	!	!	!	!	!	!	!	!	!	!	!	!	!	!	!	!	!	!LO:DY:a	!	!LO:DY:a	!	!LO:DY:a	!	!
8C/L	f	4.En\	fi-	om-	.	.	4.c\	Om-	om-	.	.	4.g\	Om-	om-	.	.	4.b-\	Om-	om-	.	.	8g\L	f	8g\L	f	8b-\L	f	2ryy	.
!	!	!	!	!	!	!	!	!	!	!	!	!	!	!	!	!	!	!	!	!	!	!	!LO:DY:a:t=p.	!	!LO:DY:a:t=p&colon;	!	!LO:DY:a:t=pi	!	!
8C/	p	.	.	.	.	.	.	.	.	.	.	.	.	.	.	.	.	.	.	.	.	8g\	p	8g\	p	8g\	p	.	.
8C/	.	.	.	.	.	.	.	.	.	.	.	.	.	.	.	.	.	.	.	.	.	8g\	.	8g\	.	8g\	.	.	.
8C/J	.	8E\	-de-	-ni-	.	.	8c\	-ni-	-ni-	.	.	8g\	-ni-	-ni-	.	.	8b-\	-ni-	-ni-	.	.	8g\J	.	8g\J	.	8g\J	.	.	.
=21	=21	=21	=21	=21	=21	=21	=21	=21	=21	=21	=21	=21	=21	=21	=21	=21	=21	=21	=21	=21	=21	=21	=21	=21	=21	=21	=21	=21	=21
!	!LO:DY:a	!	!	!	!	!	!	!	!	!	!	!	!	!	!	!	!	!	!	!	!	!	!LO:DY:a	!	!LO:DY:a	!	!LO:DY:a	!	!
8F\L	f	4F\	-li-	-um	.	.	4.c\	-um	-um	.	.	4.f\	-um	-um	.	.	4.an\	-um	-um	.	.	8f\L	f	8f\L	f	8a\L	f	2ryy	.
!	!	!	!	!	!	!	!	!	!	!	!	!	!	!	!	!	!	!	!	!	!	!	!LO:DY:a:t=p.	!	!LO:DY:a:t=p&colon;	!	!LO:DY:a:t=pi	!	!
8F\	p	.	.	.	.	.	.	.	.	.	.	.	.	.	.	.	.	.	.	.	.	8f\	p	8f\	p	8f\	p	.	.
8F\	.	4F\	-um	fi-	.	.	.	.	.	.	.	.	.	.	.	.	.	.	.	.	.	8f\	.	8f\	.	8f\	.	.	.
8F\J	.	.	.	.	.	.	8c\	fi-	fi-	.	.	8f\	fi-	fi-	.	.	8a\	fi-	fi-	.	.	8f\J	.	8f\J	.	8f\J	.	.	.
!	!	!	!	!	!	!	!	!	!	!	!	!	!	!	!	!	!	!	!	!	!	!	!	!LO:LB:g=original	!	!	!	!	!
=22	=22	=22	=22	=22	=22	=22	=22	=22	=22	=22	=22	=22	=22	=22	=22	=22	=22	=22	=22	=22	=22	=22	=22	=22	=22	=22	=22	=22	=22
!	!LO:DY:b	!LO:SIC:v:s=4.En\	!	!	!	!	!	!	!	!	!	!	!	!	!	!	!	!	!	!	!	!	!LO:DY:a	!	!LO:DY:a	!LO:TX:t=P:problem=takty 22 i 23 zapisane repetycją	!LO:DY:a	!	!
8C/L	f	4.E-\	Om-	-de-	.	.	4.c\	-de-	-de-	.	.	4.g\	-de-	-de-	.	.	4.b-\	-de-	-de-	.	.	8g\L	f	8g\L	f	8b-\Lyy	f	2ryy	.
!	!	!	!	!	!	!	!	!	!	!	!	!	!	!	!	!	!	!	!	!	!	!	!LO:DY:a:t=p.	!	!LO:DY:a:t=p&colon;	!	!LO:DY:a:t=pi	!	!
8C/	p	.	.	.	.	.	.	.	.	.	.	.	.	.	.	.	.	.	.	.	.	8g\	p	8g\	p	8g\yy	p	.	.
8C/	.	.	.	.	.	.	.	.	.	.	.	.	.	.	.	.	.	.	.	.	.	8g\	.	8g\	.	8g\yy	.	.	.
!	!	!LO:SIC:v:s=8E\	!	!	!	!	!	!	!	!	!	!	!	!	!	!	!	!	!	!	!	!	!	!	!	!	!	!	!
8C/J	.	8E-\	-ni-	-li-	.	.	8c\	-li-	-li-	.	.	8g\	-li-	-li-	.	.	8b-\	-li-	-li-	.	.	8g\J	.	8g\J	.	8g\Jyy	.	.	.
=23	=23	=23	=23	=23	=23	=23	=23	=23	=23	=23	=23	=23	=23	=23	=23	=23	=23	=23	=23	=23	=23	=23	=23	=23	=23	=23	=23	=23	=23
*	*	*	*	*	*	*	*	*	*	*	*	*	*	*	*	*	*	*	*	*	*	*	*	*tremolo	*	*	*	*	*
*	*	*	*	*	*	*	*	*	*	*	*	*	*	*	*	*	*	*	*	*	*	*	*	*2\right	*	*	*	*	*
!	!LO:DY:a	!	!	!	!	!	!	!	!	!	!	!	!	!	!	!	!LO:SIC:v:s=2an	!	!	!	!	!	!LO:DY:a	!	!LO:DY:a	!	!LO:DY:a	!	!
8F\L	f	2F\	-um	-um	.	.	2c\	-um	-um	.	.	2f\	-um	-um	.	.	2a-\	-um	-um	.	.	8f\L	f	8f\L	f	8a\Lyy	f	2ryy	.
!	!	!	!	!	!	!	!	!	!	!	!	!	!	!	!	!	!	!	!	!	!	!	!LO:DY:a:t=p.	!	!LO:DY:a	!	!LO:DY:a:t=pi	!	!
8F\	p	.	.	.	.	.	.	.	.	.	.	.	.	.	.	.	.	.	.	.	.	8f\	p	8f\	p	8f\yy	p	.	.
8F\	.	.	.	.	.	.	.	.	.	.	.	.	.	.	.	.	.	.	.	.	.	8f\	.	8f\	.	8f\yy	.	.	.
8F\J	.	.	.	.	.	.	.	.	.	.	.	.	.	.	.	.	.	.	.	.	.	8f\J	.	8f\J	.	8f\Jyy	.	.	.
=24	=24	=24	=24	=24	=24	=24	=24	=24	=24	=24	=24	=24	=24	=24	=24	=24	=24	=24	=24	=24	=24	=24	=24	=24	=24	=24	=24	=24	=24
!LO:TX:t=P:problem=mixed beam	!LO:DY:a	!	!	!	!	!	!	!	!	!	!	!	!	!	!	!	!	!	!	!	!	!	!LO:DY:a	!	!LO:DY:a	!	!LO:DY:a	!	!
8F\L	f	4.An\	fi-	om-	.	.	4.c\	Om-	om-	.	.	4.f\	Om-	om-	.	.	4.ee-\	Om-	om-	.	.	8f\L	f	8f\L	f	8ee-\L	f	2ryy	.
!	!	!	!	!	!	!	!	!	!	!	!	!	!	!	!	!	!	!	!	!	!	!	!LO:DY:a:t=p.	!	!LO:DY:a	!	!LO:DY:a:t=pi	!	!
8FF/	p	.	.	.	.	.	.	.	.	.	.	.	.	.	.	.	.	.	.	.	.	8f\	p	8f\	p	8cc\	p	.	.
8FF/	.	.	.	.	.	.	.	.	.	.	.	.	.	.	.	.	.	.	.	.	.	8f\	.	8f\	.	8cc\	.	.	.
8FF/J	.	8A\	-de-	-ni-	.	.	8c\	-ni-	-ni-	.	.	8f\	-ni-	-ni-	.	.	8ee-\	-ni-	-ni-	.	.	8f\J	.	8f\J	.	8cc\J	.	.	.
!	!	!	!	!	!	!	!	!	!	!	!	!	!	!	!	!	!	!	!	!	!	!LO:LB:g=original	!	!	!	!	!	!	!
=25	=25	=25	=25	=25	=25	=25	=25	=25	=25	=25	=25	=25	=25	=25	=25	=25	=25	=25	=25	=25	=25	=25	=25	=25	=25	=25	=25	=25	=25
!	!LO:DY:a	!	!	!	!	!	!	!	!	!	!	!	!	!	!	!	!	!	!	!	!	!	!LO:DY:a	!	!LO:DY:a	!	!LO:DY:a	!	!
8BB-/L	f	4.B-\	-li-	-um	.	.	4.B-\	.	-um	.	.	4.f\	-um	-um	.	.	4.dd\	-um	-um	.	.	8B-/L	f	8f\L	f	8dd\L	f	2ryy	.
!	!	!	!	!	!	!	!	!	!	!	!	!	!	!	!	!	!	!	!	!	!	!	!LO:DY:a:t=p.	!	!LO:DY:a:t=p&colon;	!	!LO:DY:a:t=pi	!	!
8BB-/	p	.	.	.	.	.	.	.	.	.	.	.	.	.	.	.	.	.	.	.	.	8B-/	p	8f\	p	8b-\	p	.	.
8BB-/	.	.	.	.	.	.	.	.	.	.	.	.	.	.	.	.	.	.	.	.	.	8B-/	.	8f\	.	8b-\	.	.	.
8BB-/J	.	8B-\	-um	fi-	.	.	8B-\	-um	fi-	.	.	8f\	fi-	fi-	.	.	8dd\	fi-	fi-	.	.	8B-/J	.	8f\J	.	8b-\J	.	.	.
!	!	!	!	!	!	!	!	!	!	!	!	!	!	!	!	!	!	!	!	!	!	!	!	!LO:MO:mod=*null:null	!	!	!	!	!
*	*	*	*	*	*	*	*	*	*	*	*	*	*	*	*	*	*	*	*	*	*	*	*	*Xtremolo	*	*	*	*	*
!	!	!	!	!	!	!	!LO:LB:g=original	!	!	!	!	!	!	!	!	!	!	!	!	!	!	!	!	!	!	!	!	!	!
=26	=26	=26	=26	=26	=26	=26	=26	=26	=26	=26	=26	=26	=26	=26	=26	=26	=26	=26	=26	=26	=26	=26	=26	=26	=26	=26	=26	=26	=26
!LO:TX:t=P:problem=mixed beam	!LO:DY:b:rj	!	!	!	!	!	!	!	!	!	!	!	!	!	!	!	!	!	!	!	!	!	!LO:DY:a	!	!LO:DY:a	!LO:TX:t=P:problem=takty 26 i 27 zapisane repetycją	!LO:DY:a	!	!
8FF/L	f	4.An\	De	-de-	.	.	4.c\	fi-	-de-	.	.	4.f\	-de-	-de-	.	.	4.ee-\	-de-	-de-	.	.	8f\L	f	8f\L	f	8ee-\Lyy	f	2ryy	.
!	!	!	!	!	!	!	!	!	!	!	!	!	!	!	!	!	!	!	!	!	!	!	!LO:DY:a:t=p.	!	!LO:DY:a:t=p&colon;	!	!LO:DY:a:t=pi	!	!
8F\	p	.	.	.	.	.	.	.	.	.	.	.	.	.	.	.	.	.	.	.	.	8f\	p	8f\	p	8cc\yy	p	.	.
8F\	.	.	.	.	.	.	.	.	.	.	.	.	.	.	.	.	.	.	.	.	.	8f\	.	8f\	.	8cc\yy	.	.	.
8F\J	.	8A\	fun-	-li-	.	.	8c\	-de-	-li-	.	.	8f\	-li-	-li-	.	.	8ee-\	-li-	-li-	.	.	8f\J	.	8f\J	.	(y8cc\Jyy	.	.	.
=27	=27	=27	=27	=27	=27	=27	=27	=27	=27	=27	=27	=27	=27	=27	=27	=27	=27	=27	=27	=27	=27	=27	=27	=27	=27	=27	=27	=27	=27
*	*	*	*	*	*	*	*	*	*	*	*	*	*	*	*	*	*	*	*	*	*	*	*	*tremolo	*	*	*	*	*
!LO:TX:t=P:problem=mixed beam	!	!	!	!	!	!	!	!	!	!	!	!	!	!	!	!	!	!	!	!	!	!	!LO:DY:a	!	!LO:DY:a	!	!LO:DY:a	!	!
!LO:SIC:s=8B-L	!	!	!	!	!	!	!	!	!	!	!	!	!	!	!	!	!	!	!	!	!	!	!	!	!	!	!	!	!
8BB-/L	f	4.B-\	-cto-	-um	.	.	4.B-\	-li-	-um	.	.	4.f\	-um	-um	.	.	4.dd\	-um	-um	.	.	8B-/L	f	8f\L	f	8dd\L)yy	f	2ryy	.
!LO:SIC:s=8BB-	!LO:MO:null:mod=p	!	!	!	!	!	!	!	!	!	!	!	!	!	!	!	!	!	!	!	!	!	!LO:DY:a:t=p.	!	!LO:DY:a	!	!LO:DY:a:t=pi	!	!
8B-\	.	.	.	.	.	.	.	.	.	.	.	.	.	.	.	.	.	.	.	.	.	8B-/	p	8f\	p	8b-\yy	p	.	.
!	!LO:MO:mod=.	!	!	!	!	!	!	!	!	!	!	!	!	!	!	!	!	!	!	!	!	!	!	!	!	!	!	!	!
8BB-/	p	.	.	.	.	.	.	.	.	.	.	.	.	.	.	.	.	.	.	.	.	8B-/	.	8f\	.	8b-\yy	.	.	.
*	*	*	*	*	*	*	*	*	*	*	*	*	*	*	*	*	*	*ij	*	*	*	*	*	*	*	*	*	*	*
8BB-/J	.	8BB-/	.	fi-	.	.	8B-\	-um	fi-	.	.	8f\	de-	fi-	.	.	8dd\	fi-	fi-	.	.	8B-/J	.	8f\J	.	8b-\Jyy	.	.	.
!LO:LB:g=original	!	!	!	!	!	!	!	!	!	!	!	!	!	!	!	!	!LO:LB:g=original	!	!	!	!	!	!	!	!	!	!	!	!
=28	=28	=28	=28	=28	=28	=28	=28	=28	=28	=28	=28	=28	=28	=28	=28	=28	=28	=28	=28	=28	=28	=28	=28	=28	=28	=28	=28	=28	=28
!	!	!	!	!	!	!	!	!	!	!	!	!	!	!	!	!	!	!	!	!	!	!	!LO:MO:null:mod=!LO&colon;DY&colon;ed=brack	!	!	!	!	!	!
!	!	!	!	!	!	!	!	!	!	!	!	!	!	!	!	!	!	!	!	!	!	!	!null	!	!	!	!	!	!
!	!	!	!	!	!	!	!	!	!	!	!	!	!	!	!	!	!	!	!	!	!	!LO:TX:t=P:problem=mixed beam	!LO:MO:null:mod=f	!	!LO:DY:a	!	!LO:DY:a	!	!
8E-\L	.	4.E-\	.	-de-	.	.	4.B-\	Om-	-de-	.	.	4.g\	-fun-	-de-	.	.	4.cc\	-de-	-de-	.	.	8e-\L	.	8g\L	f	8b-\L	f	2ryy	.
!	!	!	!	!	!	!	!	!	!	!	!	!	!	!	!	!	!	!	!	!	!	!	!LO:MO:null:mod=!LO&colon;DY&colon;ed=brack	!	!	!	!	!	!
!	!	!	!	!	!	!	!	!	!	!	!	!	!	!	!	!	!	!	!	!	!	!	!null	!	!	!	!	!	!
!	!	!	!	!	!	!	!	!	!	!	!	!	!	!	!	!	!	!	!	!	!	!	!LO:MO:null:mod=p	!	!LO:DY:a	!	!LO:DY:a:t=pi	!	!
8E-\	.	.	.	.	.	.	.	.	.	.	.	.	.	.	.	.	.	.	.	.	.	8e-\	.	8g\	p	8b-\	p	.	.
8En\	.	.	.	.	.	.	.	.	.	.	.	.	.	.	.	.	.	.	.	.	.	8G/	.	8g\	.	8b-\	.	.	.
8E\J	.	8En\	.	-li-	.	.	8B-\	-ni-	-li-	.	.	8g\	-cto-	-li-	.	.	8cc\	-li-	-li-	.	.	8G/J	.	8g\J	.	8b-\J	.	.	.
*	*	*	*	*	*	*	*	*	*	*	*	*	*	*	*	*	*	*	*	*	*	*	*	*Xtremolo	*	*	*	*	*
=29	=29	=29	=29	=29	=29	=29	=29	=29	=29	=29	=29	=29	=29	=29	=29	=29	=29	=29	=29	=29	=29	=29	=29	=29	=29	=29	=29	=29	=29
4F\	.	4F\	-rum	-um	.	.	4B-\	-um	-um	.	.	4f\	-rum	-um	.	.	4dd\	-um	-um	.	.	4B-/	.	4f\	.	4b-\	.	2ryy	.
*	*	*	*	*	*	*	*	*	*	*	*	*	*	*	*	*	*	*Xij	*	*	*	*	*	*	*	*	*	*	*
4r	.	4r	.	.	.	.	4r	.	.	.	.	4r	.	.	.	.	4r	.	.	.	.	4r	.	4r	.	16b-\LL	.	.	.
.	.	.	.	.	.	.	.	.	.	.	.	.	.	.	.	.	.	.	.	.	.	.	.	.	.	16cc\	.	.	.
.	.	.	.	.	.	.	.	.	.	.	.	.	.	.	.	.	.	.	.	.	.	.	.	.	.	16dd\	.	.	.
.	.	.	.	.	.	.	.	.	.	.	.	.	.	.	.	.	.	.	.	.	.	.	.	.	.	16ee-\JJ	.	.	.
!	!	!LO:LB:g=original	!	!	!	!	!	!	!	!	!	!	!	!	!	!	!	!	!	!	!	!	!	!	!	!	!	!	!
=30	=30	=30	=30	=30	=30	=30	=30	=30	=30	=30	=30	=30	=30	=30	=30	=30	=30	=30	=30	=30	=30	=30	=30	=30	=30	=30	=30	=30	=30
!LO:TX:a:t=1:mod=	!	!LO:TX:a:t=2:mod=	!	!	!	!	!LO:TX:a:t=2:mod=	!	!	!	!	!LO:TX:a:t=2:mod=	!	!	!	!	!LO:TX:a:t=2:mod=	!	!	!	!	!	!	!LO:TX:a:t=1:mod=	!	!	!	!	!
2r	.	1r	.	.	.	.	1r	.	.	.	.	1r	.	.	.	.	1r	.	.	.	.	2r	.	2r	.	16dd\LL	.	2ryy	.
.	.	.	.	.	.	.	.	.	.	.	.	.	.	.	.	.	.	.	.	.	.	.	.	.	.	16cc\	.	.	.
.	.	.	.	.	.	.	.	.	.	.	.	.	.	.	.	.	.	.	.	.	.	.	.	.	.	16cc\	.	.	.
.	.	.	.	.	.	.	.	.	.	.	.	.	.	.	.	.	.	.	.	.	.	.	.	.	.	16b-\JJ	.	.	.
.	.	.	.	.	.	.	.	.	.	.	.	.	.	.	.	.	.	.	.	.	.	.	.	.	.	16b-\LL	.	.	.
.	.	.	.	.	.	.	.	.	.	.	.	.	.	.	.	.	.	.	.	.	.	.	.	.	.	16cc\	.	.	.
.	.	.	.	.	.	.	.	.	.	.	.	.	.	.	.	.	.	.	.	.	.	.	.	.	.	16cc\	.	.	.
.	.	.	.	.	.	.	.	.	.	.	.	.	.	.	.	.	.	.	.	.	.	.	.	.	.	16dd\JJ	.	.	.
=31	=31	=31	=31	=31	=31	=31	=31	=31	=31	=31	=31	=31	=31	=31	=31	=31	=31	=31	=31	=31	=31	=31	=31	=31	=31	=31	=31	=31	=31
4E-\	.	.	.	.	.	.	.	.	.	.	.	.	.	.	.	.	.	.	.	.	.	4e-\	.	4g\	.	4ee-\	.	2ryy	.
8r	.	.	.	.	.	.	.	.	.	.	.	.	.	.	.	.	.	.	.	.	.	8r	.	8r	.	8r	.	.	.
8E-\	.	.	.	.	.	.	.	.	.	.	.	.	.	.	.	.	.	.	.	.	.	8e-\	.	8g\	.	8g/	.	.	.
!	!	!	!	!	!	!	!	!	!	!	!	!	!	!	!	!	!	!	!	!	!	!	!	!	!	!LO:LB:g=original	!	!	!
=32	=32	=32	=32	=32	=32	=32	=32	=32	=32	=32	=32	=32	=32	=32	=32	=32	=32	=32	=32	=32	=32	=32	=32	=32	=32	=32	=32	=32	=32
!LO:TX:t=P:problem=mixed beam	!	!	!	!	!	!	!	!	!	!	!	!	!	!	!	!	!	!	!	!	!	!	!	!	!	!	!	!	!
8D\L	.	8D\	De-	De-	.	.	8B-\	De	De-	.	.	8f\	De-	De-	.	.	8ff\	De-	De-	.	.	8B-/L	.	8f\L	.	8b-\L	.	2ryy	.
!LO:SIC:s=8E-J	!	!	!	!	!	!	!	!	!	!	!	!	!	!	!	!	!	!	!	!	!	!	!	!LO:SIC:s=8gJ	!	!	!	!	!
8E-\	.	8E-X\	-fun-	-fun-	.	.	8c\	.	-fun-	.	.	8e-\	-fun-	-fun-	.	.	16gg\LL	-fun-	-fun-	.	.	8e-/J	.	8g\	.	16b-\L	.	.	.
.	.	.	.	.	.	.	.	.	.	.	.	.	.	.	.	.	16ee-\JJ	.	.	.	.	.	.	.	.	16cc\JJ	.	.	.
!LO:SIC:s=8FL	!	!	!	!	!	!	!	!	!	!	!	!LO:LB:g=original	!	!	!	!	!	!	!	!	!	!	!	!LO:SIC:s=8fL	!	!	!	!	!
8F\	.	4F\	-cto-	-cto-	.	.	8B-\L	pe-	-cto-	.	.	4f\	-cto-	-cto-	.	.	8dd\L	-cto-	-cto-	.	.	8f\L	.	8f\	.	8b-\L	.	.	.
!	!	!	!	!	!	!	!LO:SIC:v:s=8An\J	!	!	!	!	!	!	!	!	!	!	!	!	!	!	!	!	!	!	!	!	!	!
8FF/J	.	.	.	.	.	.	8A-\J	.	.	.	.	.	.	.	.	.	8cc\J	.	.	.	.	8f\J	.	8f\J	.	8a\J	.	.	.
=33	=33	=33	=33	=33	=33	=33	=33	=33	=33	=33	=33	=33	=33	=33	=33	=33	=33	=33	=33	=33	=33	=33	=33	=33	=33	=33	=33	=33	=33
!LO:TX:t=P:problem=mixed beam	!	!	!	!	!	!	!	!	!	!	!	!	!	!	!	!	!	!	!	!	!	!	!	!	!	!	!	!	!
8BB-/L	.	4BB-/	-rum	-rum	.	.	4B-\	-nis	-rum	.	.	4f\	-rum	-rum	.	.	4b-\	-rum	-rum	.	.	4B-/	.	4f\	.	4b-\	.	2ryy	.
8B-\J	.	.	.	.	.	.	.	.	.	.	.	.	.	.	.	.	.	.	.	.	.	.	.	.	.	.	.	.	.
4r	.	4r	.	.	.	.	4r	.	.	.	.	4r	.	.	.	.	4r	.	.	.	.	4r	.	4r	.	16b-\LL	.	.	.
.	.	.	.	.	.	.	.	.	.	.	.	.	.	.	.	.	.	.	.	.	.	.	.	.	.	16cc\	.	.	.
.	.	.	.	.	.	.	.	.	.	.	.	.	.	.	.	.	.	.	.	.	.	.	.	.	.	16cc\	.	.	.
.	.	.	.	.	.	.	.	.	.	.	.	.	.	.	.	.	.	.	.	.	.	.	.	.	.	16dd\JJ	.	.	.
=34	=34	=34	=34	=34	=34	=34	=34	=34	=34	=34	=34	=34	=34	=34	=34	=34	=34	=34	=34	=34	=34	=34	=34	=34	=34	=34	=34	=34	=34
!	!	!LO:TX:a:t=2:mod=	!	!	!	!	!LO:TX:a:t=2:mod=	!	!	!	!	!LO:TX:a:t=2:mod=	!	!	!	!	!LO:TX:a:t=2:mod=	!	!	!	!	!	!	!	!	!	!	!	!
4BB-/	.	1r	.	.	.	.	1r	.	.	.	.	1r	.	.	.	.	1r	.	.	.	.	4B-/	.	4B-/	.	16dd\LL	.	2ryy	.
.	.	.	.	.	.	.	.	.	.	.	.	.	.	.	.	.	.	.	.	.	.	.	.	.	.	16cc\	.	.	.
.	.	.	.	.	.	.	.	.	.	.	.	.	.	.	.	.	.	.	.	.	.	.	.	.	.	16cc\	.	.	.
.	.	.	.	.	.	.	.	.	.	.	.	.	.	.	.	.	.	.	.	.	.	.	.	.	.	16b-\JJ	.	.	.
4r	.	.	.	.	.	.	.	.	.	.	.	.	.	.	.	.	.	.	.	.	.	4r	.	4r	.	16b-\LL	.	.	.
.	.	.	.	.	.	.	.	.	.	.	.	.	.	.	.	.	.	.	.	.	.	.	.	.	.	16cc\	.	.	.
.	.	.	.	.	.	.	.	.	.	.	.	.	.	.	.	.	.	.	.	.	.	.	.	.	.	16cc\	.	.	.
.	.	.	.	.	.	.	.	.	.	.	.	.	.	.	.	.	.	.	.	.	.	.	.	.	.	16dd\JJ	.	.	.
=35	=35	=35	=35	=35	=35	=35	=35	=35	=35	=35	=35	=35	=35	=35	=35	=35	=35	=35	=35	=35	=35	=35	=35	=35	=35	=35	=35	=35	=35
4E-\	.	.	.	.	.	.	.	.	.	.	.	.	.	.	.	.	.	.	.	.	.	4e-\	.	4g\	.	4b-\	.	2ryy	.
8r	.	.	.	.	.	.	.	.	.	.	.	.	.	.	.	.	.	.	.	.	.	8r	.	8r	.	8g/L	.	.	.
8E-\	.	.	.	.	.	.	.	.	.	.	.	.	.	.	.	.	.	.	.	.	.	8e-\	.	8g\	.	8g/J	.	.	.
=36	=36	=36	=36	=36	=36	=36	=36	=36	=36	=36	=36	=36	=36	=36	=36	=36	=36	=36	=36	=36	=36	=36	=36	=36	=36	=36	=36	=36	=36
*	*	*	*ij	*	*	*	*	*	*	*	*	*	*ij	*	*	*	*	*ij	*	*	*	*	*	*	*	*	*	*	*
!LO:TX:t=P:problem=mixed beam	!	!	!	!	!	!	!	!	!	!	!	!	!	!	!	!	!	!	!	!	!	!	!	!	!	!	!	!	!
8D\L	.	8D\	De	De	.	.	8B-\	de	De-	.	.	8f\	De	De	.	.	8ff\	De-	De-	.	.	8B-/L	.	8f\L	.	8b-\L	.	2ryy	.
!LO:SIC:s=8E-J	!	!	!	!	!	!	!	!	!	!	!	!	!	!	!	!	!	!	!	!	!	!	!	!LO:SIC:s=8gJ	!	!LO:SIC:s=8b-J	!	!	!
8E-\	.	8E-\	fun-	fun-	.	.	8c\	.	-fun-	.	.	8e-\	fun-	fun-	.	.	16gg\LL	-fun-	-fun-	.	.	8e-/J	.	8g\	.	8b-\	.	.	.
.	.	.	.	.	.	.	.	.	.	.	.	.	.	.	.	.	16ee-\JJ	.	.	.	.	.	.	.	.	.	.	.	.
!LO:SIC:s=8FL	!	!	!	!	!	!	!	!	!	!	!	!	!	!	!	!	!	!	!	!	!	!	!	!LO:SIC:s=8fL	!	!LO:SIC:s=8b-L	!	!	!
8F\	.	4F\	-cto-	-cto-	.	.	8B-\L	pe-	-cto-	.	.	4f\	-cto-	-cto-	.	.	8dd\L	-cto-	-cto-	.	.	8f\L	.	8f\	.	8b-\	.	.	.
!	!	!	!	!	!	!	!LO:SIC:v:s=8An\J	!	!	!	!	!	!	!	!	!	!	!	!	!	!	!	!	!	!	!LO:SIC:v:s=8an\J	!	!	!
8FF/J	.	.	.	.	.	.	8A-\J	.	.	.	.	.	.	.	.	.	8cc\J	.	.	.	.	8f\J	.	8f\J	.	8a-\J	.	.	.
=37	=37	=37	=37	=37	=37	=37	=37	=37	=37	=37	=37	=37	=37	=37	=37	=37	=37	=37	=37	=37	=37	=37	=37	=37	=37	=37	=37	=37	=37
!LO:TX:t=P:problem=mixed beam	!	!	!	!	!	!	!	!	!	!	!	!	!	!	!	!	!	!	!	!	!	!	!	!	!	!	!	!	!
8BB-/L	.	4BB-/	-rum	-rum	.	.	4B-\	-nis	-rum	.	.	4f\	-rum	-rum	.	.	4b-\	-rum	-rum	.	.	8B-/L	.	8f\L	.	4b-\	.	2ryy	.
*	*	*	*Xij	*Xij	*	*	*	*	*	*	*	*	*Xij	*Xij	*	*	*	*Xij	*Xij	*	*	*	*	*	*	*	*	*	*
8B-\	.	.	.	.	.	.	.	.	.	.	.	.	.	.	.	.	.	.	.	.	.	8B-/	.	8f\	.	.	.	.	.
8BB-/J	.	8r	.	.	.	.	8r	.	.	.	.	8r	.	.	.	.	8r	.	.	.	.	8B-/J	.	8f\J	.	4r	.	.	.
8r	.	8BB-/	de	de	.	.	8F/	in-	de	.	.	8d\	de	de	.	.	8b-\	de	de	.	.	8r	.	8r	.	.	.	.	.
!	!	!	!	!	!	!	!	!	!	!	!	!	!	!	!	!	!	!	!	!	!	!LO:LB:g=original	!	!LO:LB:g=original	!	!	!	!	!
=38	=38	=38	=38	=38	=38	=38	=38	=38	=38	=38	=38	=38	=38	=38	=38	=38	=38	=38	=38	=38	=38	=38	=38	=38	=38	=38	=38	=38	=38
!LO:TX:a:t=4:mod=	!	!	!	!	!	!	!	!	!	!	!	!	!	!	!	!	!	!	!	!	!	!LO:TX:a:t=4.:mod=	!	!LO:TX:a:t=4.:mod=	!	!LO:TX:a:t=4:mod=	!	!	!
0r	.	4F\	pa-	poe-	.	.	4F/	-fer-	poe-	.	.	8.c\L	pa-	poe-	.	.	8.an\L	pe-	poe-	.	.	0r	.	0r	.	0r	.	2ryy	.
.	.	.	.	.	.	.	.	.	.	.	.	32d\LL	.	.	.	.	32b-\LL	.	.	.	.	.	.	.	.	.	.	.	.
.	.	.	.	.	.	.	.	.	.	.	.	32e-\JJJ	.	.	.	.	32cc\JJJ	.	.	.	.	.	.	.	.	.	.	.	.
.	.	8BB-/	-nis	-nis	.	.	8F/	.	-nis	.	.	8d\	-nis	-nis	.	.	8b-\	-nis	-nis	.	.	.	.	.	.	.	.	.	.
.	.	8B-\	in-	in-	.	.	8B-\	-ni	in-	.	.	8f\	in-	in-	.	.	8dd\	in-	in-	.	.	.	.	.	.	.	.	.	.
=39	=39	=39	=39	=39	=39	=39	=39	=39	=39	=39	=39	=39	=39	=39	=39	=39	=39	=39	=39	=39	=39	=39	=39	=39	=39	=39	=39	=39	=39
.	.	4F\	-fer-	-fer-	.	.	8.An\L	de	-fer-	.	.	4f\	-fer-	-fer-	.	.	8.cc\L	-fer-	-fer-	.	.	.	.	.	.	.	.	2ryy	.
.	.	.	.	.	.	.	32B-\LL	.	.	.	.	.	.	.	.	.	32dd\LL	.	.	.	.	.	.	.	.	.	.	.	.
.	.	.	.	.	.	.	32c\JJJ	.	.	.	.	.	.	.	.	.	32ee-\JJJ	.	.	.	.	.	.	.	.	.	.	.	.
.	.	8BB-/	.	-ni	.	.	8B-\	pro-	-ni	.	.	8f\	-ni	-ni	.	.	8dd\	-ni	-ni	.	.	.	.	.	.	.	.	.	.
.	.	8B-\	-ni	et	.	.	8d\	.	et	.	.	8f\	de	et	.	.	8ff\	de	et	.	.	.	.	.	.	.	.	.	.
=40	=40	=40	=40	=40	=40	=40	=40	=40	=40	=40	=40	=40	=40	=40	=40	=40	=40	=40	=40	=40	=40	=40	=40	=40	=40	=40	=40	=40	=40
.	.	4BB-/	de	de	.	.	4d\	-fun-	de-	.	.	4f\	.	de	.	.	4ff\	pro-	de	.	.	.	.	.	.	.	.	2ryy	.
.	.	8E-\	pro-	.	.	.	8c\	.	.	.	.	8e-\	pro-	.	.	.	8ee-\	.	.	.	.	.	.	.	.	.	.	.	.
.	.	8En\	.	pro-	.	.	8B-\	-do	-pro-	.	.	8g\	-fun-	pro-	.	.	8dd\	.	pro-	.	.	.	.	.	.	.	.	.	.
!	!	!	!	!	!	!	!	!	!	!	!	!	!	!	!	!	!LO:LB:g=original	!	!	!	!	!	!	!	!	!	!	!	!
=41	=41	=41	=41	=41	=41	=41	=41	=41	=41	=41	=41	=41	=41	=41	=41	=41	=41	=41	=41	=41	=41	=41	=41	=41	=41	=41	=41	=41	=41
.	.	4F\	-fun-	-fun-	.	.	4B-\	et	-fun-	.	.	4f\	-do	-fun-	.	.	4dd\	-fun-	-fun-	.	.	.	.	.	.	.	.	2ryy	.
!	!	!	!	!	!	!	!LO:SIC:v:s=4An\	!	!	!	!	!	!	!	!	!	!	!	!	!	!	!	!	!	!	!	!	!	!
.	.	4FF/	-do	-do	.	.	4A-\	de	-do	.	.	4f\	de	-do	.	.	4cc\	-do	-do	.	.	.	.	.	.	.	.	.	.
!	!	!	!	!	!	!	!LO:LB:g=original	!	!	!	!	!	!	!	!	!	!	!	!	!	!	!	!	!	!	!	!	!	!
=42	=42	=42	=42	=42	=42	=42	=42	=42	=42	=42	=42	=42	=42	=42	=42	=42	=42	=42	=42	=42	=42	=42	=42	=42	=42	=42	=42	=42	=42
*	*	*	*	*	*	*	*	*	*	*	*	*	*	*	*	*	*	*	*	*	*	*2\right	*	*	*	*	*	*	*
!	!	!	!	!	!	!	!LO:SIC:v:s=4An\	!	!	!	!	!	!	!	!	!	!	!	!	!	!	!	!LO:DY:a:t=p.:rj	!	!LO:DY:a:t=p&colon;	!	!	!	!
4FF/	.	4F\	de	et	.	.	4A-\	pro-	et	.	.	4f\	[et	et	.	.	4f/	et	et	.	.	2f\	p	2f\	p	16F/LL	.	2ryy	.
!	!	!	!	!	!	!	!	!	!	!	!	!	!	!	!	!	!	!	!	!	!	!	!	!	!	!LO:SIC:v:s=16An/	!	!	!
.	.	.	.	.	.	.	.	.	.	.	.	.	.	.	.	.	.	.	.	.	.	.	.	.	.	16A-/	.	.	.
.	.	.	.	.	.	.	.	.	.	.	.	.	.	.	.	.	.	.	.	.	.	.	.	.	.	16c/	.	.	.
!	!	!	!	!	!	!	!	!	!	!	!	!	!	!	!	!	!	!	!	!	!	!	!	!	!	!LO:SIC:v:s=16A/JJ	!	!	!
.	.	.	.	.	.	.	.	.	.	.	.	.	.	.	.	.	.	.	.	.	.	.	.	.	.	16A-/JJ	.	.	.
!	!	!	!	!	!	!	!LO:SIC:v:s=8An\	!	!	!	!	!	!	!	!	!	!	!	!	!	!	!	!	!	!	!	!	!	!
4r	.	8F\	pro-	de-	.	.	8A-\	.	de-	.	.	8f\	de]	de	.	.	8f/	de	de	.	.	.	.	.	.	16F/LL	.	.	.
!	!	!	!	!	!	!	!	!	!	!	!	!	!	!	!	!	!	!	!	!	!	!	!	!	!	!LO:SIC:v:s=16A/	!	!	!
.	.	.	.	.	.	.	.	.	.	.	.	.	.	.	.	.	.	.	.	.	.	.	.	.	.	16A-/	.	.	.
!	!	!	!	!	!	!	!LO:SIC:v:s=8An\	!	!	!	!	!	!	!	!	!	!	!	!	!	!	!	!	!	!	!	!	!	!
.	.	8F\	-fun-	-pro-	.	.	8A-\	-fun-	-pro-	.	.	8f\	pro-	pro-	.	.	8f/	pro-	pro-	.	.	.	.	.	.	16c/	.	.	.
!	!	!	!	!	!	!	!	!	!	!	!	!	!	!	!	!	!	!	!	!	!	!	!	!	!	!LO:SIC:v:s=16A/JJ	!	!	!
.	.	.	.	.	.	.	.	.	.	.	.	.	.	.	.	.	.	.	.	.	.	.	.	.	.	16A-/JJ	.	.	.
=43	=43	=43	=43	=43	=43	=43	=43	=43	=43	=43	=43	=43	=43	=43	=43	=43	=43	=43	=43	=43	=43	=43	=43	=43	=43	=43	=43	=43	=43
4FF/	.	4F\	-do	-fun-	.	.	4B-\	-do	-fun-	.	.	4en\	-fun-	-fun-	.	.	4g\	-fun-	-fun-	.	.	2f\	.	2f\	.	16G/LL	.	2ryy	.
.	.	.	.	.	.	.	.	.	.	.	.	.	.	.	.	.	.	.	.	.	.	.	.	.	.	16B-/	.	.	.
.	.	.	.	.	.	.	.	.	.	.	.	.	.	.	.	.	.	.	.	.	.	.	.	.	.	16c/	.	.	.
.	.	.	.	.	.	.	.	.	.	.	.	.	.	.	.	.	.	.	.	.	.	.	.	.	.	16B-/JJ	.	.	.
!	!	!	!	!	!	!	!	!	!	!	!	!	!	!	!	!	!LO:SIC:v:s=4an\ 	!	!	!	!	!	!	!	!	!	!	!	!
4r	.	4F\	de	-do	.	.	4c\	.	-do	.	.	4e-X\	-do	-do	.	.	4a-\	-do	-do	.	.	.	.	.	.	16A/LL	.	.	.
.	.	.	.	.	.	.	.	.	.	.	.	.	.	.	.	.	.	.	.	.	.	.	.	.	.	16B-/	.	.	.
.	.	.	.	.	.	.	.	.	.	.	.	.	.	.	.	.	.	.	.	.	.	.	.	.	.	16A/	.	.	.
.	.	.	.	.	.	.	.	.	.	.	.	.	.	.	.	.	.	.	.	.	.	.	.	.	.	16B-/JJ	.	.	.
=44	=44	=44	=44	=44	=44	=44	=44	=44	=44	=44	=44	=44	=44	=44	=44	=44	=44	=44	=44	=44	=44	=44	=44	=44	=44	=44	=44	=44	=44
!	!	!	!	!	!	!	!LO:SIC:s=(4d	!	!	!	!	!	!	!	!	!	!	!	!	!	!	!	!	!	!	!	!	!	!
4FF/	.	2F\	La-	la-	.	.	4d\	pro-	la-	.	.	2d\	La-	la-	.	.	2b-\	[la-	la-	.	.	2f\	.	2f\	.	16B-/LL	.	2ryy	.
.	.	.	.	.	.	.	.	.	.	.	.	.	.	.	.	.	.	.	.	.	.	.	.	.	.	16d/	.	.	.
.	.	.	.	.	.	.	.	.	.	.	.	.	.	.	.	.	.	.	.	.	.	.	.	.	.	16f/	.	.	.
.	.	.	.	.	.	.	.	.	.	.	.	.	.	.	.	.	.	.	.	.	.	.	.	.	.	16b-/JJ	.	.	.
!	!	!	!	!	!	!	!LO:SIC:s=4B-)	!	!	!	!	!	!	!	!	!	!	!	!	!	!	!	!	!	!	!	!	!	!
4r	.	.	.	.	.	.	4B-\	-fun-	.	.	.	.	.	.	.	.	.	.	.	.	.	.	.	.	.	8b-\L	.	.	.
.	.	.	.	.	.	.	.	.	.	.	.	.	.	.	.	.	.	.	.	.	.	.	.	.	.	16dd\L	.	.	.
.	.	.	.	.	.	.	.	.	.	.	.	.	.	.	.	.	.	.	.	.	.	.	.	.	.	16b-\JJ	.	.	.
!	!	!	!	!	!	!	!	!	!	!	!	!	!	!	!	!	!	!	!	!	!	!	!	!	!	!LO:LB:g=original	!	!	!
=45	=45	=45	=45	=45	=45	=45	=45	=45	=45	=45	=45	=45	=45	=45	=45	=45	=45	=45	=45	=45	=45	=45	=45	=45	=45	=45	=45	=45	=45
!LO:TX:t=P:problem=mixed beam	!	!	!	!	!	!	!LO:SIC:v:s=4An\	!	!	!	!	!	!	!	!	!	!LO:SIC:v:s=4an\	!	!	!	!	!	!	!	!	!	!	!	!
8FF/L	.	4F\	-cu	-cu	.	.	4A-\	-do	-cu	.	.	4c\	-cu	-cu	.	.	4a-\	-cu]	-cu	.	.	8f\L	.	8f\L	.	8a\L	.	2ryy	.
8F\J	.	.	.	.	.	.	.	.	.	.	.	.	.	.	.	.	.	.	.	.	.	8f\J	.	8f\J	.	8f\J	.	.	.
4FF/	.	4r	.	.	.	.	4r	.	.	.	.	4r	.	.	.	.	4r	.	.	.	.	4f\	.	4f\	.	4f\	.	.	.
!	!	!	!	!	!	!	!	!	!	!	!	!LO:LB:g=original	!	!	!	!	!	!	!	!	!	!	!	!	!	!	!	!	!
=46	=46	=46	=46	=46	=46	=46	=46	=46	=46	=46	=46	=46	=46	=46	=46	=46	=46	=46	=46	=46	=46	=46	=46	=46	=46	=46	=46	=46	=46
*	*	*	*ij	*	*	*	*	*ij	*	*	*	*	*ij	*	*	*	*	*ij	*	*	*	*	*	*	*	*	*	*	*
!LO:TX:t=P:problem=takty 46-49 zapisane repetycją	!	!	!	!	!	!	!LO:SIC:v:s=4An\	!	!	!	!	!	!	!	!	!	!	!	!	!	!	!	!	!	!	!	!	!	!
4FF/yy	.	4F\	de	et	.	.	4A-\	de	et	.	.	4f\	[et	et	.	.	4f/	et	et	.	.	2f\	.	2f\	.	16F/LL	.	2ryy	.
!	!	!	!	!	!	!	!	!	!	!	!	!	!	!	!	!	!	!	!	!	!	!	!	!	!	!LO:SIC:v:s=16An/	!	!	!
.	.	.	.	.	.	.	.	.	.	.	.	.	.	.	.	.	.	.	.	.	.	.	.	.	.	16A-/	.	.	.
.	.	.	.	.	.	.	.	.	.	.	.	.	.	.	.	.	.	.	.	.	.	.	.	.	.	16c/	.	.	.
!	!	!	!	!	!	!	!	!	!	!	!	!	!	!	!	!	!	!	!	!	!	!	!	!	!	!LO:SIC:v:s=16A/JJ	!	!	!
.	.	.	.	.	.	.	.	.	.	.	.	.	.	.	.	.	.	.	.	.	.	.	.	.	.	16A-/JJ	.	.	.
!	!	!	!	!	!	!	!LO:SIC:v:s=8A\L	!	!	!	!	!	!	!	!	!	!	!	!	!	!	!	!	!	!	!	!	!	!
!	!	!	!	!	!	!	!LO:SIC:s=8A	!	!	!	!	!	!	!	!	!	!	!	!	!	!	!	!	!	!	!	!	!	!
4ryy	.	8F\	pro-	de-	.	.	8A-\L	pro-	de-	.	.	8f\	de]	de	.	.	8f/	de	de	.	.	.	.	.	.	16F/LL	.	.	.
!	!	!	!	!	!	!	!	!	!	!	!	!	!	!	!	!	!	!	!	!	!	!	!	!	!	!LO:SIC:v:s=16A/	!	!	!
.	.	.	.	.	.	.	.	.	.	.	.	.	.	.	.	.	.	.	.	.	.	.	.	.	.	16A-/	.	.	.
!	!	!	!	!	!	!	!LO:SIC:v:s=8A\J	!	!	!	!	!	!	!	!	!	!	!	!	!	!	!	!	!	!	!	!	!	!
!	!	!	!	!	!	!	!LO:SIC:s=8A	!	!	!	!	!	!	!	!	!	!	!	!	!	!	!	!	!	!	!	!	!	!
.	.	8F\	-fun-	pro-	.	.	8A-\J	-fun-	-pro-	.	.	8f\	pro-	pro-	.	.	8f/	pro-	pro-	.	.	.	.	.	.	16c/	.	.	.
!	!	!	!	!	!	!	!	!	!	!	!	!	!	!	!	!	!	!	!	!	!	!	!	!	!	!LO:SIC:v:s=16A/JJ	!	!	!
.	.	.	.	.	.	.	.	.	.	.	.	.	.	.	.	.	.	.	.	.	.	.	.	.	.	16A-/JJ	.	.	.
=47	=47	=47	=47	=47	=47	=47	=47	=47	=47	=47	=47	=47	=47	=47	=47	=47	=47	=47	=47	=47	=47	=47	=47	=47	=47	=47	=47	=47	=47
4FF/yy	.	4F\	-do	-fun-	.	.	4B-\	-do	-fun-	.	.	4en\	-fun-	-fun-	.	.	4g\	-fun-	-fun-	.	.	2f\	.	2f\	.	16G/LL	.	2ryy	.
.	.	.	.	.	.	.	.	.	.	.	.	.	.	.	.	.	.	.	.	.	.	.	.	.	.	16B-/	.	.	.
.	.	.	.	.	.	.	.	.	.	.	.	.	.	.	.	.	.	.	.	.	.	.	.	.	.	16c/	.	.	.
.	.	.	.	.	.	.	.	.	.	.	.	.	.	.	.	.	.	.	.	.	.	.	.	.	.	16B-/JJ	.	.	.
!	!	!	!	!	!	!	!	!	!	!	!	!	!	!	!	!	!LO:SIC:v:s=4an\	!	!	!	!	!	!	!	!	!	!	!	!
4ryy	.	4F\	de	-do	.	.	4c\	de	-do	.	.	4e-X\	-do	-do	.	.	4a-\	-do	-do	.	.	.	.	.	.	16A/LL	.	.	.
.	.	.	.	.	.	.	.	.	.	.	.	.	.	.	.	.	.	.	.	.	.	.	.	.	.	16c/	.	.	.
.	.	.	.	.	.	.	.	.	.	.	.	.	.	.	.	.	.	.	.	.	.	.	.	.	.	16A/	.	.	.
.	.	.	.	.	.	.	.	.	.	.	.	.	.	.	.	.	.	.	.	.	.	.	.	.	.	16c/JJ	.	.	.
!	!	!LO:LB:g=original	!	!	!	!	!	!	!	!	!	!	!	!	!	!	!	!	!	!	!	!	!	!	!	!	!	!	!
=48	=48	=48	=48	=48	=48	=48	=48	=48	=48	=48	=48	=48	=48	=48	=48	=48	=48	=48	=48	=48	=48	=48	=48	=48	=48	=48	=48	=48	=48
!	!	!	!	!	!	!	!LO:SIC:s=(4d	!	!	!	!	!	!	!	!	!	!	!	!	!	!	!	!	!	!	!	!	!	!
4FF/yy	.	2F\	La-	la-	.	.	4d\	pro-	la-	.	.	2d\	La-	la-	.	.	2b-\	[la-	la-	.	.	2B-/	.	2f\	.	8B-/L	.	2ryy	.
.	.	.	.	.	.	.	.	.	.	.	.	.	.	.	.	.	.	.	.	.	.	.	.	.	.	16d/L	.	.	.
.	.	.	.	.	.	.	.	.	.	.	.	.	.	.	.	.	.	.	.	.	.	.	.	.	.	16f/JJ	.	.	.
!	!	!	!	!	!	!	!LO:SIC:s=4B-)	!	!	!	!	!	!	!	!	!	!	!	!	!	!	!	!	!	!	!	!	!	!
4ryy	.	.	.	.	.	.	4B-\	-fun-	.	.	.	.	.	.	.	.	.	.	.	.	.	.	.	.	.	8b-\L	.	.	.
.	.	.	.	.	.	.	.	.	.	.	.	.	.	.	.	.	.	.	.	.	.	.	.	.	.	16dd\L	.	.	.
.	.	.	.	.	.	.	.	.	.	.	.	.	.	.	.	.	.	.	.	.	.	.	.	.	.	16b-\JJ	.	.	.
*	*	*	*	*	*	*	*	*	*	*	*	*	*	*	*	*	*	*	*	*	*	*	*	*	*	*	*	*	*
=49	=49	=49	=49	=49	=49	=49	=49	=49	=49	=49	=49	=49	=49	=49	=49	=49	=49	=49	=49	=49	=49	=49	=49	=49	=49	=49	=49	=49	=49
!LO:TX:t=P:problem=mixed beam	!	!	!	!	!	!	!LO:SIC:v:s=4An\	!	!	!	!	!	!	!	!	!	!	!	!	!	!	!	!	!	!	!LO:SIC:v:s=8an/L	!	!	!
8FF/Lyy	.	4F\	-cu	-cu	.	.	4A-\	-do	-cu	.	.	4c\	-cu	-cu	.	.	4an\	-cu]	-cu	.	.	8f\L	.	8f\L	.	8a-/L	.	2ryy	.
*	*	*	*	*	*	*	*	*	*	*	*	*	*	*	*	*	*	*Xij	*	*	*	*	*	*	*	*	*	*	*
8F\Jyy	.	.	.	.	.	.	.	.	.	.	.	.	.	.	.	.	.	.	.	.	.	8f\J	.	8f\J	.	8f/J	.	.	.
4FF/yy	.	4r	.	.	.	.	4r	.	.	.	.	4r	.	.	.	.	4r	.	.	.	.	4f\	.	4f\	.	4f/	.	.	.
*	*	*	*Xij	*	*	*	*	*Xij	*	*	*	*	*Xij	*	*	*	*	*	*	*	*	*	*	*	*	*	*	*	*
=50	=50	=50	=50	=50	=50	=50	=50	=50	=50	=50	=50	=50	=50	=50	=50	=50	=50	=50	=50	=50	=50	=50	=50	=50	=50	=50	=50	=50	=50
!	!	!	!	!	!	!	!LO:TX:a:t=1:mod=	!	!	!	!	!	!	!	!	!	!	!	!	!	!	!	!	!LO:TX:a:t=1.:mod=	!	!LO:TX:a:t=1:mod=	!	!	!
4BB-/	.	4B-\	Li-	Li-	.	.	2r	.	.	.	.	2r	.	.	.	.	2r	.	.	.	.	2r	.	2r	.	2r	.	2ryy	.
!LO:TX:t=P:problem=mixed beam	!	!	!	!	!	!	!	!	!	!	!	!	!	!	!	!	!	!	!	!	!	!	!	!	!	!	!	!	!
8B-\L	.	8B-\	-be-	-be-	.	.	.	.	.	.	.	.	.	.	.	.	.	.	.	.	.	.	.	.	.	.	.	.	.
8BB-/J	.	8B-\	-ra	-ra	.	.	.	.	.	.	.	.	.	.	.	.	.	.	.	.	.	.	.	.	.	.	.	.	.
!	!	!	!	!	!	!	!	!	!	!	!	!	!	!	!	!	!	!	!	!	!	!	!	!	!	!	!	!LO:PB:g=original	!
=51	=51	=51	=51	=51	=51	=51	=51	=51	=51	=51	=51	=51	=51	=51	=51	=51	=51	=51	=51	=51	=51	=51	=51	=51	=51	=51	=51	=51	=51
!	!	!	!	!	!	!	!	!	!	!	!	!	!	!	!	!	!	!	!	!	!	!	!	!	!LO:MO:null:mod=!LO&colon;DY&colon;ed=brack	!	!	!	!LO:MO:null:mod=!LO&colon;DY&colon;ed=brack
!	!	!	!	!	!	!	!	!	!	!	!	!	!	!	!	!	!	!	!	!	!	!	!	!	!null	!	!	!	!null
!	!	!	!	!	!	!	!	!	!	!	!	!	!	!	!	!	!	!	!	!	!	!	!LO:DY:a:t=for.	!	!LO:MO:null:mod=f	!	!LO:DY:a:t=for	!	!LO:MO:null:mod=f
4A-X\	.	4A-X\	e-	li-	.	.	4B-\	Li-	Li-	.	.	4f\	Li-	Li-	.	.	4dd\	Li-	Li-	.	.	4B-/	f	4f\	.	4b-\	f	4dd\	.
8A-\L	.	8A-\	-as	-be-	.	.	8B-\	-be-	-be-	.	.	8f\	-be-	-be-	.	.	8dd\	-be-	-be-	.	.	8B-/L	.	8f\L	.	8b-\L	.	8dd\L	.
8A-\J	.	8A-\	de	-ra	.	.	8B-\	-ra	-ra	.	.	8f\	-ra	-ra	.	.	8dd\	-ra	-ra	.	.	8B-/J	.	8f\J	.	8b-\J	.	8dd\J	.
!LO:LB:g=original	!	!	!	!	!	!	!	!	!	!	!	!	!	!	!	!	!	!	!	!	!	!	!	!	!	!	!	!	!
=52	=52	=52	=52	=52	=52	=52	=52	=52	=52	=52	=52	=52	=52	=52	=52	=52	=52	=52	=52	=52	=52	=52	=52	=52	=52	=52	=52	=52	=52
4G\	.	4G\	O-	e-	.	.	4Bn\	e-	e-	.	.	4f\	e-	e-	.	.	4dd\	e-	e-	.	.	4G/	.	4g\	.	4bX\	.	4dd\	.
!LO:TX:t=P:problem=mixed beam	!	!	!	!	!	!	!	!	!	!	!	!	!	!	!	!	!	!	!	!	!	!	!	!	!	!	!	!	!
8GG/L	.	8G\	-re	-as	.	.	8B\	-as	-as	.	.	8g\	-oſ	-as	.	.	8dd\	-os	-as	.	.	8G/L	.	8g\L	.	8b\L	.	8dd\L	.
8G\J	.	8G\	.	de	.	.	8B\	de	de	.	.	8g\	de	de	.	.	8dd\	de	de	.	.	8G/J	.	8g\J	.	8b\J	.	8dd\J	.
=53	=53	=53	=53	=53	=53	=53	=53	=53	=53	=53	=53	=53	=53	=53	=53	=53	=53	=53	=53	=53	=53	=53	=53	=53	=53	=53	=53	=53	=53
!	!	!	!	!	!	!	!	!	!	!	!	!	!	!	!	!	!	!	!	!	!	!	!	!	!	!LO:TX:t=P:problem=mixed beam	!	!	!
8C\L	.	8C\L	le-	o-	.	.	8c\L	o-	o-	.	.	4g\	O-	o-	.	.	8ee-\L	o-	o-	.	.	4G/	.	4g\	.	8cc\L	.	8ee-\L	.
!	!	!	!	!	!	!	!LO:SIC:s=8B-J	!	!	!	!	!	!	!	!	!	!	!	!	!	!	!	!	!	!	!LO:SIC:s=8f	!	!	!
8D\	.	8D\J	.	.	.	.	8B-\	-re	.	.	.	.	.	.	.	.	8dd\J	.	.	.	.	.	.	.	.	8f/J	.	8dd\	.
!	!	!	!	!	!	!	!LO:SIC:s=8c	!	!	!	!	!	!	!	!	!	!	!	!	!	!	!	!	!	!	!LO:SIC:s=8g	!	!	!
8E-\	.	8E-\	-o-	-re	.	.	8c\J	.	-re	.	.	8g\	re	re	.	.	8cc\	-re	-re	.	.	8r	.	8r	.	8g/L	.	8cc\	.
8C\J	.	8C/	-nis	le-	.	.	8G/	le-	le-	.	.	8e-\	le-	le-	.	.	8cc\	le-	le-	.	.	8G/	.	8g\	.	8e-/J	.	8b-\J	.
=54	=54	=54	=54	=54	=54	=54	=54	=54	=54	=54	=54	=54	=54	=54	=54	=54	=54	=54	=54	=54	=54	=54	=54	=54	=54	=54	=54	=54	=54
4G\	.	4G\	ne	-o-	.	.	4G/	-o-	-o-	.	.	4e-\	-o-	-o-	.	.	4cc\	-o-	-o-	.	.	4G/	.	4g\	.	4e-/	.	4cc\	.
4GG/	.	4GG/	ab-	-nis	.	.	4G/	-nis	-nis	.	.	4d\	-nis	-nis	.	.	4bn\	-nis	-nis	.	.	4G/	.	4g\	.	4d/	.	4bX\	.
!	!	!	!	!	!	!	!	!	!	!	!	!	!	!	!	!	!LO:LB:g=original	!	!	!	!	!	!	!	!	!	!	!	!
=55	=55	=55	=55	=55	=55	=55	=55	=55	=55	=55	=55	=55	=55	=55	=55	=55	=55	=55	=55	=55	=55	=55	=55	=55	=55	=55	=55	=55	=55
4G\	.	4G\	-sor-	ne	.	.	4Bn\	ne	ne	.	.	4g\	ne	ne	.	.	4dd\	ne	ne	.	.	4G/	.	4g\	.	4bX\	.	4dd\	.
4GG/	.	4G\	-be-	ab-	.	.	4B\	ab-	ab-	.	.	4g\	ab-	ab-	.	.	4dd\	ab-	ab-	.	.	4G/	.	4g\	.	4b\	.	4dd\	.
!	!	!	!	!	!	!	!	!	!	!	!	!	!	!	!	!	!	!	!	!	!	!	!	!	!	!LO:LB:g=original	!	!	!
=56	=56	=56	=56	=56	=56	=56	=56	=56	=56	=56	=56	=56	=56	=56	=56	=56	=56	=56	=56	=56	=56	=56	=56	=56	=56	=56	=56	=56	=56
!LO:TX:t=P:problem=mixed beam	!	!	!	!	!	!	!	!	!	!	!	!	!	!	!	!	!	!	!	!	!	!	!	!	!	!	!	!	!
8C/L	.	4c\	-at	-sor-	.	.	4c\	-ſor-	-sor-	.	.	4g\	-sor-	-sor-	.	.	4ee-\	-sor-	-sor-	.	.	4G/	.	4g\	.	4cc\	.	4ee-\	.
8c\J	.	.	.	.	.	.	.	.	.	.	.	.	.	.	.	.	.	.	.	.	.	.	.	.	.	.	.	.	.
!LO:TX:t=P:problem=mixed beam	!	!	!	!	!	!	!	!	!	!	!	!	!	!	!	!	!	!	!	!	!	!	!	!	!	!LO:SIC:v:s=8bn\L	!	!	!
8G\L	.	8G\	e-	-be-	.	.	8d\	-be-	-be-	.	.	8f\	-be-	-be-	.	.	8dd\	-be-	-be-	.	.	4r	.	4r	.	8b-\L	.	8dd\L	.
!	!	!	!	!	!	!	!LO:SIC:v:s=8Bn\	!	!	!	!	!	!	!	!	!	!	!	!	!	!	!	!	!	!	!LO:SIC:v:s=8b\J	!	!	!
8GG/J	.	8G\	-as	-at	.	.	8B-\	-at	-at	.	.	8f\	-at	-at	.	.	8dd\	-at	-at	.	.	.	.	.	.	8b-\J	.	8dd\J	.
=57	=57	=57	=57	=57	=57	=57	=57	=57	=57	=57	=57	=57	=57	=57	=57	=57	=57	=57	=57	=57	=57	=57	=57	=57	=57	=57	=57	=57	=57
!	!	!	!	!	!	!	!	!	!	!	!	!	!	!	!	!	!	!	!	!	!	!LO:TX:a:t=1.:mod=	!	!	!	!	!	!	!
8A-\L	.	8A-\L	tar-	e-	.	.	4.c\	e-	e-	.	.	8e-\L	e-	e-	.	.	4.cc\	e-	e-	.	.	2r	.	2r	.	4.cc\	.	8cc\L	.
8E-\	.	8E-\	.	.	.	.	.	.	.	.	.	8g\	.	.	.	.	.	.	.	.	.	.	.	.	.	.	.	8gg\	.
!	!	!	!	!	!	!	!	!	!	!	!	!LO:SIC:s=8a-J	!	!	!	!	!	!	!	!	!	!	!	!	!	!	!	!	!
8F\	.	8F\J	.	.	.	.	.	.	.	.	.	8a-\	-as	.	.	.	.	.	.	.	.	.	.	.	.	.	.	8aa-\	.
!	!	!	!	!	!	!	!	!	!	!	!	!LO:SIC:s=8f	!	!	!	!	!	!	!	!	!	!	!	!	!	!	!	!	!
8F\J	.	8A-\	-ta-	-as	.	.	8A-\	-as	-as	.	.	8f\J	.	-as	.	.	8dd\	-as	-as	.	.	.	.	.	.	8dd\	.	8ff\J	.
!	!	!	!	!	!	!	!LO:LB:g=original	!	!	!	!	!	!	!	!	!	!	!	!	!	!	!	!	!	!	!	!	!	!
=58	=58	=58	=58	=58	=58	=58	=58	=58	=58	=58	=58	=58	=58	=58	=58	=58	=58	=58	=58	=58	=58	=58	=58	=58	=58	=58	=58	=58	=58
!LO:TX:t=P:problem=mixed beam	!	!	!	!	!	!	!	!	!	!	!	!	!	!	!	!	!	!	!	!	!	!	!	!	!	!	!	!	!
8G\L	.	4.G\	-rus	tar-	.	.	4.G/	tar-	tar-	.	.	4e-\	tar-	tar-	.	.	4cc\	tar-	tar-	.	.	8G/L	.	8g\L	.	4.cc\	.	4ee-\	.
8G\	.	.	.	.	.	.	.	.	.	.	.	.	.	.	.	.	.	.	.	.	.	8G/	.	8g\	.	.	.	.	.
8GG/	.	.	.	.	.	.	.	.	.	.	.	8d\	.	.	.	.	8bn\	.	.	.	.	8G/	.	8g\	.	.	.	4dd\	.
8GG/J	.	8G\	.	-ta-	.	.	8G/	-ta-	-ta-	.	.	8d\	-ta-	-ta-	.	.	8b\	-ta-	-ta-	.	.	8G/J	.	8g\J	.	8bX\	.	.	.
!	!	!	!	!	!	!	!	!	!	!	!	!LO:LB:g=original	!	!	!	!	!	!	!	!	!	!LO:LB:g=original	!	!LO:LB:g=original	!	!	!	!	!
=59	=59	=59	=59	=59	=59	=59	=59	=59	=59	=59	=59	=59	=59	=59	=59	=59	=59	=59	=59	=59	=59	=59	=59	=59	=59	=59	=59	=59	=59
4C/	.	4C/	ſed	-rus	.	.	4G/	-rum	-rus	.	.	4e-\	-rus	-rus	.	.	4cc\	-rum	-rus	.	.	4G/	.	4g\	.	4cc\	.	4cc\	.
8r	.	8r	.	.	.	.	8r	.	.	.	.	8r	.	.	.	.	8r	.	.	.	.	8r	.	8r	.	8r	.	8r	.
8E-\	.	8e-\	.	ne	.	.	8e-\	ne	ne	.	.	8ee-\	ſed	ne	.	.	8ee-\	ne	ne	.	.	8E-/	.	8e-\	.	8e-/	.	8ee-\	.
=60	=60	=60	=60	=60	=60	=60	=60	=60	=60	=60	=60	=60	=60	=60	=60	=60	=60	=60	=60	=60	=60	=60	=60	=60	=60	=60	=60	=60	=60
*2\right	*	*	*ij	*	*	*	*	*	*	*	*	*	*	*	*	*	*	*	*	*	*	*	*	*	*	*	*	*2\right	*
2E-\	.	2e-\	ſed	ca-	.	.	2e-\	Ca-	ca-	.	.	2ee-\	.	ca-	.	.	2ee-\	Ca-	ca-	.	.	2E-/	.	2e-\	.	2e-/	.	2ee-\	.
*	*	*	*Xij	*	*	*	*	*	*	*	*	*	*	*	*	*	*	*	*	*	*	*	*	*	*	*	*	*	*
=61	=61	=61	=61	=61	=61	=61	=61	=61	=61	=61	=61	=61	=61	=61	=61	=61	=61	=61	=61	=61	=61	=61	=61	=61	=61	=61	=61	=61	=61
!	!	!	!	!	!LO:DY:a	!	!	!	!	!	!	!	!	!	!	!	!	!	!	!	!	!	!LO:DY:a:t=p.	!	!	!	!	!	!
!	!	!	!	!	!	!	!	!	!	!	!	!	!	!	!	!	!	!	!	!	!	!	!LO:DY:mod=.	!	!	!	!	!	!
4EE-/	.	4E-\	ſig-	-dans	p	.	4E-/	-dant	-dans	.	.	4e-\	ſig-	-dans	.	.	4e-/	.	-dans	.	.	4E-/	p	4E-/	.	4E-/	.	4e-/	.
!	!LO:MO:null:mod=!LO&colon;DY&colon;ed=brack	!	!	!	!	!	!	!	!	!	!	!	!	!	!	!LO:DY:ed=brack	!	!	!	!	!LO:DY:ed=brack	!	!	!	!	!	!LO:MO:null:mod=!LO&colon;DY&colon;ed=brack	!	!
!	!null	!	!	!	!	!	!	!	!	!	!	!	!	!	!	!	!	!	!	!	!	!	!	!	!	!	!null	!	!
!LO:TX:t=P:problem=mixed beam	!LO:MO:null:mod=p	!	!	!	!	!	!	!	!	!	!LO:DY:ed=brack	!	!	!	!	!	!	!	!	!	!	!	!LO:MO:null:mod=p	!	!LO:DY:a:rj:t=p&colon;	!LO:TX:t=P:problem=mixed beam	!LO:MO:null:mod=p	!	!
8E-\L	.	8E-\	-ni-	in	.	p	8E-/	in	in	.	p	8e-\	-ni-	in	.	p	8e-/	-dans	in	.	p	8B-/L	.	8e-\L	p	8g/L	.	8ee-\L	p
8EE-/J	.	8E-\	-fer	ob-	.	.	8E-/	ob-	ob-	.	.	8e-\	-fer	ob-	.	.	8e-/	in	ob-	.	.	8B-/J	.	8e-\J	.	8ee-\J	.	8ee-\J	.
!	!	!LO:LB:g=original	!	!	!	!	!	!	!	!	!	!	!	!	!	!	!	!	!	!	!	!	!	!	!	!	!	!	!
=62	=62	=62	=62	=62	=62	=62	=62	=62	=62	=62	=62	=62	=62	=62	=62	=62	=62	=62	=62	=62	=62	=62	=62	=62	=62	=62	=62	=62	=62
4BB-/	.	2BB-/	San-	-scu-	.	.	2B-\	-ſcu-	-scu-	.	.	4.d\	San-	-scu-	.	.	4.f/	ob-	-scu-	.	.	4.B-/	.	4.f\	.	4.dd\	.	4.ff\	.
!LO:TX:t=P:problem=mixed beam	!	!	!	!	!	!	!	!	!	!	!	!	!	!	!	!	!	!	!	!	!	!	!	!	!	!	!	!	!
8B-\L	.	.	.	.	.	.	.	.	.	.	.	.	.	.	.	.	.	.	.	.	.	.	.	.	.	.	.	.	.
8BB-/J	.	.	.	.	.	.	.	.	.	.	.	16e-\LL	-ctus	.	.	.	16g/LL	-scu-	.	.	.	16e-\LL	.	16g\LL	.	16dd\LL	.	16gg\LL	.
.	.	.	.	.	.	.	.	.	.	.	.	16f\JJ	.	.	.	.	16a-/JJ	.	.	.	.	16f\JJ	.	16a-\JJ	.	16ee-\JJ	.	16aa-\JJ	.
=63	=63	=63	=63	=63	=63	=63	=63	=63	=63	=63	=63	=63	=63	=63	=63	=63	=63	=63	=63	=63	=63	=63	=63	=63	=63	=63	=63	=63	=63
4E-\	.	4E-\	-ctus	-rum	.	.	4B-\	-rum	-rum	.	.	4e-\	.	-rum	.	.	4g\	-rum	-rum	.	.	4e-\	.	4g\	.	4ee-\	.	4gg\	.
!LO:TX:t=P:problem=mixed beam	!	!	!	!	!	!	!	!	!	!	!	!	!	!	!	!	!	!	!	!	!	!	!	!	!	!	!	!	!
8E-\L	.	8E-\	.	in	.	.	8B-\	in	in	.	.	8e-\	.	in	.	.	8g\	in	in	.	.	4r	.	4r	.	8ee-\L	.	8gg\L	.
8EE-/J	.	8E-\	Mi-	ob-	.	.	8B-\	ob-	ob-	.	.	8e-\	Mi-	ob-	.	.	8g\	ob-	ob-	.	.	.	.	.	.	8ee-\J	.	8gg\J	.
=64	=64	=64	=64	=64	=64	=64	=64	=64	=64	=64	=64	=64	=64	=64	=64	=64	=64	=64	=64	=64	=64	=64	=64	=64	=64	=64	=64	=64	=64
*	*	*	*	*	*	*	*	*	*	*	*	*	*	*	*	*	*	*	*	*	*	*	*	*	*	*2\right	*	*	*
!	!	!	!	!	!	!	!	!	!	!	!	!	!	!	!	!	!	!	!	!	!	!LO:TX:a:t=1.:mod=	!	!	!	!	!	!	!
2AAn/	.	2AAn/	-cha-	-scu-	.	.	2An\	-ſcu-	-scu-	.	.	2e-\	-cha-	-scu-	.	.	2g-X\	-scu-	-scu-	.	.	2r	.	2r	.	2ee-\	.	2gg-X\	.
!	!	!	!	!	!	!	!	!	!	!	!	!	!	!	!	!	!	!	!	!	!	!	!	!	!	!	!	!LO:LB:g=original	!
=65	=65	=65	=65	=65	=65	=65	=65	=65	=65	=65	=65	=65	=65	=65	=65	=65	=65	=65	=65	=65	=65	=65	=65	=65	=65	=65	=65	=65	=65
!	!	!	!	!	!	!	!	!	!	!	!	!	!	!	!	!	!	!	!	!	!	!	!	!	!	!	!LO:MO:null:mod=!LO&colon;DY&colon;ed=brack	!	!LO:MO:null:mod=!LO&colon;DY&colon;ed=brack
!	!	!	!	!	!	!	!	!	!	!	!	!	!	!	!	!	!	!	!	!	!	!	!	!	!	!	!null	!	!null
!	!	!	!	!	!	!	!	!	!	!	!	!	!	!	!	!	!	!	!	!	!	!	!LO:DY:a:t=pp&colon;	!	!LO:DY:a:t=pp&colon;	!	!LO:MO:null:mod=pp	!	!LO:MO:null:mod=pp
4BB-/	.	4BB-/	-el	-rum	.	.	4B-\	-rum	-rum	.	.	4d\	-el	-rum	.	.	4f/	-rum	-rum	.	.	8BB-/L	pp	8B-/L	pp	8dd\L	.	8ff\L	.
.	.	.	.	.	.	.	.	.	.	.	.	.	.	.	.	.	.	.	.	.	.	8BB-/	.	8B-/	.	8dd\	.	8ff\	.
4r	.	4r	.	.	.	.	4r	.	.	.	.	4r	.	.	.	.	4r	.	.	.	.	8BB-/	.	8B-/	.	8dd\	.	8ff\	.
.	.	.	.	.	.	.	.	.	.	.	.	.	.	.	.	.	.	.	.	.	.	8BB-/J	.	8B-/J	.	8dd\J	.	8ff\J	.
=66	=66	=66	=66	=66	=66	=66	=66	=66	=66	=66	=66	=66	=66	=66	=66	=66	=66	=66	=66	=66	=66	=66	=66	=66	=66	=66	=66	=66	=66
!	!	!	!	!	!	!	!	!	!	!	!	!	!	!	!	!	!	!	!	!	!	!LO:MO:mod=*tremolo:null	!	!	!	!	!	!	!
*	*	*	*	*	*	*	*	*	*	*	*	*	*	*	*	*	*	*	*	*	*	*null	*	*tremolo	*	*	*	*	*
!	!	!LO:TX:a:t=1:mod=	!	!	!	!	!	!	!	!	!	!LO:TX:a:t=1:mod=	!	!	!	!	!LO:TX:a:t=1:mod=	!	!	!	!	!	!	!	!	!	!	!	!
4C/	.	2r	.	.	.	.	2r	.	.	.	.	2r	.	.	.	.	2r	.	.	.	.	8BB-/L	.	8B-/L	.	8ee-\L	.	8gg-X\L	.
.	.	.	.	.	.	.	.	.	.	.	.	.	.	.	.	.	.	.	.	.	.	8BB-/	.	8B-/	.	8dd\	.	8ff\J	.
4r	.	.	.	.	.	.	.	.	.	.	.	.	.	.	.	.	.	.	.	.	.	8BB-/	.	8B-/	.	8dd\	.	8ff\L	.
.	.	.	.	.	.	.	.	.	.	.	.	.	.	.	.	.	.	.	.	.	.	8BB-/J	.	8B-/J	.	8dd\J	.	16bb-\L	.
.	.	.	.	.	.	.	.	.	.	.	.	.	.	.	.	.	.	.	.	.	.	.	.	.	.	.	.	16aa-\JJ	.
!	!	!	!	!	!	!	!	!	!	!	!	!	!	!	!	!	!	!	!	!	!	!LO:MO:mod=*Xtremolo:null	!	!	!	!	!	!	!
*	*	*	*	*	*	*	*	*	*	*	*	*	*	*	*	*	*	*	*	*	*	*null	*	*Xtremolo	*	*	*	*	*
=67	=67	=67	=67	=67	=67	=67	=67	=67	=67	=67	=67	=67	=67	=67	=67	=67	=67	=67	=67	=67	=67	=67	=67	=67	=67	=67	=67	=67	=67
*	*	*	*	*	*	*	*	*ij	*	*	*	*	*	*	*	*	*	*ij	*	*	*	*	*	*	*	*	*	*	*
!	!	!	!	!	!	!	!	!	!	!	!	!LO:MO:mod=8e-	!	!	!	!	!	!	!	!	!	!	!	!	!	!	!	!	!
8E-\L	.	8E-\	San-	in	.	.	8B-\	in	in	.	.	4e-\	San-	in	.	.	8g-X\	in	in	.	.	8BB-/	.	8B-/	.	8ee-\L	.	8gg-X\L	.
!	!	!	!	!	!	!	!	!	!	!	!	!LO:MO:null:mod=8e-	!	!	!	!	!	!	!	!	!	!	!	!	!	!	!	!	!
8E-\J	.	8E-\	-ctus	ob-	.	.	4B-\	ob-	ob-	.	.	.	.	ob-	.	.	8g-\	ob-	ob-	.	.	8r	.	8r	.	8ee-\J	.	8gg-\J	.
!LO:LB:g=original	!	!	!	!	!	!	!	!	!	!	!	!LO:MO:mod=4e-	!	!	!	!	!	!	!	!	!	!	!	!	!	!	!	!	!
8AAn/L	.	4AAn/	Micha-	-scu-	.	.	.	.	.	.	.	8e-\	-ctus	-scu-	.	.	4g-\	-scu-	-scu-	.	.	4r	.	4r	.	4ee-\	.	4gg-\	.
!	!	!	!	!	!	!	!	!	!	!	!	!LO:MO:mod=.	!	!	!	!	!LO:TX:b:t=V[er]te:mod=	!	!	!	!	!	!	!	!	!	!	!	!
8AA/J	.	.	.	.	.	.	8c\	-ſcu-	-scu-	.	.	8e-\	Mi-	.	.	.	.	.	.	.	.	.	.	.	.	.	.	.	.
!	!	!	!	!	!	!	!	!	!	!	!	!	!	!	!	!	!LO:PB:g=original	!	!	!	!	!	!	!	!	!	!	!	!
=68	=68	=68	=68	=68	=68	=68	=68	=68	=68	=68	=68	=68	=68	=68	=68	=68	=68	=68	=68	=68	=68	=68	=68	=68	=68	=68	=68	=68	=68
!	!	!	!	!	!	!	!	!	!	!	!	!	!	!	!	!	!	!	!	!	!	!LO:TX:a:t=1.:mod=	!	!	!	!	!	!	!
8BB-/L	.	4BB-/	-el	-rum	.	.	4B-\	-rum	-rum	.	.	4d\	-chael	-rum	.	.	4f/	-rum	-rum	.	.	2r	.	2r	.	4dd\	.	4ff\	.
8BB-/J	.	.	.	.	.	.	.	.	.	.	.	.	.	.	.	.	.	.	.	.	.	.	.	.	.	.	.	.	.
4BB-/	.	4r	.	.	.	.	4r	.	.	.	.	4r	.	.	.	.	4r	.	.	.	.	.	.	.	.	4r	.	4r	.
*	*	*	*	*	*	*	*	*Xij	*	*	*	*	*	*	*	*	*	*Xij	*	*	*	*	*	*	*	*	*	*	*
=69	=69	=69	=69	=69	=69	=69	=69	=69	=69	=69	=69	=69	=69	=69	=69	=69	=69	=69	=69	=69	=69	=69	=69	=69	=69	=69	=69	=69	=69
!	!	!	!	!	!	!	!	!	!	!	!	!	!	!	!	!	!	!	!	!	!	!	!	!	!	!	!	!	!LO:MO:null:mod=!LO&colon;DY&colon;ed=brack
!	!	!	!	!	!	!	!	!	!	!	!	!	!	!	!	!	!	!	!	!	!	!	!	!	!	!	!	!	!null
!	!	!	!	!	!	!	!	!	!	!	!	!	!	!	!	!	!	!	!	!	!	!	!LO:DY:a:t=for	!	!LO:DY:a:t=for&colon;	!	!LO:DY:a:t=for	!	!LO:MO:null:mod=f
4E-\	.	2E-\	Sed	Sed	.	.	2B-\	ſed	Sed	.	.	2g\	Sed	Sed	.	.	2b-\	Sed	Sed	.	.	8G/L	f	8e-\L	f	16G/LL	f	2b-\	.
.	.	.	.	.	.	.	.	.	.	.	.	.	.	.	.	.	.	.	.	.	.	.	.	.	.	16B-/	.	.	.
.	.	.	.	.	.	.	.	.	.	.	.	.	.	.	.	.	.	.	.	.	.	8G/	.	8e-\	.	16G/	.	.	.
.	.	.	.	.	.	.	.	.	.	.	.	.	.	.	.	.	.	.	.	.	.	.	.	.	.	16B-/JJ	.	.	.
4r	.	.	.	.	.	.	.	.	.	.	.	.	.	.	.	.	.	.	.	.	.	8G/	.	8e-\	.	16G/LL	.	.	.
.	.	.	.	.	.	.	.	.	.	.	.	.	.	.	.	.	.	.	.	.	.	.	.	.	.	16B-/	.	.	.
.	.	.	.	.	.	.	.	.	.	.	.	.	.	.	.	.	.	.	.	.	.	8G/J	.	8e-\J	.	16G/	.	.	.
.	.	.	.	.	.	.	.	.	.	.	.	.	.	.	.	.	.	.	.	.	.	.	.	.	.	16B-/JJ	.	.	.
=70	=70	=70	=70	=70	=70	=70	=70	=70	=70	=70	=70	=70	=70	=70	=70	=70	=70	=70	=70	=70	=70	=70	=70	=70	=70	=70	=70	=70	=70
!	!	!	!	!	!	!	!	!	!	!	!	!	!	!	!	!	!	!	!	!	!	!	!	!	!	!LO:TX:a:t=P:problem=takt zapisany repetycją, z adnotacją "bis"	!	!	!
8.E-\L	.	8.E-\	Sig-	sig-	.	.	8.B-\	ſig-	sig-	.	.	8.g\	ſig-	sig-	.	.	8.ee-\	ſi-	si-	.	.	4G/	.	4e-\	.	16G/LLyy	.	8.ee-\L	.
.	.	.	.	.	.	.	.	.	.	.	.	.	.	.	.	.	.	.	.	.	.	.	.	.	.	16B-/yy	.	.	.
.	.	.	.	.	.	.	.	.	.	.	.	.	.	.	.	.	.	.	.	.	.	.	.	.	.	16G/yy	.	.	.
16E-\Jk	.	16E-\	-ni-	-ni-	.	.	16e-\	-ni-	-ni-	.	.	16g\	-gni-	-gni-	.	.	16b-\	-gni-	-gni-	.	.	.	.	.	.	16B-/JJyy	.	16b-\Jk	.
4E-\	.	4E-\	-fer	-fer	.	.	4e-\	-fer	-fer	.	.	4g\	-fer	-fer	.	.	4b-\	-fer	-fer	.	.	4r	.	4r	.	16G/LLyy	.	4b-\	.
.	.	.	.	.	.	.	.	.	.	.	.	.	.	.	.	.	.	.	.	.	.	.	.	.	.	16B-/yy	.	.	.
.	.	.	.	.	.	.	.	.	.	.	.	.	.	.	.	.	.	.	.	.	.	.	.	.	.	16G/yy	.	.	.
.	.	.	.	.	.	.	.	.	.	.	.	.	.	.	.	.	.	.	.	.	.	.	.	.	.	16B-/JJyy	.	.	.
!	!	!	!	!	!	!	!	!	!	!	!	!	!	!	!	!	!	!	!	!	!	!	!	!	!	!LO:LB:g=original	!	!	!
=71	=71	=71	=71	=71	=71	=71	=71	=71	=71	=71	=71	=71	=71	=71	=71	=71	=71	=71	=71	=71	=71	=71	=71	=71	=71	=71	=71	=71	=71
4E-\	.	4r	.	.	.	.	4r	.	.	.	.	4g\	San-	san-	.	.	4b-\	San-	san-	.	.	4G/	.	4e-\	.	4g/	.	4b-\	.
8r	.	8E-\	Sa[n]-	san-	.	.	8B-\	ſan-	san-	.	.	16a-\LL	.	.	.	.	16cc\LL	.	.	.	.	8r	.	8r	.	16a-/LL	.	16cc\LL	.
.	.	.	.	.	.	.	.	.	.	.	.	16g\JJ	.	.	.	.	16b-\JJ	.	.	.	.	.	.	.	.	16g/	.	16b-\	.
8E-\	.	8E-\	-ctuſ	-ctus	.	.	8B-\	.	-ctus	.	.	16f\LL	-ctus	-ctus	.	.	16a-\LL	-ctus	-ctus	.	.	8e-\	.	8g\	.	16f/	.	16a-\	.
.	.	.	.	.	.	.	.	.	.	.	.	16e-\JJ	.	.	.	.	16g\JJ	.	.	.	.	.	.	.	.	16e-/JJ	.	16g\JJ	.
!	!	!	!	!	!	!	!	!	!	!	!	!LO:LB:g=original	!	!	!	!	!	!	!	!	!	!	!	!	!	!	!	!	!
=72	=72	=72	=72	=72	=72	=72	=72	=72	=72	=72	=72	=72	=72	=72	=72	=72	=72	=72	=72	=72	=72	=72	=72	=72	=72	=72	=72	=72	=72
!LO:TX:t=P:problem=mixed beam	!	!	!	!	!	!	!	!	!	!	!	!	!	!	!	!	!	!	!	!	!	!	!	!	!	!	!	!	!
8B-\L	.	8.B-\	Mi-	Mi-	.	.	8.B-\	-ctus	Mi-	.	.	8.e-\	Mi-	Mi-	.	.	8.g\	Mi-	Mi-	.	.	4e-\	.	4g\	.	8e-/L	.	8.g\L	.
8BB-/	.	.	.	.	.	.	.	.	.	.	.	.	.	.	.	.	.	.	.	.	.	.	.	.	.	8eX/J	.	.	.
!	!	!	!	!	!	!	!	!	!	!	!	!LO:MO:mod=.	!	!	!	!	!	!	!	!	!	!	!	!	!	!	!	!	!
.	.	.	.	.	.	.	.	.	.	.	.	8qqf/	.	.	.	.	.	.	.	.	.	.	.	.	.	.	.	.	.
.	.	16BB-/	-cha-	-cha-	.	.	16B-\	.	-cha-	.	.	16en\	-cha-	-cha-	.	.	16g\	-cha-	-cha-	.	.	.	.	.	.	.	.	16a-\Jk	.
8BB-/	.	4BB-/	-el	-el	.	.	4B-\	.	-el	.	.	4f\	-el	-el	.	.	4a-\	-el	-el	.	.	4f\	.	4a-\	.	4f/	.	4a-\	.
8BB-/J	.	.	.	.	.	.	.	.	.	.	.	.	.	.	.	.	.	.	.	.	.	.	.	.	.	.	.	.	.
=73	=73	=73	=73	=73	=73	=73	=73	=73	=73	=73	=73	=73	=73	=73	=73	=73	=73	=73	=73	=73	=73	=73	=73	=73	=73	=73	=73	=73	=73
*tremolo	*	*	*	*	*	*	*	*	*	*	*	*	*	*	*	*	*	*	*	*	*	*	*	*	*	*	*	*	*
8BB-/L	.	4r	.	.	.	.	4.B-\	Mi-	re-	.	.	4a-\	re-	re-	.	.	4ff\	re-	re-	.	.	8.B-/L	.	8.f\L	.	4a-\	.	8.ff\L	.
8BB-/	.	.	.	.	.	.	.	.	.	.	.	.	.	.	.	.	.	.	.	.	.	.	.	.	.	.	.	.	.
.	.	.	.	.	.	.	.	.	.	.	.	.	.	.	.	.	.	.	.	.	.	16B-/Jk	.	16f\Jk	.	.	.	16a-\Jk	.
8BB-/	.	8BB-/	re-	re-	.	.	.	.	.	.	.	4f\	-pre-	-prae-	.	.	4a-\	-pre-	-prae-	.	.	4B-/	.	4f\	.	4f/	.	4a-\	.
8BB-/J	.	8BB-/	-pre-	-prae-	.	.	8B-\	-cha-	-prae-	.	.	.	.	.	.	.	.	.	.	.	.	.	.	.	.	.	.	.	.
*Xtremolo	*	*	*	*	*	*	*	*	*	*	*	*	*	*	*	*	*	*	*	*	*	*	*	*	*	*	*	*	*
!	!	!	!	!	!	!	!LO:LB:g=original	!	!	!	!	!	!	!	!	!	!	!	!	!	!	!LO:LB:g=original	!	!LO:LB:g=original	!	!	!	!	!
=74	=74	=74	=74	=74	=74	=74	=74	=74	=74	=74	=74	=74	=74	=74	=74	=74	=74	=74	=74	=74	=74	=74	=74	=74	=74	=74	=74	=74	=74
4BB-/	.	4.BB-/	-sen-	-sen-	.	.	4.B-\	-el	-sen-	.	.	4f\	-ſen-	-sen-	.	.	4a-\	-sen-	-sen-	.	.	4B-/	.	4f\	.	4f/	.	4a-\	.
8r	.	.	.	.	.	.	.	.	.	.	.	16g\LL	.	.	.	.	16b-\LL	-tet	.	.	.	8r	.	8r	.	16g/LL	.	16b-\LL	.
.	.	.	.	.	.	.	.	.	.	.	.	16f\JJ	.	.	.	.	16a-\JJ	.	.	.	.	.	.	.	.	16f/	.	16a-\	.
8BB-/	.	8BB-/	-tet	-tet	.	.	8B-\	re-	-tet	.	.	16e-\LL	-tet	-tet	.	.	16g\LL	.	-tet	.	.	8B-/	.	8f\	.	16e-/	.	16g\	.
.	.	.	.	.	.	.	.	.	.	.	.	16d\JJ	.	.	.	.	16f\JJ	.	.	.	.	.	.	.	.	16d/JJ	.	16f\JJ	.
=75	=75	=75	=75	=75	=75	=75	=75	=75	=75	=75	=75	=75	=75	=75	=75	=75	=75	=75	=75	=75	=75	=75	=75	=75	=75	=75	=75	=75	=75
8E-\L	.	4E-\	in	e-	.	.	4B-\	-pre-	e-	.	.	4d\	in	e-	.	.	4f/	e-	e-	.	.	4B-/	.	4f\	.	4d/	.	4f/	.
8BB-\J	.	.	.	.	.	.	.	.	.	.	.	.	.	.	.	.	.	.	.	.	.	.	.	.	.	.	.	.	.
8EE-/	.	4E-\	.	-as	.	.	4B-\	-sen-	-as	.	.	4e-\	.	-as	.	.	4g/	-as	-as	.	.	8e-\L	.	8g\L	.	4e-/	.	4g/	.
8r	.	.	.	.	.	.	.	.	.	.	.	.	.	.	.	.	.	.	.	.	.	16g\L	.	16b-\L	.	.	.	.	.
.	.	.	.	.	.	.	.	.	.	.	.	.	.	.	.	.	.	.	.	.	.	16f\JJ	.	16a-\JJ	.	.	.	.	.
=76	=76	=76	=76	=76	=76	=76	=76	=76	=76	=76	=76	=76	=76	=76	=76	=76	=76	=76	=76	=76	=76	=76	=76	=76	=76	=76	=76	=76	=76
*tremolo	*	*	*	*	*	*	*	*	*	*	*	*	*	*	*	*	*	*	*	*	*	*	*	*	*	*	*	*	*
8E-\L	.	2E-\	in	in	.	.	2B-\	-tet	in	.	.	2g\	in	in	.	.	2ee-\	in	in	.	.	8e-\L	.	8g\L	.	8r	.	8r	.
8E-\	.	.	.	.	.	.	.	.	.	.	.	.	.	.	.	.	.	.	.	.	.	8e-\	.	8g\	.	8g/L	.	8ee-\L	.
8E-\	.	.	.	.	.	.	.	.	.	.	.	.	.	.	.	.	.	.	.	.	.	8e-\	.	8g\	.	8g/	.	8ee-\	.
8E-\J	.	.	.	.	.	.	.	.	.	.	.	.	.	.	.	.	.	.	.	.	.	8e-\J	.	8g\J	.	8g/J	.	8ee-\J	.
!	!	!LO:LB:g=original	!	!	!	!	!	!	!	!	!	!	!	!	!	!	!	!	!	!	!	!	!	!	!	!	!	!	!
=77	=77	=77	=77	=77	=77	=77	=77	=77	=77	=77	=77	=77	=77	=77	=77	=77	=77	=77	=77	=77	=77	=77	=77	=77	=77	=77	=77	=77	=77
8C/L	.	4C/	Lu-	lu-	.	.	4c\	e-	lu-	.	.	4g\	Lu-	lu-	.	.	4ee-\	lu-	lu-	.	.	8r	.	8r	.	8r	.	8r	.
8C/	.	.	.	.	.	.	.	.	.	.	.	.	.	.	.	.	.	.	.	.	.	8e-\L	.	8g\L	.	8g/L	.	8ee-\L	.
8C/	.	4c\	-cem	-cem	.	.	4c\	-as	-cem	.	.	4g\	-cem	-cem	.	.	4ee-\	-cem	-cem	.	.	8e-\	.	8g\	.	8g/	.	8ee-\	.
8C/J	.	.	.	.	.	.	.	.	.	.	.	.	.	.	.	.	.	.	.	.	.	8e-\J	.	8g\J	.	8g/J	.	8ee-\J	.
!	!	!	!	!	!	!	!	!	!	!	!	!	!	!	!	!	!	!	!	!	!	!	!	!	!	!	!	!LO:LB:g=original	!
=78	=78	=78	=78	=78	=78	=78	=78	=78	=78	=78	=78	=78	=78	=78	=78	=78	=78	=78	=78	=78	=78	=78	=78	=78	=78	=78	=78	=78	=78
8AAn/L	.	2An\	San-	san-	.	.	2c\	in lu-	san-	.	.	2f\	San-	san-	.	.	2ee-\	San-	san-	.	.	8r	.	8r	.	8r	.	8r	.
8AAn/	.	.	.	.	.	.	.	.	.	.	.	.	.	.	.	.	.	.	.	.	.	8f\L	.	8f\L	.	8f/L	.	8ee-\L	.
8AAn/	.	.	.	.	.	.	.	.	.	.	.	.	.	.	.	.	.	.	.	.	.	8f\	.	8f\	.	8f/	.	8ee-\	.
8AAn/J	.	.	.	.	.	.	.	.	.	.	.	.	.	.	.	.	.	.	.	.	.	8f\J	.	8f\J	.	8f/J	.	8ee-\J	.
*Xtremolo	*	*	*	*	*	*	*	*	*	*	*	*	*	*	*	*	*	*	*	*	*	*	*	*	*	*	*	*	*
=79	=79	=79	=79	=79	=79	=79	=79	=79	=79	=79	=79	=79	=79	=79	=79	=79	=79	=79	=79	=79	=79	=79	=79	=79	=79	=79	=79	=79	=79
!LO:TX:t=P:problem=mixed beam	!	!	!	!	!	!	!	!	!	!	!	!	!	!	!	!	!	!	!	!	!	!	!	!	!	!	!	!	!
8BB-/L	.	4B-\	-ctam	-ctam	.	.	4B-\	-cem	-ctam	.	.	4f\	-ctam	-ctam	.	.	4dd\	-ctum	-ctam	.	.	4B-/	.	4f\	.	8f/L	.	8dd\L	.
8B-\J	.	.	.	.	.	.	.	.	.	.	.	.	.	.	.	.	.	.	.	.	.	.	.	.	.	8d/J	.	8b-\J	.
4BB-/	.	4r	.	.	.	.	4r	.	.	.	.	4r	.	.	.	.	4r	.	.	.	.	4r	.	4r	.	4d/	.	4b-\	.
=80	=80	=80	=80	=80	=80	=80	=80	=80	=80	=80	=80	=80	=80	=80	=80	=80	=80	=80	=80	=80	=80	=80	=80	=80	=80	=80	=80	=80	=80
!	!	!	!	!	!	!	!	!	!	!	!	!	!	!	!	!	!	!	!	!	!	!	!	!	!LO:MO:null:mod=!LO&colon;DY&colon;ed=brack	!	!	!	!
!	!	!	!	!	!	!	!	!	!	!	!	!	!	!	!	!	!	!	!	!	!	!	!	!	!null	!	!	!	!
!	!	!	!	!	!	!	!	!	!	!	!	!LO:TX:a:t=1:mod=	!	!	!	!	!LO:TX:a:t=1:mod=	!	!	!	!	!	!LO:DY:a:t=p.	!	!LO:MO:null:mod=p	!LO:TX:a:t=1:mod=	!	!LO:TX:a:t=1:mod=	!
4B-\	.	8B-\	re-	re-	.	.	8B-\	ſan-	re-	.	.	2r	.	.	.	.	2r	.	.	.	.	4BB-/	p	4B-/	.	2r	.	2r	.
.	.	8B-\	-pre-	-prae-	.	.	8B-\	.	-prae-	.	.	.	.	.	.	.	.	.	.	.	.	.	.	.	.	.	.	.	.
!LO:TX:t=P:problem=mixed beam	!	!	!	!	!	!	!	!	!	!	!	!	!	!	!	!	!	!	!	!	!	!	!	!	!	!	!	!	!
8B-\L	.	8B-\	-sen-	-sen-	.	.	8B-\	.	-sen-	.	.	.	.	.	.	.	.	.	.	.	.	8BB-/L	.	8B-/L	.	.	.	.	.
8BB-/J	.	8B-\	.	-tet	.	.	8B-\	-ctam	-tet	.	.	.	.	.	.	.	.	.	.	.	.	8BB-/J	.	8B-/J	.	.	.	.	.
!	!	!	!	!	!	!	!	!	!	!	!	!	!	!	!	!	!LO:LB:g=original	!	!	!	!	!	!	!	!	!	!	!	!
=81	=81	=81	=81	=81	=81	=81	=81	=81	=81	=81	=81	=81	=81	=81	=81	=81	=81	=81	=81	=81	=81	=81	=81	=81	=81	=81	=81	=81	=81
4BB-/	.	2B-\	-tet	re-	.	.	2B-\	-re-	-re-	.	.	8r	.	.	.	.	8r	.	.	.	.	2BB-/	.	2B-/	.	8r	.	8r	.
.	.	.	.	.	.	.	.	.	.	.	.	4g\	re-	re-	.	.	4b-\	re-	re-	.	.	.	.	.	.	4gg\	.	4bb-\	.
4r	.	.	.	.	.	.	.	.	.	.	.	.	.	.	.	.	.	.	.	.	.	.	.	.	.	.	.	.	.
.	.	.	.	.	.	.	.	.	.	.	.	8e-\	-pre-	-prae-	.	.	8g\	-pre-	-prae-	.	.	.	.	.	.	8ee-\	.	8gg\	.
=82	=82	=82	=82	=82	=82	=82	=82	=82	=82	=82	=82	=82	=82	=82	=82	=82	=82	=82	=82	=82	=82	=82	=82	=82	=82	=82	=82	=82	=82
!	!	!LO:N:vis=2.	!	!	!	!	!	!	!	!	!	!	!	!	!	!	!	!	!	!	!	!	!	!	!	!	!	!	!
!	!	!LO:SIC:s=2B-	!	!	!	!	!	!	!	!	!	!	!	!	!	!	!	!	!	!	!	!	!	!	!	!	!	!	!
4BB-/	.	2B-^\	e-	-prae-	.	.	2B-\	-pre-	-prae-	.	.	8e-\	-ſen-	-sen-	.	.	8g\	-sen-	-sen-	.	.	2BB-/	.	2B-/	.	8ee-\	.	8gg\	.
.	.	.	.	.	.	.	.	.	.	.	.	4f\	.	.	.	.	4a-\	.	.	.	.	.	.	.	.	4ff\	.	4aa-\	.
4r	.	.	.	.	.	.	.	.	.	.	.	.	.	.	.	.	.	.	.	.	.	.	.	.	.	.	.	.	.
.	.	.	.	.	.	.	.	.	.	.	.	8d\	-tet	-tet	.	.	8f\	-tet	-tet	.	.	.	.	.	.	8dd\	.	8ff\	.
!LO:LB:g=original	!	!	!	!	!	!	!	!	!	!	!	!	!	!	!	!	!	!	!	!	!	!	!	!	!	!	!	!	!
=83	=83	=83	=83	=83	=83	=83	=83	=83	=83	=83	=83	=83	=83	=83	=83	=83	=83	=83	=83	=83	=83	=83	=83	=83	=83	=83	=83	=83	=83
4BB-/	.	2B-\	-as	-sen-	.	.	2B-\	-ſen-	-sen-	.	.	8d\	e-	e-	.	.	8f/	e-	e-	.	.	4BB-/	.	4B-/	.	8dd\	.	8ff\	.
.	.	.	.	.	.	.	.	.	.	.	.	4.e-\	.	.	.	.	4g/	.	.	.	.	.	.	.	.	4ee-\	.	4gg\	.
4r	.	.	.	.	.	.	.	.	.	.	.	.	.	.	.	.	.	.	.	.	.	8r	.	8r	.	.	.	.	.
.	.	.	.	.	.	.	.	.	.	.	.	.	.	.	.	.	8an/	.	.	.	.	8f\	.	8f\	.	8a\	.	8ee-\	.
=84	=84	=84	=84	=84	=84	=84	=84	=84	=84	=84	=84	=84	=84	=84	=84	=84	=84	=84	=84	=84	=84	=84	=84	=84	=84	=84	=84	=84	=84
!	!	!	!	!	!	!	!	!	!	!	!	!	!	!	!	!	!	!	!	!	!	!	!	!	!	!LO:TX:t=P:problem=mixed beam	!	!	!
4BB-/	.	4B-\	re-	-tet	.	.	4B-\	-tet	-tet	.	.	4d\	-as	-as	.	.	4b-\	-as	-as	.	.	4f\	.	4f\	.	8b-\L	.	8dd\L	.
.	.	.	.	.	.	.	.	.	.	.	.	.	.	.	.	.	.	.	.	.	.	.	.	.	.	8B-/	.	8b-\J	.
4r	.	4BB-/	-pre-	in	.	.	4r	.	.	.	.	4r	.	.	.	.	4r	.	.	.	.	4r	.	4r	.	8B-/	.	4b-\	.
.	.	.	.	.	.	.	.	.	.	.	.	.	.	.	.	.	.	.	.	.	.	.	.	.	.	8B-/J	.	.	.
!	!	!	!	!	!	!	!	!	!	!	!	!LO:LB:g=original	!	!	!	!	!	!	!	!	!	!	!	!	!	!	!	!	!
=85	=85	=85	=85	=85	=85	=85	=85	=85	=85	=85	=85	=85	=85	=85	=85	=85	=85	=85	=85	=85	=85	=85	=85	=85	=85	=85	=85	=85	=85
4BB-/	.	2BB-/	-sen-	lu-	.	.	8r	.	.	.	.	8r	.	.	.	.	2b-\	in	in	.	.	8r	.	8r	.	2B-/	.	8r	.
.	.	.	.	.	.	.	4g\	re-	re-	.	.	4b-\	re-	re-	.	.	.	.	.	.	.	4g\	.	4b-\	.	.	.	4gg\	.
4r	.	.	.	.	.	.	.	.	.	.	.	.	.	.	.	.	.	.	.	.	.	.	.	.	.	.	.	.	.
!	!	!	!	!	!	!	!	!	!	!	!	!	!	!	!	!	!	!	!	!	!	!	!	!	!	!	!	!LO:SIC:s=8ee-	!
.	.	.	.	.	.	.	8e-\	-pre-	-prae-	.	.	8g\	-pre-	-prae-	.	.	.	.	.	.	.	8e-\	.	8g\	.	.	.	[8ee-\	.
=86	=86	=86	=86	=86	=86	=86	=86	=86	=86	=86	=86	=86	=86	=86	=86	=86	=86	=86	=86	=86	=86	=86	=86	=86	=86	=86	=86	=86	=86
!	!	!	!	!	!	!	!	!	!	!	!	!	!	!	!	!	!	!	!	!	!	!	!	!	!	!	!	!LO:SIC:s=8ee-	!
4BB-/	.	2BB-/	-tet	-cem	.	.	8e-\	-ſen-	-sen-	.	.	8g\	-sen-	-sen-	.	.	4b-\	lu-	lu-	.	.	8e-\	.	8g\	.	2B-/	.	8ee-\]	.
.	.	.	.	.	.	.	4f\	.	.	.	.	4a-\	.	.	.	.	.	.	.	.	.	4f\	.	4a-\	.	.	.	4ff\	.
4r	.	.	.	.	.	.	.	.	.	.	.	.	.	.	.	.	4b-\	-cem	-cem	.	.	.	.	.	.	.	.	.	.
.	.	.	.	.	.	.	8d\	-tet	-tet	.	.	8f\	-tet	-tet	.	.	.	.	.	.	.	8B-/	.	8f\	.	.	.	8dd\	.
!	!	!	!	!	!	!	!	!	!	!	!	!	!	!	!	!	!	!	!	!	!	!	!	!LO:LB:g=original	!	!	!	!	!
=87	=87	=87	=87	=87	=87	=87	=87	=87	=87	=87	=87	=87	=87	=87	=87	=87	=87	=87	=87	=87	=87	=87	=87	=87	=87	=87	=87	=87	=87
!	!	!	!	!	!	!	!	!	!	!	!	!	!	!	!	!	!	!	!	!	!	!	!	!	!	!LO:TX:t=P:problem=mixed beam	!	!	!
4BB-/	.	2BB-/	in	san-	.	.	2e-\	e-	e-	.	.	2g\	in	e-	.	.	2b-\	San-	san-	.	.	8B-/	.	8f\	.	8B-/L	.	8dd\	.
!	!	!	!	!	!	!	!	!	!	!	!	!	!	!	!	!	!	!	!	!	!	!	!	!	!	!LO:TX:t=a:mod=	!	!	!
!	!	!	!	!	!	!	!	!	!	!	!	!	!	!	!	!	!	!	!	!	!	!	!	!	!	!LO:SIC:s=8g	!	!	!
.	.	.	.	.	.	.	.	.	.	.	.	.	.	.	.	.	.	.	.	.	.	4e-\	.	4g\	.	8b- 8g\	.	4ee-\	.
!	!	!	!	!	!	!	!	!	!	!	!	!	!	!	!	!	!	!	!	!	!	!	!	!	!	!LO:TX:t=a:mod=	!	!	!
!	!	!	!	!	!	!	!	!	!	!	!	!	!	!	!	!	!	!	!	!	!	!	!	!	!	!LO:SIC:s=8g	!	!	!
4r	.	.	.	.	.	.	.	.	.	.	.	.	.	.	.	.	.	.	.	.	.	.	.	.	.	8b- 8g\	.	.	.
!	!	!	!	!	!	!	!	!	!	!	!	!	!	!	!	!	!	!	!	!	!	!	!	!	!	!LO:TX:t=a:mod=	!	!	!
!	!	!	!	!	!	!	!	!	!	!	!	!	!	!	!	!	!	!	!	!	!	!	!	!	!	!LO:SIC:s=8gJ	!	!	!
.	.	.	.	.	.	.	.	.	.	.	.	.	.	.	.	.	.	.	.	.	.	8e-\	.	8g\	.	8b- 8g\J	.	8ee-\	.
!	!	!	!	!	!	!	!	!	!	!	!	!	!	!	!	!	!	!	!	!	!	!LO:LB:g=original	!	!	!	!LO:LB:g=original	!	!	!
=88	=88	=88	=88	=88	=88	=88	=88	=88	=88	=88	=88	=88	=88	=88	=88	=88	=88	=88	=88	=88	=88	=88	=88	=88	=88	=88	=88	=88	=88
*	*	*	*	*	*	*	*	*	*	*	*	*	*	*	*	*	*	*	*	*	*	*	*	*	*	*tremolo	*	*	*
8AAn/L	.	2AAn/	Sa[n]-	.	.	.	2e-\	.	.	.	.	2f\	San-	.	.	.	2cc\	.	.	.	.	8f\L	.	8f\L	.	8f/L	.	8ee-\L	.
8AA/	.	.	.	.	.	.	.	.	.	.	.	.	.	.	.	.	.	.	.	.	.	8f\	.	8f\	.	8f/	.	8ee-\	.
8AA/	.	.	.	.	.	.	.	.	.	.	.	.	.	.	.	.	.	.	.	.	.	8f\	.	8f\	.	8f/	.	8ee-\	.
8AA/J	.	.	.	.	.	.	.	.	.	.	.	.	.	.	.	.	.	.	.	.	.	8f\J	.	8f\J	.	8f/J	.	8ee-\J	.
*	*	*	*	*	*	*	*	*	*	*	*	*	*	*	*	*	*	*	*	*	*	*	*	*	*	*Xtremolo	*	*	*
=89	=89	=89	=89	=89	=89	=89	=89	=89	=89	=89	=89	=89	=89	=89	=89	=89	=89	=89	=89	=89	=89	=89	=89	=89	=89	=89	=89	=89	=89
!	!	!	!	!	!	!	!	!	!	!	!	!	!	!	!	!	!LO:MO:mod=4b-	!	!	!	!	!	!	!	!	!	!	!	!
8BB-/	.	4BB-/	-ctam	-ctam	.	.	4d\	-as	-as	.	.	4f\	-ctam	-as	.	.	8b-\	-ctam	-ctam	.	.	8B-/	.	8f\	.	8f\L	.	8dd\L	.
!	!	!	!	!	!	!	!	!	!	!	!	!	!	!	!	!	!LO:MO:mod=.	!	!	!	!	!	!	!	!	!	!	!	!
8r	.	.	.	.	.	.	.	.	.	.	.	.	.	.	.	.	8r	.	.	.	.	8r	.	8r	.	16b-\L	.	16dd\L	.
.	.	.	.	.	.	.	.	.	.	.	.	.	.	.	.	.	.	.	.	.	.	.	.	.	.	16b-\JJ	.	16ee-\JJ	.
4r	.	4r	.	.	.	.	4r	.	.	.	.	4r	.	.	.	.	4r	.	.	.	.	4r	.	4r	.	16dd\LL	.	16ff\LL	.
.	.	.	.	.	.	.	.	.	.	.	.	.	.	.	.	.	.	.	.	.	.	.	.	.	.	16ee-\	.	16gg\	.
.	.	.	.	.	.	.	.	.	.	.	.	.	.	.	.	.	.	.	.	.	.	.	.	.	.	16dd\	.	16ff\	.
.	.	.	.	.	.	.	.	.	.	.	.	.	.	.	.	.	.	.	.	.	.	.	.	.	.	16ee-\JJ	.	16gg\JJ	.
!	!	!	!	!	!	!	!	!	!	!	!	!	!	!	!	!	!	!	!	!	!	!	!	!	!	!	!	!LO:LB:g=original	!
=90	=90	=90	=90	=90	=90	=90	=90	=90	=90	=90	=90	=90	=90	=90	=90	=90	=90	=90	=90	=90	=90	=90	=90	=90	=90	=90	=90	=90	=90
!	!LO:DY:a	!	!	!	!	!	!	!	!	!	!	!	!	!	!	!	!	!	!	!	!	!	!LO:DY:a	!	!LO:DY:a	!LO:TX:t=P:problem=mixed beam	!LO:DY:a	!LO:TX:t=P:problem=mixed beam	!
8D\L	f	2D\	in	in	.	.	2B-\	in	in	.	.	2f\	in	in	.	.	2a-X\	in	in	.	.	8B-/L	f	8f\L	f	8ff\L	f	8aa-X\L	f
!	!LO:DY:a	!	!	!	!	!	!	!	!	!	!	!	!	!	!	!	!	!	!	!	!	!	!LO:DY:a:t=p.	!	!LO:DY:a:t=p&colon;	!	!LO:DY:a	!	!
8D\	p	.	.	.	.	.	.	.	.	.	.	.	.	.	.	.	.	.	.	.	.	8B-/	p	8f\	p	8f/	p	8a-/	p
8D\	.	.	.	.	.	.	.	.	.	.	.	.	.	.	.	.	.	.	.	.	.	8B-/	.	8f\	.	8f/	.	8a-/	.
8D\J	.	.	.	.	.	.	.	.	.	.	.	.	.	.	.	.	.	.	.	.	.	8B-/J	.	8f\J	.	8f/J	.	8a-/J	.
=91	=91	=91	=91	=91	=91	=91	=91	=91	=91	=91	=91	=91	=91	=91	=91	=91	=91	=91	=91	=91	=91	=91	=91	=91	=91	=91	=91	=91	=91
!	!LO:DY:a:rj	!	!	!	!	!	!	!	!	!	!	!	!	!	!	!	!	!	!	!	!	!	!LO:DY:a	!	!LO:DY:a	!LO:TX:t=P:problem=mixed beam	!LO:DY:a	!LO:TX:t=P:problem=mixed beam	!LO:DY:a:rj
8E-\L	f	4E-\	Lu-	lu-	.	.	4B-\	lu-	lu-	.	.	4e-\	Lu-	lu-	.	.	4g\	lu-	lu-	.	.	8e-\L	f	8g\L	f	8ee-\L	f	8gg\L	f
!	!LO:DY:a:rj	!	!	!	!	!	!	!	!	!	!	!	!	!	!	!	!	!	!	!	!	!	!LO:DY:a:t=p.	!	!LO:DY:a:t=p&colon;	!	!LO:DY:a	!	!
8E-\	p	.	.	.	.	.	.	.	.	.	.	.	.	.	.	.	.	.	.	.	.	8e-\	p	8g\	p	8e-/	p	8g/	p
8E-\	.	4E-\	-cem	-cem	.	.	4B-\	-cem	-cem	.	.	4e-\	-cem	-cem	.	.	4g\	-cem	-cem	.	.	8e-\	.	8g\	.	8e-/	.	8g/	.
8E-\J	.	.	.	.	.	.	.	.	.	.	.	.	.	.	.	.	.	.	.	.	.	8e-\J	.	8g\J	.	8e-/J	.	8g/J	.
=92	=92	=92	=92	=92	=92	=92	=92	=92	=92	=92	=92	=92	=92	=92	=92	=92	=92	=92	=92	=92	=92	=92	=92	=92	=92	=92	=92	=92	=92
*	*	*	*	*	*	*	*	*	*	*	*	*	*	*	*	*	*	*	*	*	*	*	*	*tremolo	*	*	*	*	*
!	!LO:DY:a:rj	!	!	!	!	!	!	!	!	!	!	!	!	!	!	!	!	!	!	!	!	!	!LO:DY:a	!	!LO:DY:a	!LO:TX:t=P:problem=mixed beam	!LO:DY:a	!LO:TX:t=P:problem=mixed beam	!
8D\L	f	2D\	San-	san-	.	.	2B-\	San-	san-	.	.	2f\	San-	san-	.	.	2a-\	San-	san-	.	.	8B-/L	f	8f\L	f	8ff\L	f	8aa-\L	f
!	!LO:DY:a	!	!	!	!	!	!	!	!	!	!	!	!	!	!	!	!	!	!	!	!	!	!LO:DY:a:t=p.	!	!LO:DY:a:t=p&colon;	!	!LO:DY:a	!	!
8D\	p	.	.	.	.	.	.	.	.	.	.	.	.	.	.	.	.	.	.	.	.	8B-/	p	8f\	p	8f/	p	8a-/	p
8D\	.	.	.	.	.	.	.	.	.	.	.	.	.	.	.	.	.	.	.	.	.	8B-/	.	8f\	.	8f/	.	8a-/	.
8D\J	.	.	.	.	.	.	.	.	.	.	.	.	.	.	.	.	.	.	.	.	.	8B-/J	.	8f\J	.	8f/J	.	8a-/J	.
=93	=93	=93	=93	=93	=93	=93	=93	=93	=93	=93	=93	=93	=93	=93	=93	=93	=93	=93	=93	=93	=93	=93	=93	=93	=93	=93	=93	=93	=93
!	!LO:DY:a	!	!	!	!	!	!	!	!	!	!	!	!	!	!	!	!	!	!	!	!	!	!LO:DY:a	!	!LO:DY:a	!LO:TX:t=P:problem=mixed beam	!LO:DY:a	!LO:TX:t=P:problem=mixed beam	!
8E-\L	f	4E-\	-ctam	-ctam	.	.	4B-\	-ctam	-ctam	.	.	4e-\	-ctam	-ctam	.	.	4g\	-ctam	-ctam	.	.	8e-\L	f	8g\L	f	8ee-\L	f	8gg\L	f
!	!LO:DY:a	!	!	!	!	!	!	!	!	!	!	!	!	!	!	!	!	!	!	!	!	!	!LO:DY:a:t=p.	!	!LO:DY:a:t=p&colon;	!	!LO:DY:a	!	!
8E-\	p	.	.	.	.	.	.	.	.	.	.	.	.	.	.	.	.	.	.	.	.	8e-\	p	8g\	p	8e-/	p	8g/	p
8E-\	.	4r	.	.	.	.	4r	.	.	.	.	4r	.	.	.	.	4r	.	.	.	.	8e-\	.	8g\	.	8e-/	.	8g/	.
8E-\J	.	.	.	.	.	.	.	.	.	.	.	.	.	.	.	.	.	.	.	.	.	8e-\J	.	8g\J	.	8e-/J	.	8g/J	.
*	*	*	*	*	*	*	*	*	*	*	*	*	*	*	*	*	*	*	*	*	*	*	*	*Xtremolo	*	*	*	*	*
!	!	!	!	!	!	!	!LO:LB:g=original	!	!	!	!	!	!	!	!	!	!	!	!	!	!	!	!	!	!	!	!	!	!
=94	=94	=94	=94	=94	=94	=94	=94	=94	=94	=94	=94	=94	=94	=94	=94	=94	=94	=94	=94	=94	=94	=94	=94	=94	=94	=94	=94	=94	=94
!LO:TX:t=P:problem=mixed beam	!	!	!	!	!	!	!	!	!	!	!	!	!	!	!	!	!	!	!	!	!	!	!	!	!	!	!	!	!
8AA-/L	.	4r	.	.	.	.	4r	.	.	.	.	4r	.	.	.	.	4r	.	.	.	.	4f\	.	4f\	.	8r	.	8r	.
8A-\	.	.	.	.	.	.	.	.	.	.	.	.	.	.	.	.	.	.	.	.	.	.	.	.	.	8cc\L	.	8ff\L	.
8A-\	.	4A-\	in	in	.	.	4c\	in	in	.	.	4f\	in	in	.	.	4ff\	in	in	.	.	8r	.	8r	.	8cc\	.	8ff\	.
8A-\J	.	.	.	.	.	.	.	.	.	.	.	.	.	.	.	.	.	.	.	.	.	8f\	.	8f\	.	8cc\J	.	8ff\J	.
!	!	!LO:LB:g=original	!	!	!	!	!	!	!	!	!	!	!	!	!	!	!LO:LB:g=original	!	!	!	!	!	!	!	!	!	!	!	!
=95	=95	=95	=95	=95	=95	=95	=95	=95	=95	=95	=95	=95	=95	=95	=95	=95	=95	=95	=95	=95	=95	=95	=95	=95	=95	=95	=95	=95	=95
4A-\	.	4.A-\	Lu-	lu-	.	.	4.c\	lu-	lu-	.	.	4f\	Lu-	lu-	.	.	4ff\	lu-	lu-	.	.	4f\	.	4f\	.	4cc\	.	4ff\	.
8r	.	.	.	.	.	.	.	.	.	.	.	4f\	-cem	-cem	.	.	16aa-\LL	-cem	.	.	.	8r	.	8r	.	16cc\LL	.	16aa-\LL	.
.	.	.	.	.	.	.	.	.	.	.	.	.	.	.	.	.	16ff\JJ	.	.	.	.	.	.	.	.	16a-\	.	16ff\	.
8A-\	.	8A-\	-cem	-cem	.	.	8c\	-cem	-cem	.	.	.	.	.	.	.	16aa-\LL	.	-cem	.	.	8f\	.	8a-\	.	16cc\	.	16aa-\	.
.	.	.	.	.	.	.	.	.	.	.	.	.	.	.	.	.	16ff\JJ	.	.	.	.	.	.	.	.	16a-\JJ	.	16ff\JJ	.
=96	=96	=96	=96	=96	=96	=96	=96	=96	=96	=96	=96	=96	=96	=96	=96	=96	=96	=96	=96	=96	=96	=96	=96	=96	=96	=96	=96	=96	=96
!LO:TX:t=P:problem=mixed beam	!	!	!	!	!	!	!	!	!	!	!	!	!	!	!	!	!	!	!	!	!	!	!	!	!	!	!	!	!
8B-\L	.	4B-\	San-	san-	.	.	2B-\	San-	san-	.	.	4g\	San-	san-	.	.	4ee-\	San-	san-	.	.	4e-\	.	4g\	.	4g/	.	4ee-\	.
8B-\	.	.	.	.	.	.	.	.	.	.	.	.	.	.	.	.	.	.	.	.	.	.	.	.	.	.	.	.	.
8BB-/	.	4BB-/	.	.	.	.	.	.	.	.	.	4f\	.	.	.	.	4dd\	.	.	.	.	4B-/	.	4f\	.	4f/	.	4dd\	.
8BB-/J	.	.	.	.	.	.	.	.	.	.	.	.	.	.	.	.	.	.	.	.	.	.	.	.	.	.	.	.	.
!LO:LB:g=original	!	!	!	!	!	!	!	!	!	!	!	!	!	!	!	!	!	!	!	!	!	!	!	!	!	!	!	!	!
=97	=97	=97	=97	=97	=97	=97	=97	=97	=97	=97	=97	=97	=97	=97	=97	=97	=97	=97	=97	=97	=97	=97	=97	=97	=97	=97	=97	=97	=97
4E-\	.	4E-\	-ctam	-ctam	.	.	4B-\	-ctam	-ctam	.	.	4g\	-ctam	-ctam	.	.	4ee-\	-ctam	-ctam	.	.	4G/	.	4e-\	.	4g/	.	4ee-\	.
4r	.	4r	.	.	.	.	4r	.	.	.	.	4r	.	.	.	.	4r	.	.	.	.	8e-\L	.	8g\L	.	8ee-\L	.	8gg\L	.
.	.	.	.	.	.	.	.	.	.	.	.	.	.	.	.	.	.	.	.	.	.	8e-\J	.	8g\J	.	8ee-\J	.	8gg\J	.
=98	=98	=98	=98	=98	=98	=98	=98	=98	=98	=98	=98	=98	=98	=98	=98	=98	=98	=98	=98	=98	=98	=98	=98	=98	=98	=98	=98	=98	=98
!LO:TX:t=P:problem=mixed beam	!	!LO:TX:a:t=4:mod=	!	!	!	!	!	!	!	!	!	!LO:TX:a:t=4:mod=	!	!	!	!	!LO:TX:a:t=4:mod=	!	!	!	!	!	!	!	!	!	!	!	!
8E-\L	.	0r	.	.	.	.	0r	.	.	.	.	0r	.	.	.	.	0r	.	.	.	.	8.e-\L	.	8.g\L	.	8.ee-\L	.	8.gg\L	.
8EE-/J	.	.	.	.	.	.	.	.	.	.	.	.	.	.	.	.	.	.	.	.	.	.	.	.	.	.	.	.	.
.	.	.	.	.	.	.	.	.	.	.	.	.	.	.	.	.	.	.	.	.	.	16f\Jk	.	16a-\Jk	.	16ff\Jk	.	16aa-\Jk	.
4r	.	.	.	.	.	.	.	.	.	.	.	.	.	.	.	.	.	.	.	.	.	8e-\L	.	8g\L	.	8ee-\L	.	8gg\L	.
.	.	.	.	.	.	.	.	.	.	.	.	.	.	.	.	.	.	.	.	.	.	8f\J	.	8a-\J	.	8ff\J	.	8aa-\J	.
=99	=99	=99	=99	=99	=99	=99	=99	=99	=99	=99	=99	=99	=99	=99	=99	=99	=99	=99	=99	=99	=99	=99	=99	=99	=99	=99	=99	=99	=99
!LO:TX:t=P:problem=mixed beam	!	!	!	!	!	!	!	!	!	!	!	!	!	!	!	!	!	!	!	!	!	!	!	!	!	!LO:TX:t=P:problem=mixed beam	!	!	!
8E-\L	.	.	.	.	.	.	.	.	.	.	.	.	.	.	.	.	.	.	.	.	.	8g\L	.	8b-\L	.	8gg\L	.	8bb-\L	.
!	!	!	!	!	!	!	!	!	!	!	!	!	!	!	!	!	!	!	!	!	!	!	!	!	!	!LO:SIC:s=8ee-J	!	!LO:SIC:s=8ggJ	!
8EE-/J	.	.	.	.	.	.	.	.	.	.	.	.	.	.	.	.	.	.	.	.	.	8e-\J	.	8g\J	.	8ee-\	.	8gg\	.
!	!	!	!	!	!	!	!	!	!	!	!	!	!	!	!	!	!	!	!	!	!	!	!	!	!	!LO:SIC:s=8gL	!	!LO:SIC:s=8ee-L	!
4r	.	.	.	.	.	.	.	.	.	.	.	.	.	.	.	.	.	.	.	.	.	8G/L	.	8e-\L	.	8g/	.	8ee-\	.
.	.	.	.	.	.	.	.	.	.	.	.	.	.	.	.	.	.	.	.	.	.	8G/J	.	8e-\J	.	8g/J	.	8ee-\J	.
!	!	!	!	!	!	!	!	!	!	!	!	!	!	!	!	!	!	!	!	!	!	!LO:LB:g=original	!	!LO:LB:g=original	!	!	!	!	!
=100	=100	=100	=100	=100	=100	=100	=100	=100	=100	=100	=100	=100	=100	=100	=100	=100	=100	=100	=100	=100	=100	=100	=100	=100	=100	=100	=100	=100	=100
8E-\L	.	.	.	.	.	.	.	.	.	.	.	.	.	.	.	.	.	.	.	.	.	4G/	.	4e-\	.	4g/	.	4ee-\	.
8C\J	.	.	.	.	.	.	.	.	.	.	.	.	.	.	.	.	.	.	.	.	.	.	.	.	.	.	.	.	.
8AA-/L	.	.	.	.	.	.	.	.	.	.	.	.	.	.	.	.	.	.	.	.	.	8B-/L	.	8f\L	.	8a-/L	.	16ff\LL	.
.	.	.	.	.	.	.	.	.	.	.	.	.	.	.	.	.	.	.	.	.	.	.	.	.	.	.	.	16aa-\	.
8BB-/J	.	.	.	.	.	.	.	.	.	.	.	.	.	.	.	.	.	.	.	.	.	8B-/J	.	8f\J	.	8f/J	.	16dd\	.
.	.	.	.	.	.	.	.	.	.	.	.	.	.	.	.	.	.	.	.	.	.	.	.	.	.	.	.	16ff\JJ	.
=101	=101	=101	=101	=101	=101	=101	=101	=101	=101	=101	=101	=101	=101	=101	=101	=101	=101	=101	=101	=101	=101	=101	=101	=101	=101	=101	=101	=101	=101
!LO:TX:t=P:problem=mixed beam	!	!	!	!	!	!	!	!	!	!	!	!	!	!	!	!	!	!	!	!	!	!LO:TX:t=P:problem=mixed beam	!	!	!	!	!	!	!
8E-\L	.	.	.	.	.	.	.	.	.	.	.	.	.	.	.	.	.	.	.	.	.	8e-\L	.	8g\L	.	8g/L	.	8ee-\L	.
!LO:SIC:s=8EE-	!	!	!	!	!	!	!	!	!	!	!	!	!	!	!	!	!	!	!	!	!	!	!	!LO:SIC:s=8e-	!	!	!	!	!
8EE-/J	.	.	.	.	.	.	.	.	.	.	.	.	.	.	.	.	.	.	.	.	.	8G/	.	8e-\J	.	8g/	.	8ee-\	.
!LO:MO:mod=8EE-J	!	!	!	!	!	!	!	!	!	!	!	!	!	!	!	!	!	!	!	!	!	!	!	!LO:SIC:s=8e-J	!	!	!	!	!
4EE-/	.	.	.	.	.	.	.	.	.	.	.	.	.	.	.	.	.	.	.	.	.	8G/J	.	8e-\	.	8g/J	.	8ee-\J	.
!LO:MO:null:mod=8r	!	!	!	!	!	!	!	!	!	!	!	!	!	!	!	!	!	!	!	!	!	!	!	!LO:TX:b:Bi:t=Quam olim Vertatur.:mod=	!	!	!	!	!
.	.	.	.	.	.	.	.	.	.	.	.	.	.	.	.	.	.	.	.	.	.	8r	.	8r	.	8r	.	8r	.
!	!	!	!	!	!	!	!	!	!	!	!	!	!	!	!	!	!	!	!	!	!	!	!	!LO:PB:g=original	!	!	!	!LO:LB:g=original	!
=102||	=102||	=102||	=102||	=102||	=102||	=102||	=102||	=102||	=102||	=102||	=102||	=102||	=102||	=102||	=102||	=102||	=102||	=102||	=102||	=102||	=102||	=102||	=102||	=102||	=102||	=102||	=102||	=102||	=102||
!!!OMD:
!!!OMD-mod: Quam olim \nAndante
*M3/4	*	*M3/4	*	*	*	*	*M3/4	*	*	*	*	*M3/4	*	*	*	*	*M3/4	*	*	*	*	*M3/4	*	*M3/4	*	*M3/4	*	*M3/4	*
*	*	*	*	*	*	*	*k[b-e-a-]	*	*	*	*	*	*	*	*	*	*	*	*	*	*	*	*	*	*	*	*	*k[b-e-a-]	*
!	!	!	!	!	!	!	!	!	!	!	!	!	!	!	!	!	!	!	!	!	!	!	!	!	!	!	!LO:MO:null:mod=!LO&colon;DY&colon;ed=brack	!	!LO:MO:null:mod=!LO&colon;DY&colon;ed=brack
!LO:TX:a:i:t=Quam Olim:mod=	!	!	!	!	!	!	!	!	!	!	!	!	!	!	!	!	!	!	!	!	!	!LO:TX:a:i::t=Andate:mod=	!	!LO:TX:a::t=Andante:mod=	!	!LO:TX:b:i:t=Quam olim:mod=	!null	!LO:TX:a:i:t=Quam Olim ada&colon;:mod=	!null
!LO:TX:b:i:t=ada&colon;:mod=	!	!LO:TX:a:B:t=ada&colon;:mod=	!	!	!	!	!LO:TX:a:B:rj:t=andante:mod=	!	!	!	!	!LO:TX:a:B:t=ada&colon;:mod=	!	!	!	!	!	!	!	!	!	!LO:TX:a:i:rj:t=Quam olim:mod=	!LO:MO:null:mod=p	!LO:TX:Bi:t=Qvam olim:mod=	!LO:DY:a:rj:t=p&colon;	!LO:TX:a:i:t=Andante:mod=	!LO:MO:null:mod=p	!	!LO:MO:null:mod=p
4EE-/	.	4E-\	Qam	Qam	.	.	2.B-\	Quam	Quam	.	.	2.g\	Quam	Quam	.	.	2.b-\	Quam	Quam	.	.	4E-/	.	4e-\	p	2.g/	.	2.b-\	.
!	!	!	!	!	!	!	!	!	!	!	!	!	!	!	!	!	!	!	!	!	!	!	!LO:DY:a:t=p.	!	!	!	!	!	!
!	!	!	!	!	!	!	!	!	!	!	!	!	!	!	!	!	!	!	!	!	!	!	!LO:MO:mod=.	!	!	!	!	!	!
4GG/	.	4GG/	.	.	.	.	.	.	.	.	.	.	.	.	.	.	.	.	.	.	.	4E-/	p	4e-\	.	.	.	.	.
4BB-/	.	4BB-/	.	.	.	.	.	.	.	.	.	.	.	.	.	.	.	.	.	.	.	4E-/	.	4e-\	.	.	.	.	.
=103	=103	=103	=103	=103	=103	=103	=103	=103	=103	=103	=103	=103	=103	=103	=103	=103	=103	=103	=103	=103	=103	=103	=103	=103	=103	=103	=103	=103	=103
4E-\	.	2E-\	O-	o-	.	.	2B-\	O-	o-	.	.	2e-\	O-	o-	.	.	2g\	O-	o-	.	.	2E-/	.	2e-\	.	2e-/	.	2g/	.
4EE-/	.	.	.	.	.	.	.	.	.	.	.	.	.	.	.	.	.	.	.	.	.	.	.	.	.	.	.	.	.
4r	.	4E-\	-lim	-lim	.	.	4A-\	-lim	-lim	.	.	4f\	-lim	-lim	.	.	4a-\	-lim	-lim	.	.	4r	.	4r	.	4f/	.	4a-/	.
!	!	!	!	!	!	!	!	!	!	!	!	!LO:LB:g=original	!	!	!	!	!	!	!	!	!	!	!	!	!	!	!	!	!
=104	=104	=104	=104	=104	=104	=104	=104	=104	=104	=104	=104	=104	=104	=104	=104	=104	=104	=104	=104	=104	=104	=104	=104	=104	=104	=104	=104	=104	=104
4E-\	.	2E-\	A-	A-	.	.	4B-\	A-	A-	.	.	4g\	A-	A-	.	.	4b-\	A-	A-	.	.	2E-/	.	2e-\	.	4g/	.	4b-\	.
4r	.	.	.	.	.	.	4c\	.	.	.	.	4a-\	-bra-	.	.	.	4cc\	-bra-	.	.	.	.	.	.	.	4a-/	.	4cc\	.
4BB-/	.	4BB-/	-bra-	-bra-	.	.	4B-\	-bra-	-bra-	.	.	4f\	.	-bra-	.	.	4dd\	.	-bra-	.	.	4r	.	4r	.	4f/	.	4dd\	.
!	!	!	!	!	!	!	!	!	!	!	!	!	!	!	!	!	!	!	!	!	!	!	!	!	!	!LO:LB:g=original	!	!	!
=105	=105	=105	=105	=105	=105	=105	=105	=105	=105	=105	=105	=105	=105	=105	=105	=105	=105	=105	=105	=105	=105	=105	=105	=105	=105	=105	=105	=105	=105
4E-\	.	4E-\	-che	-hae	.	.	4B-\	-che	-hae	.	.	4g\	-hae	-hae	.	.	4ee-\	-he	-hae	.	.	2E-/	.	2e-\	.	2g/	.	2ee-\	.
4EE-/	.	4r	.	.	.	.	4r	.	.	.	.	4r	.	.	.	.	4r	.	.	.	.	.	.	.	.	.	.	.	.
4r	.	4r	.	.	.	.	4r	.	.	.	.	4r	.	.	.	.	4r	.	.	.	.	4r	.	4r	.	4r	.	8gg\L	.
.	.	.	.	.	.	.	.	.	.	.	.	.	.	.	.	.	.	.	.	.	.	.	.	.	.	.	.	8ee-\J	.
=106	=106	=106	=106	=106	=106	=106	=106	=106	=106	=106	=106	=106	=106	=106	=106	=106	=106	=106	=106	=106	=106	=106	=106	=106	=106	=106	=106	=106	=106
4r	.	4r	.	.	.	.	4r	.	.	.	.	4r	.	.	.	.	4r	.	.	.	.	4r	.	4r	.	4r	.	4b-\	.
4G\	.	4G\	pro-	pro-	.	.	4B-\	pro-	pro-	.	.	4b-\	pro-	pro-	.	.	4b-\	pro-	pro-	.	.	4G/	.	4e-\	.	4b-\	.	4ee-\	.
4E-\	.	4E-\	-mi-	-mi-	.	.	4B-\	-mi-	-mi-	.	.	4g\	-mi-	-mi-	.	.	4ee-\	-mi-	-mi-	.	.	4e-\	.	4g\	.	4ee-\	.	4gg\	.
=107	=107	=107	=107	=107	=107	=107	=107	=107	=107	=107	=107	=107	=107	=107	=107	=107	=107	=107	=107	=107	=107	=107	=107	=107	=107	=107	=107	=107	=107
2BB-/	.	2B-\	-ſis-	-sis-	.	.	2.B-\	-ſis-	-sis-	.	.	4g\	-sis-	-sis-	.	.	4ee-\	-sis-	-sis-	.	.	4e-\	.	4g\	.	4ee-\	.	4gg\	.
.	.	.	.	.	.	.	.	.	.	.	.	4f\	.	.	.	.	4dd\	.	.	.	.	4B-/	.	4f\	.	4dd\	.	4ff\	.
4BB-/	.	4BB-/	.	.	.	.	.	.	.	.	.	4a-\	.	.	.	.	4ff\	.	.	.	.	4f\	.	4a-\	.	4ff\	.	4aa-\	.
=108	=108	=108	=108	=108	=108	=108	=108	=108	=108	=108	=108	=108	=108	=108	=108	=108	=108	=108	=108	=108	=108	=108	=108	=108	=108	=108	=108	=108	=108
4E-\	.	4E-\	-ti	-ti	.	.	4B-\	-ti	-ti	.	.	4g\	-ti	-ti	.	.	4ee-\	-ti	-ti	.	.	4e-\	.	4g\	.	8ff\L	.	8aa-\L	.
.	.	.	.	.	.	.	.	.	.	.	.	.	.	.	.	.	.	.	.	.	.	.	.	.	.	8ee-\J	.	8gg\	.
4r	.	4r	.	.	.	.	4r	.	.	.	.	4r	.	.	.	.	4r	.	.	.	.	4r	.	4r	.	4r	.	8ff\	.
.	.	.	.	.	.	.	.	.	.	.	.	.	.	.	.	.	.	.	.	.	.	.	.	.	.	.	.	8ee-\	.
4r	.	4r	.	.	.	.	4r	.	.	.	.	4r	.	.	.	.	4r	.	.	.	.	4r	.	4r	.	4r	.	8dd\	.
!LO:TX:b:i:t=Cito Verte:mod=	!	!	!	!	!	!	!	!	!	!	!	!	!	!	!	!	!	!	!	!	!	!	!	!	!	!	!	!	!
.	.	.	.	.	.	.	.	.	.	.	.	.	.	.	.	.	.	.	.	.	.	.	.	.	.	.	.	8cc\J	.
!LO:PB:g=original	!	!	!	!	!	!	!	!	!	!	!	!	!	!	!	!	!LO:LB:g=original	!	!	!	!	!	!	!	!	!	!	!	!
=109	=109	=109	=109	=109	=109	=109	=109	=109	=109	=109	=109	=109	=109	=109	=109	=109	=109	=109	=109	=109	=109	=109	=109	=109	=109	=109	=109	=109	=109
!LO:TX:t=P:problem=skan 0028.	!	!LO:MO:mod=2C	!	!	!	!	!	!	!	!	!	!	!	!	!	!	!	!	!	!	!	!	!	!	!	!	!	!	!
4C/	.	2.C/	pro-	pro-	.	.	2e-\	pro-	pro-	.	.	2f\	pro-	pro-	.	.	2an\	pro-	pro-	.	.	4f\	.	4f\	.	8e-/L	.	8b-\L	.
.	.	.	.	.	.	.	.	.	.	.	.	.	.	.	.	.	.	.	.	.	.	.	.	.	.	8f/	.	8a\J	.
4C/	.	.	.	.	.	.	.	.	.	.	.	.	.	.	.	.	.	.	.	.	.	4f\	.	4f\	.	8e-/	.	4a\	.
.	.	.	.	.	.	.	.	.	.	.	.	.	.	.	.	.	.	.	.	.	.	.	.	.	.	8f/	.	.	.
!	!	!LO:MO:null:mod=4C	!	!	!	!	!	!	!	!	!	!	!	!	!	!	!	!	!	!	!	!	!	!	!	!	!	!	!
4C/	.	.	.	-mi-	.	.	4c\	-mi-	-mi-	.	.	4f\	-mis-	-mis-	.	.	4a\	-mi-	-mi-	.	.	4f\	.	4f\	.	8e-/	.	4a\	.
.	.	.	.	.	.	.	.	.	.	.	.	.	.	.	.	.	.	.	.	.	.	.	.	.	.	8f/J	.	.	.
!	!	!	!	!	!	!	!	!	!	!	!	!	!	!	!	!	!	!	!	!	!	!	!	!LO:LB:g=original	!	!	!	!	!
=110	=110	=110	=110	=110	=110	=110	=110	=110	=110	=110	=110	=110	=110	=110	=110	=110	=110	=110	=110	=110	=110	=110	=110	=110	=110	=110	=110	=110	=110
4D/	.	2D\	-mi-	-sis-	.	.	2B-\	-sis-	-sis-	.	.	2f\	-ſis-	-sis-	.	.	4.b-\	-sis-	-sis-	.	.	4f\	.	4f\	.	4f/	.	4.b-\	.
4D/	.	.	.	.	.	.	.	.	.	.	.	.	.	.	.	.	.	.	.	.	.	4f\	.	4f\	.	4f/	.	.	.
.	.	.	.	.	.	.	.	.	.	.	.	.	.	.	.	.	8cc\	.	.	.	.	.	.	.	.	.	.	8cc\	.
4D/	.	4D\	.	-ti	.	.	4B-\	-ti	-ti	.	.	4f\	-ti	-ti	.	.	4b-\	-ti	-ti	.	.	4f\	.	4f\	.	4f/	.	4b-\	.
=111	=111	=111	=111	=111	=111	=111	=111	=111	=111	=111	=111	=111	=111	=111	=111	=111	=111	=111	=111	=111	=111	=111	=111	=111	=111	=111	=111	=111	=111
*	*	*	*	*	*	*	*	*ij	*	*	*	*	*ij	*	*	*	*	*ij	*	*	*	*	*	*	*	*	*	*	*
4AAn/	.	2An\	-ſiſ-	pro-	.	.	2c\	pro-	pro-	.	.	2f\	pro-	pro-	.	.	2cc\	pro-	pro-	.	.	4f\	.	4f\	.	4r	.	8dd\L	.
.	.	.	.	.	.	.	.	.	.	.	.	.	.	.	.	.	.	.	.	.	.	.	.	.	.	.	.	8cc\J	.
4Any\	.	.	.	.	.	.	.	.	.	.	.	.	.	.	.	.	.	.	.	.	.	4f\	.	4f\	.	4f/	.	4cc\	.
4F\	.	4A\	-ti	-mi-	.	.	4c\	-mi-	-mi-	.	.	4f\	-mis-	-mi-	.	.	4cc\	-mi-	-mi-	.	.	4f\	.	4f\	.	4f/	.	4cc\	.
!	!	!LO:LB:g=original	!	!	!	!	!LO:LB:g=original	!	!	!	!	!	!	!	!	!	!	!	!	!	!	!	!	!	!	!	!	!	!
=112	=112	=112	=112	=112	=112	=112	=112	=112	=112	=112	=112	=112	=112	=112	=112	=112	=112	=112	=112	=112	=112	=112	=112	=112	=112	=112	=112	=112	=112
4B-\	.	2B-\	pro-	-sis-	.	.	2B-\	-sis-	-sis-	.	.	2f\	-ſis-	-sis-	.	.	4.dd\	-sis-	-sis-	.	.	2.B-/	.	4f\	.	2.f/	.	4.dd\	.
4BB-/	.	.	.	.	.	.	.	.	.	.	.	.	.	.	.	.	.	.	.	.	.	.	.	4f\	.	.	.	.	.
.	.	.	.	.	.	.	.	.	.	.	.	.	.	.	.	.	8ee-\	.	.	.	.	.	.	.	.	.	.	8ee-\	.
4B-\	.	4BB-/	-mi-	-ti	.	.	4B-\	-ti	-ti	.	.	4f\	-ti	-ti	.	.	4dd\	-ti	-ti	.	.	.	.	4f\	.	.	.	4dd\	.
*	*	*	*	*	*	*	*	*	*	*	*	*	*Xij	*	*	*	*	*Xij	*	*	*	*	*	*	*	*	*	*	*
=113	=113	=113	=113	=113	=113	=113	=113	=113	=113	=113	=113	=113	=113	=113	=113	=113	=113	=113	=113	=113	=113	=113	=113	=113	=113	=113	=113	=113	=113
4BB-/	.	4BB-/	-ſis-	et	.	.	2.d\	pro-	et	.	.	2.f\	et	et	.	.	2.ff\	et	et	.	.	4r	.	4r	.	2.dd\	.	2.ff\	.
4D/	.	4D\	-ti	se-	.	.	.	.	.	.	.	.	.	.	.	.	.	.	.	.	.	4B-/	.	4f\	.	.	.	.	.
4F/	.	4F\	.	.	.	.	.	.	.	.	.	.	.	.	.	.	.	.	.	.	.	4B-/	.	4f\	.	.	.	.	.
!	!	!	!	!	!	!	!	!	!	!	!	!	!	!	!	!	!	!	!	!	!	!LO:LB:g=original	!	!	!	!	!	!LO:LB:g=original	!
=114	=114	=114	=114	=114	=114	=114	=114	=114	=114	=114	=114	=114	=114	=114	=114	=114	=114	=114	=114	=114	=114	=114	=114	=114	=114	=114	=114	=114	=114
4B-\	.	4B-\	.	-mi-	.	.	4.d\	-mi	se-	.	.	4.f\	ſe-	se-	.	.	4.ff\	ſe-	se-	.	.	2B-/	.	2f\	.	4.dd\	.	4.ff\	.
4BB-/	.	4BB-/	.	-ni	.	.	.	.	.	.	.	.	.	.	.	.	.	.	.	.	.	.	.	.	.	.	.	.	.
.	.	.	.	.	.	.	8c\	-sis-	-mi-	.	.	8f\	-mi-	-mi-	.	.	8ee-\	-mi-	-mi-	.	.	.	.	.	.	8cc\	.	8ee-\	.
4r	.	4r	.	.	.	.	4B-\	-ti	-ni	.	.	4f\	-ni	-ni	.	.	4dd\	-ni	-ni	.	.	4r	.	4r	.	4b-\	.	4dd\	.
*	*	*	*	*	*	*	*	*Xij	*	*	*	*	*	*	*	*	*	*	*	*	*	*	*	*	*	*	*	*	*
=115	=115	=115	=115	=115	=115	=115	=115	=115	=115	=115	=115	=115	=115	=115	=115	=115	=115	=115	=115	=115	=115	=115	=115	=115	=115	=115	=115	=115	=115
4F\	.	4F\	et	et	.	.	4An\	et	e-	.	.	2f\	e-	e-	.	.	4cc\	E-	e-	.	.	2f\	.	2f\	.	4a\	.	4cc\	.
4FF/	.	4r	.	.	.	.	4B-\	.	-jus	.	.	.	.	.	.	.	4dd\	-ius	-ius	.	.	.	.	.	.	4b-\	.	4dd\	.
4r	.	4r	.	.	.	.	4c\	ſe-	in	.	.	4f\	-jus	-jus	.	.	4ee-\	in	in	.	.	4r	.	4r	.	4cc\	.	4ee-\	.
=116	=116	=116	=116	=116	=116	=116	=116	=116	=116	=116	=116	=116	=116	=116	=116	=116	=116	=116	=116	=116	=116	=116	=116	=116	=116	=116	=116	=116	=116
!	!	!	!	!	!	!	!	!	!	!	!	!	!	!	!	!	!	!	!	!	!	!	!	!	!	!LO:N:vis=4	!	!	!
4F\	.	2.F\	ſe-	se-	.	.	4.c\	-mi-	se-	.	.	2.f\	in	in	.	.	4.ee-\	ſe-	se-	.	.	4r	.	4r	.	4.cc\	.	4.ee-\	.
4F\	.	.	.	.	.	.	.	.	.	.	.	.	.	.	.	.	.	.	.	.	.	4f\	.	4f\	.	.	.	.	.
.	.	.	.	.	.	.	8d\	.	-cu-	.	.	.	.	.	.	.	8ff\	-cu-	-cu-	.	.	.	.	.	.	8dd\	.	8ff\	.
4An\	.	.	.	.	.	.	4c\	-ni	-la	.	.	.	.	.	.	.	4ee-\	-la	-la	.	.	4f\	.	4f\	.	4cc\	.	4ee-\	.
!	!	!	!	!	!	!	!	!	!	!	!	!LO:PB:g=original	!	!	!	!	!	!	!	!	!	!	!	!	!	!	!	!	!
=117	=117	=117	=117	=117	=117	=117	=117	=117	=117	=117	=117	=117	=117	=117	=117	=117	=117	=117	=117	=117	=117	=117	=117	=117	=117	=117	=117	=117	=117
4B-\	.	2B-\	-mi-	-mi-	.	.	4B-\	e-	se-	.	.	4f\	ſe-	se-	.	.	4dd\	ſe-	se-	.	.	2B-/	.	2f\	.	4b-\	.	4dd\	.
4BB-/	.	.	.	.	.	.	4c\	.	.	.	.	4e-\	.	.	.	.	4ee-\	-cu-	.	.	.	.	.	.	.	4cc\	.	4ee-\	.
!	!	!	!	!	!	!	!	!	!	!	!	!LO:SIC:v:s=4d\	!	!	!	!	!	!	!	!	!	!	!	!	!	!	!	!	!
4r	.	4BB-/	.	.	.	.	4d\	.	-cu-	.	.	4e-\	-cu-	-cu-	.	.	4ff\	.	-cu-	.	.	4r	.	4r	.	4dd\	.	4ff\	.
=118	=118	=118	=118	=118	=118	=118	=118	=118	=118	=118	=118	=118	=118	=118	=118	=118	=118	=118	=118	=118	=118	=118	=118	=118	=118	=118	=118	=118	=118
4B-\	.	4BB-/	-ni	-ni	.	.	4d\	-jus	-la	.	.	4d\	-la	-la	.	.	4ff\	-la	-la	.	.	4r	.	4r	.	4.dd\	.	4.ff\	.
4BB-/	.	4r	.	.	.	.	4r	.	.	.	.	4r	.	.	.	.	4r	.	.	.	.	4B-/	.	4f\	.	.	.	.	.
.	.	.	.	.	.	.	.	.	.	.	.	.	.	.	.	.	.	.	.	.	.	.	.	.	.	8b-\L	.	8dd\L	.
4B-\	.	4r	.	.	.	.	4r	.	.	.	.	4r	.	.	.	.	4r	.	.	.	.	4B-/	.	4f\	.	8dd\	.	8ff\	.
.	.	.	.	.	.	.	.	.	.	.	.	.	.	.	.	.	.	.	.	.	.	.	.	.	.	8b-\J	.	8dd\J	.
=119	=119	=119	=119	=119	=119	=119	=119	=119	=119	=119	=119	=119	=119	=119	=119	=119	=119	=119	=119	=119	=119	=119	=119	=119	=119	=119	=119	=119	=119
4r	.	2.E-\	e-	e-	.	.	2.c\	in	e-	.	.	2.g\	in	e-	.	.	4cc\	et	et	.	.	4r	.	4r	.	4r	.	4cc\	.
4E-\	.	.	.	.	.	.	.	.	.	.	.	.	.	.	.	.	4ee-\	se-	se-	.	.	4e-\	.	4g\	.	4g/	.	4ee-\	.
4E-\	.	.	.	.	.	.	.	.	.	.	.	.	.	.	.	.	8cc\	-mi-	-mi-	.	.	4e-\	.	4g\	.	4e-/	.	4cc\	.
.	.	.	.	.	.	.	.	.	.	.	.	.	.	.	.	.	8cc\	-ni	-ni	.	.	.	.	.	.	.	.	.	.
!	!	!	!	!	!	!	!	!	!	!	!	!	!	!	!	!	!LO:LB:g=original	!	!	!	!	!	!	!	!	!	!	!	!
=120	=120	=120	=120	=120	=120	=120	=120	=120	=120	=120	=120	=120	=120	=120	=120	=120	=120	=120	=120	=120	=120	=120	=120	=120	=120	=120	=120	=120	=120
!	!	!	!	!	!	!	!	!	!	!	!	!	!	!	!	!	!	!	!	!	!	!	!	!LO:MO:mod=!null:null	!	!	!	!	!
!	!	!	!	!	!	!	!	!	!	!	!	!	!	!	!	!	!	!	!	!	!	!	!	!LO:TX:a:i:t=Solo.	!	!	!	!	!
4F\	.	2.F\	.	.	.	.	2d\	Se-	.	.	.	2.f\	ſecu-	.	.	.	2b-\	e-	e-	.	.	2.f\	.	2.f\	.	2d/	.	2b-\	.
4F\	.	.	.	.	.	.	.	.	.	.	.	.	.	.	.	.	.	.	.	.	.	.	.	.	.	.	.	.	.
4FF/	.	.	.	.	.	.	4c\	-cu-	.	.	.	.	.	.	.	.	4an\	.	.	.	.	.	.	.	.	4c/	.	4a\	.
=121	=121	=121	=121	=121	=121	=121	=121	=121	=121	=121	=121	=121	=121	=121	=121	=121	=121	=121	=121	=121	=121	=121	=121	=121	=121	=121	=121	=121	=121
!	!	!	!	!	!	!	!	!	!	!	!	!	!	!	!	!	!	!	!	!	!	!LO:MO:mod=!LO&colon;TX&colon;a&colon;i&colon;t=Solo	!	!LO:MO:mod=!LO&colon;TX&colon;a&colon;i&colon;t=Solo	!	!	!	!	!
!	!	!	!	!	!	!	!	!	!	!	!	!	!	!	!	!	!	!	!	!	!	!LO:TX:a:i:t=Solo.	!	!null	!	!	!	!	!
4BB-/	.	4BB-/	-jus	-jus	.	.	4d\	-la	-jus	.	.	4f\	-la	-jus	.	.	4b-\	-ius	-jus	.	.	4B-/	.	4f\	.	4d/	.	4b-\	.
4r	.	4r	.	.	.	.	4r	.	.	.	.	4r	.	.	.	.	4r	.	.	.	.	4B-/	.	4f\	.	4r	.	4r	.
4r	.	4r	.	.	.	.	4r	.	.	.	.	4r	.	.	.	.	4r	.	.	.	.	4B-/	.	4f\	.	4r	.	4r	.
=122	=122	=122	=122	=122	=122	=122	=122	=122	=122	=122	=122	=122	=122	=122	=122	=122	=122	=122	=122	=122	=122	=122	=122	=122	=122	=122	=122	=122	=122
!	!	!LO:TX:a:t=5:mod=	!	!	!	!	!LO:TX:a:t=5:mod=	!	!	!	!	!LO:TX:a:t=5:mod=	!	!	!	!	!LO:TX:a:t=5:mod=	!	!	!	!	!	!	!	!	!LO:TX:a:t=5:mod=	!	!LO:TX:a:t=5:mod=	!
4BB-/	.	0.r	.	.	.	.	0.r	.	.	.	.	0.r	.	.	.	.	0.r	.	.	.	.	4B-/	.	4f\	.	0.r	.	0.r	.
4r	.	.	.	.	.	.	.	.	.	.	.	.	.	.	.	.	.	.	.	.	.	4e-\	.	4g\	.	.	.	.	.
4r	.	.	.	.	.	.	.	.	.	.	.	.	.	.	.	.	.	.	.	.	.	4f\	.	4a-\	.	.	.	.	.
!	!	!	!	!	!	!	!	!	!	!	!	!	!	!	!	!	!	!	!	!	!	!	!	!LO:LB:g=original	!	!	!	!	!
=123	=123	=123	=123	=123	=123	=123	=123	=123	=123	=123	=123	=123	=123	=123	=123	=123	=123	=123	=123	=123	=123	=123	=123	=123	=123	=123	=123	=123	=123
4BB-/	.	.	.	.	.	.	.	.	.	.	.	.	.	.	.	.	.	.	.	.	.	4.f\	.	4.a-\	.	.	.	.	.
4B-\	.	.	.	.	.	.	.	.	.	.	.	.	.	.	.	.	.	.	.	.	.	.	.	.	.	.	.	.	.
.	.	.	.	.	.	.	.	.	.	.	.	.	.	.	.	.	.	.	.	.	.	8e-\	.	8g\	.	.	.	.	.
4BB-/	.	.	.	.	.	.	.	.	.	.	.	.	.	.	.	.	.	.	.	.	.	4B-/	.	4f\	.	.	.	.	.
=124	=124	=124	=124	=124	=124	=124	=124	=124	=124	=124	=124	=124	=124	=124	=124	=124	=124	=124	=124	=124	=124	=124	=124	=124	=124	=124	=124	=124	=124
4E-\	.	.	.	.	.	.	.	.	.	.	.	.	.	.	.	.	.	.	.	.	.	4e-\	.	4g\	.	.	.	.	.
4r	.	.	.	.	.	.	.	.	.	.	.	.	.	.	.	.	.	.	.	.	.	4f\	.	4a-\	.	.	.	.	.
4r	.	.	.	.	.	.	.	.	.	.	.	.	.	.	.	.	.	.	.	.	.	4g\	.	4b-\	.	.	.	.	.
=125	=125	=125	=125	=125	=125	=125	=125	=125	=125	=125	=125	=125	=125	=125	=125	=125	=125	=125	=125	=125	=125	=125	=125	=125	=125	=125	=125	=125	=125
4E-\	.	.	.	.	.	.	.	.	.	.	.	.	.	.	.	.	.	.	.	.	.	2g\	.	2b-\	.	.	.	.	.
4EE-/	.	.	.	.	.	.	.	.	.	.	.	.	.	.	.	.	.	.	.	.	.	.	.	.	.	.	.	.	.
4E-\	.	.	.	.	.	.	.	.	.	.	.	.	.	.	.	.	.	.	.	.	.	8f\L	.	8a-\L	.	.	.	.	.
.	.	.	.	.	.	.	.	.	.	.	.	.	.	.	.	.	.	.	.	.	.	8e-\J	.	8g\J	.	.	.	.	.
=126	=126	=126	=126	=126	=126	=126	=126	=126	=126	=126	=126	=126	=126	=126	=126	=126	=126	=126	=126	=126	=126	=126	=126	=126	=126	=126	=126	=126	=126
4BB-/	.	2.r	.	.	.	.	2.r	.	.	.	.	2.r	.	.	.	.	2.r	.	.	.	.	4e-\	.	4g\	.	2.r	.	2.r	.
8B-\L	.	.	.	.	.	.	.	.	.	.	.	.	.	.	.	.	.	.	.	.	.	4B-/	.	4f\	.	.	.	.	.
8A-\	.	.	.	.	.	.	.	.	.	.	.	.	.	.	.	.	.	.	.	.	.	.	.	.	.	.	.	.	.
8G\	.	.	.	.	.	.	.	.	.	.	.	.	.	.	.	.	.	.	.	.	.	4r	.	4r	.	.	.	.	.
8F\J	.	.	.	.	.	.	.	.	.	.	.	.	.	.	.	.	.	.	.	.	.	.	.	.	.	.	.	.	.
!LO:LB:g=original	!	!	!	!	!	!	!	!	!	!	!	!	!	!	!	!	!	!	!	!	!	!	!	!	!	!LO:LB:g=original	!	!	!
=127	=127	=127	=127	=127	=127	=127	=127	=127	=127	=127	=127	=127	=127	=127	=127	=127	=127	=127	=127	=127	=127	=127	=127	=127	=127	=127	=127	=127	=127
!	!	!	!	!	!	!	!	!	!	!	!	!	!	!	!	!	!	!	!	!	!	!LO:MO:mod=!LO&colon;TX&colon;a&colon;i&colon;t=Tutti	!	!	!	!	!	!	!
!	!	!	!	!	!	!	!	!	!	!	!	!	!	!	!	!	!	!	!	!	!	!null	!	!LO:TX:a:i:t=Tutti	!	!	!	!	!
4E-\	.	4E-\	in	Quam	.	.	2.B-\	in ſe-	Quam	.	.	2.g\	Quam	Quam	.	.	2.b-\	Quam	Quam	.	.	2.E-/	.	2.e-\	.	2.g/	.	2.b-\	.
4GG/	.	4GG/	ſe-	.	.	.	.	.	.	.	.	.	.	.	.	.	.	.	.	.	.	.	.	.	.	.	.	.	.
4BB-/	.	4BB-/	cu-	.	.	.	.	.	.	.	.	.	.	.	.	.	.	.	.	.	.	.	.	.	.	.	.	.	.
!	!	!	!	!	!	!	!	!	!	!	!	!	!	!	!	!	!	!	!	!	!	!LO:LB:g=original	!	!	!	!	!	!	!
=128	=128	=128	=128	=128	=128	=128	=128	=128	=128	=128	=128	=128	=128	=128	=128	=128	=128	=128	=128	=128	=128	=128	=128	=128	=128	=128	=128	=128	=128
4E-\	.	2E-\	-la	o-	.	.	2B-\	-cu-	o-	.	.	2e-\	O-	o-	.	.	2g\	O-	o-	.	.	2E-/	.	2e-\	.	2e-/	.	2g/	.
4EE-/	.	.	.	.	.	.	.	.	.	.	.	.	.	.	.	.	.	.	.	.	.	.	.	.	.	.	.	.	.
4r	.	4E-\	in	-lim	.	.	4A-\	-la	-lim	.	.	4f\	-lim	-lim	.	.	4a-X\	-lim	-lim	.	.	4r	.	4r	.	4f/	.	4a-/	.
=129	=129	=129	=129	=129	=129	=129	=129	=129	=129	=129	=129	=129	=129	=129	=129	=129	=129	=129	=129	=129	=129	=129	=129	=129	=129	=129	=129	=129	=129
4E-\	.	2E-\	ſe-	A-	.	.	4B-\	et	A-	.	.	4g\	A-	A-	.	.	4b-\	A-	A-	.	.	4r	.	4r	.	4g/	.	4b-\	.
4r	.	.	.	.	.	.	4c\	se-	.	.	.	4a-\	-bra-	.	.	.	4cc\	-bra-	.	.	.	4r	.	4r	.	4a-/	.	4cc\	.
4BB-/	.	4BB-/	cu-	-bra-	.	.	4B-\	-mi-	-bra-	.	.	4f\	.	-bra-	.	.	4dd\	.	-bra-	.	.	4B-/	.	4f\	.	4f/	.	4dd\	.
=130	=130	=130	=130	=130	=130	=130	=130	=130	=130	=130	=130	=130	=130	=130	=130	=130	=130	=130	=130	=130	=130	=130	=130	=130	=130	=130	=130	=130	=130
4E-\	.	4E-\	-la	-hae	.	.	4B-\	-ni	-hae	.	.	4g\	-he	-hae	.	.	4ee-\	-he	-hae	.	.	4e-\	.	4g\	.	2g/	.	2ee-\	.
4EE-/	.	4r	.	.	.	.	4r	.	.	.	.	4r	.	.	.	.	4r	.	.	.	.	4G/	.	4e-\	.	.	.	.	.
4r	.	4r	.	.	.	.	4r	.	.	.	.	4r	.	.	.	.	4r	.	.	.	.	4r	.	4r	.	4r	.	8gg\L	.
.	.	.	.	.	.	.	.	.	.	.	.	.	.	.	.	.	.	.	.	.	.	.	.	.	.	.	.	8ee-\J	.
!	!	!LO:LB:g=original	!	!	!	!	!	!	!	!	!	!	!	!	!	!	!	!	!	!	!	!	!	!	!	!	!	!	!
=131	=131	=131	=131	=131	=131	=131	=131	=131	=131	=131	=131	=131	=131	=131	=131	=131	=131	=131	=131	=131	=131	=131	=131	=131	=131	=131	=131	=131	=131
4r	.	4r	.	.	.	.	4r	.	.	.	.	4r	.	.	.	.	4r	.	.	.	.	4r	.	4r	.	4r	.	4b-\	.
4G\	.	4G\	Quam	pro-	.	.	4B-\	e-	pro-	.	.	4b-\	pro-	pro-	.	.	4b-\	pro-	pro-	.	.	4G/	.	4e-\	.	4b-\	.	4ee-\	.
4E-\	.	4E-\	O-	-mi-	.	.	4B-\	-jus	-mi-	.	.	4g\	mi-	mi-	.	.	4ee-\	mi-	mi-	.	.	4e-\	.	4g\	.	4ee-\	.	4gg\	.
!	!	!	!	!	!	!	!LO:LB:g=original	!	!	!	!	!	!	!	!	!	!	!	!	!	!	!	!	!	!	!	!	!LO:LB:g=original	!
=132	=132	=132	=132	=132	=132	=132	=132	=132	=132	=132	=132	=132	=132	=132	=132	=132	=132	=132	=132	=132	=132	=132	=132	=132	=132	=132	=132	=132	=132
4B-\	.	2.BB-/	-lim	-sis-	.	.	2.B-\	Qam	-sis-	.	.	4g\	-sis-	-sis-	.	.	4ee-\	-ſis-	-sis-	.	.	4e-\	.	4g\	.	4ee-\	.	4gg\	.
4BB-/	.	.	.	.	.	.	.	.	.	.	.	4f\	-ti	-ti	.	.	4dd\	.	-ti	.	.	4B-/	.	4f\	.	4dd\	.	4ff\	.
4B-\	.	.	.	.	.	.	.	.	.	.	.	4a-\	et	et	.	.	4ff\	-ti	et	.	.	4f\	.	4a-\	.	4ff\	.	4aa-\	.
!	!	!	!	!	!	!	!	!	!	!	!	!LO:LB:g=original	!	!	!	!	!	!	!	!	!	!	!	!	!	!	!	!	!
=133	=133	=133	=133	=133	=133	=133	=133	=133	=133	=133	=133	=133	=133	=133	=133	=133	=133	=133	=133	=133	=133	=133	=133	=133	=133	=133	=133	=133	=133
4E-\	.	2E-\	A-	-ti	.	.	2B-\	O-	-ti	.	.	4a-\	ſe-	se-	.	.	4ff\	et	se-	.	.	4f\	.	4a-\	.	4ff\	.	4aa-\	.
4EE-/	.	.	.	.	.	.	.	.	.	.	.	4g\	-mi-	-mi-	.	.	4ee-\	.	-mi-	.	.	4e-\	.	4g\	.	4ee-\	.	4gg\	.
!	!	!	!	!	!	!	!	!	!	!	!	!	!	!	!	!	!	!	!	!	!	!	!	!LO:SIC:v:s=4g\	!	!	!	!	!
4GG/	.	4E-\	-bra-	et	.	.	4B-\	-lim	et	.	.	4e-\	-ni	-ni	.	.	4ee-\	.	-ni	.	.	4e-\	.	4f\	.	4b-\	.	4ee-\	.
=134	=134	=134	=134	=134	=134	=134	=134	=134	=134	=134	=134	=134	=134	=134	=134	=134	=134	=134	=134	=134	=134	=134	=134	=134	=134	=134	=134	=134	=134
4AA-/	.	2.A-\	-chae	se-	.	.	2.c\	A-	se-	.	.	2e-\	e-	et	.	.	2.cc\	ſemi-	se-	.	.	2e-\	.	2e-\	.	2cc\	.	2cc\	.
4A-\	.	.	.	.	.	.	.	.	.	.	.	.	.	.	.	.	.	.	.	.	.	.	.	.	.	.	.	.	.
4A-\	.	.	.	.	.	.	.	.	.	.	.	4a-\	-jus	se-	.	.	.	.	.	.	.	4f\	.	4a-\	.	8cc\L	.	8aa-\L	.
.	.	.	.	.	.	.	.	.	.	.	.	.	.	.	.	.	.	.	.	.	.	.	.	.	.	8a-\J	.	8ff\J	.
=135	=135	=135	=135	=135	=135	=135	=135	=135	=135	=135	=135	=135	=135	=135	=135	=135	=135	=135	=135	=135	=135	=135	=135	=135	=135	=135	=135	=135	=135
4B-\	.	2B-\	pro-	-mi-	.	.	2B-\	-bra-	-mi-	.	.	2g\	E-	-mi-	.	.	2ee-\	-ni	-mi-	.	.	4e-\	.	4g\	.	4g/	.	2.ee-\	.
4B-\	.	.	.	.	.	.	.	.	.	.	.	.	.	.	.	.	.	.	.	.	.	4e-\	.	4g\	.	4g/	.	.	.
4B-\	.	4B-\	-mi-	-ni	.	.	4B-\	-che	-ni	.	.	4g\	.	-ni	.	.	4ee-\	e-	-ni	.	.	4e-\	.	4g\	.	4g/	.	.	.
!	!	!	!	!	!	!	!	!	!	!	!	!	!	!	!	!	!	!	!	!	!	!	!	!LO:LB:g=original	!	!	!	!	!
=136	=136	=136	=136	=136	=136	=136	=136	=136	=136	=136	=136	=136	=136	=136	=136	=136	=136	=136	=136	=136	=136	=136	=136	=136	=136	=136	=136	=136	=136
4BB-/	.	2.BB-/	-ſisti	e-	.	.	2.B-\	pro mi-	e-	.	.	2.f\	.	e-	.	.	2.dd\	-ius	e-	.	.	4B-/	.	4f\	.	4f/	.	2.dd\	.
4BB-/	.	.	.	.	.	.	.	.	.	.	.	.	.	.	.	.	.	.	.	.	.	4B-/	.	4f\	.	4f/	.	.	.
4BB-/	.	.	.	.	.	.	.	.	.	.	.	.	.	.	.	.	.	.	.	.	.	4B-/	.	4f\	.	4f/	.	.	.
!	!	!	!	!	!	!	!	!	!	!	!	!	!	!	!	!	!LO:LB:g=original	!	!	!	!	!	!	!	!	!	!	!	!
=137	=137	=137	=137	=137	=137	=137	=137	=137	=137	=137	=137	=137	=137	=137	=137	=137	=137	=137	=137	=137	=137	=137	=137	=137	=137	=137	=137	=137	=137
4E-\	.	4E-\	e-	-jus	.	.	4B-\	-sis-	-jus	.	.	4g\	-juſ	-jus	.	.	4ee-\	.	-jus	.	.	4e-\	.	4g\	.	4g/	.	4ee-\	.
4r	.	4r	.	.	.	.	4r	.	.	.	.	4r	.	.	.	.	4r	.	.	.	.	4r	.	4r	.	4r	.	4r	.
!LO:MO:mod=!LO&colon;TX&colon;a&colon;i&colon;t=Tardissime	!	!	!	!	!	!	!	!	!	!	!	!	!	!	!	!	!	!	!	!	!	!LO:MO:mod=!LO&colon;TX&colon;a&colon;i&colon;t=Tardissime	!	!LO:MO:mod=!LO&colon;TX&colon;a&colon;i&colon;t=Tardissime	!	!LO:MO:mod=!LO&colon;TX&colon;a&colon;i&colon;t=Tardissime	!	!LO:MO:mod=!LO&colon;TX&colon;a&colon;i&colon;t=Tardissime	!
!LO:TX:a:i:t=Tardiſsime	!	!	!	!	!	!	!	!	!	!	!	!	!	!	!	!	!	!	!	!	!	!LO:TX:a:i:t=Tardiſsime.	!	!null	!	!null	!	!LO:TX:a:i:t=Tardiſsime	!
4EE-/	.	4E-\	-jus	in	.	.	4E-/	-ti	in	.	.	4g\	in	in	.	.	4ee-\	in	in	.	.	4E-/	.	4e-\	.	4g/	.	4ee-\	.
=138	=138	=138	=138	=138	=138	=138	=138	=138	=138	=138	=138	=138	=138	=138	=138	=138	=138	=138	=138	=138	=138	=138	=138	=138	=138	=138	=138	=138	=138
!	!	!	!	!	!	!	!	!	!	!	!	!	!	!	!	!	!	!	!	!	!	!	!	!LO:MO:mod=!null:null	!	!LO:MO:mod=!null:null	!	!	!
!	!	!	!	!	!	!	!	!	!	!	!	!	!	!	!	!	!	!	!	!	!	!	!	!LO:TX:a:i:t=Tardiſsime	!	!LO:TX:a:i:t=Tardiſsime	!	!	!
2.EE-/	.	2E-\	in	se-	.	.	2E-/	in	se-	.	.	2a-\	ſe-	se-	.	.	2cc\	Se-	se-	.	.	2.E-/	.	2.e-\	.	2a-\	.	2dd\	.
.	.	4E-\	ſe-	-cu-	.	.	4E-/	ſe-	-cu-	.	.	4a-\	-cu-	-cu-	.	.	4cc\	-cu-	-cu-	.	.	.	.	.	.	4a-\	.	4cc\	.
=139	=139	=139	=139	=139	=139	=139	=139	=139	=139	=139	=139	=139	=139	=139	=139	=139	=139	=139	=139	=139	=139	=139	=139	=139	=139	=139	=139	=139	=139
!	!	!LO:MO:mod=2.E-;	!	!	!	!	!	!	!	!	!	!	!	!	!	!	!	!	!	!	!	!LO:SIC:s=2.E-;	!	!LO:SIC:s=2.e-;	!	!LO:MO:mod=2.g;	!	!	!
2.EE-;/	.	2E-;\	-cula. -	-la. -	.	.	2.E-;/	-cula. -	-la. -	.	.	2.g;\	-la	-la.	.	.	2.b-;\	-la	-la.	.	.	2.E-/	.	2.e-\	.	2g;/	.	2.b-;\	.
!	!	!LO:MO:mod=.	!	!	!	!	!	!	!	!	!	!	!	!	!	!	!	!	!	!	!	!	!	!	!	!LO:MO:mod=.	!	!	!
.	.	4r	.	.	.	.	.	.	.	.	.	.	.	.	.	.	.	.	.	.	.	.	.	.	.	4r	.	.	.
==	==	==	==	==	==	==	==	==	==	==	==	==	==	==	==	==	==	==	==	==	==	==	==	==	==	==	==	==	==
*-	*-	*-	*-	*-	*-	*-	*-	*-	*-	*-	*-	*-	*-	*-	*-	*-	*-	*-	*-	*-	*-	*-	*-	*-	*-	*-	*-	*-	*-
!!!system-decoration: [(g1)][(g2)][(g3)]s9
!!!RDF**kern: @ = marked note, color=grey
!!!ENC: Tomasz Grochalski
!!!END: 2020-09-22
!!!ENC: Krzysztof Stępień
!!!END: 2022-02-02
!!!EED: Marta Lawrence
!!!EST: revision finished 2022-12-07
!!!ENC-modern: Marta Lawrence
!!!END-mod: 2022-12-07
!!!YEC: Copyright 2022 Narodowy Instytut Fryderyka Chopina (https://polishscores.org)
!!!YEM: License CC-BY-4.0 (https://creativecommons.org/licenses/by/4.0)
!!!filter-modern: sic -sq | autostem -r | tie -s | shed -e "s/yy//" | shed -e "s/TX(.*):t=P:/tx$1:t=P:/LG" | shed -e "s/LO:N:/LO:n:$1/L" | shed -e "s/^(\d+[\/\\]right)/$1yy/I; s/^(\d+[\/\\]left)/$1yy/I" | shed -e "s/LO:DY:(a|b|rj)/LO:dy:$1/L" | shed -e "s/^(X?)rep$/$1REP/I" | modori -m
